P3
128 96
255
79 154 92 79 154 92 79 154 92 79 154 92 79 154 92 79 154 92 79 154 92 79 154 92 79 154 92 79 154 92 79 154 92 79 154 92 79 154 92 79 154 92 79 154 92 79 154 92 64 120 73 64 120 73 64 120 73 64 120 73 64 120 73 64 120 73 64 120 73 64 120 73 64 120 73 64 120 73 64 120 73 64 120 73 64 120 73 64 120 73 64 120 73 64 120 73 177 149 101 177 149 101 177 149 101 177 149 101 177 149 101 177 149 101 177 149 101 177 149 101 177 149 101 177 149 101 177 149 101 177 149 101 177 149 101 177 149 101 177 149 101 177 149 101 120 133 142 120 133 142 120 133 142 120 133 142 120 133 142 120 133 142 120 133 142 120 133 142 120 133 142 120 133 142 120 133 142 120 133 142 120 133 142 120 133 142 120 133 142 120 133 142 138 113 92 138 113 92 138 113 92 138 113 92 138 113 92 138 113 92 138 113 92 138 113 92 138 113 92 138 113 92 138 113 92 138 113 92 138 113 92 138 113 92 138 113 92 138 113 92 145 85 72 145 85 72 145 85 72 145 85 72 145 85 72 145 85 72 145 85 72 145 85 72 145 85 72 145 85 72 145 85 72 145 85 72 145 85 72 145 85 72 145 85 72 145 85 72 79 150 177 79 150 177 79 150 177 79 150 177 79 150 177 79 150 177 79 150 177 79 150 177 79 150 177 79 150 177 79 150 177 79 150 177 79 150 177 79 150 177 79 150 177 79 150 177 41 56 47 41 56 47 41 56 47 41 56 47 41 56 47 41 56 47 41 56 47 41 56 47 41 56 47 41 56 47 41 56 47 41 56 47 41 56 47 41 56 47 41 56 47 41 56 47
79 154 92 46 111 68 46 111 68 46 111 68 46 111 68 79 154 92 46 111 68 46 111 68 46 111 68 46 111 68 46 111 68 79 154 92 46 111 68 46 111 68 46 111 68 79 154 92 64 120 73 37 90 61 37 90 61 37 90 61 37 90 61 64 120 73 37 90 61 37 90 61 37 90 61 37 90 61 37 90 61 64 120 73 37 90 61 37 90 61 37 90 61 64 120 73 177 149 101 118 98 68 118 98 68 118 98 68 118 98 68 118 98 68 177 149 101 118 98 68 118 98 68 118 98 68 118 98 68 118 98 68 118 98 68 177 149 101 118 98 68 177 149 101 120 133 142 82 96 106 82 96 106 82 96 106 82 96 106 116 127 135 82 96 106 82 96 106 82 96 106 82 96 106 116 127 135 82 96 106 82 96 106 82 96 106 82 96 106 120 133 142 138 113 92 104 84 68 104 84 68 104 84 68 86 70 56 104 84 68 104 84 68 104 84 68 86 70 56 104 84 68 104 84 68 104 84 68 86 70 56 104 84 68 104 84 68 138 113 92 145 85 72 145 85 72 91 60 52 91 60 52 91 60 52 91 60 52 91 60 52 91 60 52 91 60 52 91 60 52 91 60 52 91 60 52 91 60 52 91 60 52 145 85 72 145 85 72 79 150 177 46 93 116 46 93 116 46 93 116 46 93 116 79 150 177 46 93 116 46 93 116 46 93 116 46 93 116 79 150 177 46 93 116 46 93 116 46 93 116 46 93 116 79 150 177 41 56 47 23 34 28 23 34 28 23 34 28 23 34 28 41 56 47 23 34 28 23 34 28 23 34 28 23 34 28 23 34 28 41 56 47 23 34 28 23 34 28 23 34 28 41 56 47
79 154 92 46 111 68 46 111 68 46 111 68 79 154 92 46 111 68 46 111 68 46 111 68 46 111 68 46 111 68 79 154 92 46 111 68 46 111 68 46 111 68 46 111 68 79 154 92 64 120 73 37 90 61 37 90 61 37 90 61 64 120 73 37 90 61 37 90 61 37 90 61 37 90 61 37 90 61 64 120 73 37 90 61 37 90 61 37 90 61 37 90 61 64 120 73 177 149 101 118 98 68 118 98 68 118 98 68 118 98 68 177 149 101 118 98 68 118 98 68 118 98 68 118 98 68 118 98 68 118 98 68 177 149 101 118 98 68 118 98 68 177 149 101 120 133 142 82 96 106 82 96 106 82 96 106 82 96 106 116 127 135 82 96 106 82 96 106 82 96 106 82 96 106 116 127 135 82 96 106 82 96 106 82 96 106 82 96 106 120 133 142 138 113 92 104 84 68 104 84 68 104 84 68 86 70 56 104 84 68 104 84 68 104 84 68 86 70 56 104 84 68 104 84 68 104 84 68 86 70 56 104 84 68 104 84 68 138 113 92 145 85 72 91 60 52 145 85 72 91 60 52 91 60 52 91 60 52 91 60 52 91 60 52 91 60 52 91 60 52 91 60 52 91 60 52 91 60 52 145 85 72 91 60 52 145 85 72 79 150 177 46 93 116 46 93 116 46 93 116 79 150 177 46 93 116 46 93 116 46 93 116 46 93 116 79 150 177 46 93 116 46 93 116 46 93 116 46 93 116 79 150 177 79 150 177 41 56 47 23 34 28 23 34 28 23 34 28 41 56 47 23 34 28 23 34 28 23 34 28 23 34 28 23 34 28 41 56 47 23 34 28 23 34 28 23 34 28 23 34 28 41 56 47
79 154 92 46 111 68 46 111 68 79 154 92 46 111 68 46 111 68 46 111 68 46 111 68 46 111 68 79 154 92 46 111 68 46 111 68 46 111 68 46 111 68 46 111 68 79 154 92 64 120 73 37 90 61 37 90 61 64 120 73 37 90 61 37 90 61 37 90 61 37 90 61 37 90 61 64 120 73 37 90 61 37 90 61 37 90 61 37 90 61 37 90 61 64 120 73 177 149 101 118 98 68 118 98 68 118 98 68 177 149 101 118 98 68 118 98 68 118 98 68 118 98 68 118 98 68 118 98 68 177 149 101 118 98 68 118 98 68 118 98 68 177 149 101 120 133 142 82 96 106 82 96 106 82 96 106 82 96 106 116 127 135 82 96 106 82 96 106 82 96 106 82 96 106 116 127 135 82 96 106 82 96 106 82 96 106 82 96 106 120 133 142 138 113 92 104 84 68 104 84 68 104 84 68 86 70 56 104 84 68 104 84 68 104 84 68 86 70 56 104 84 68 104 84 68 104 84 68 86 70 56 104 84 68 104 84 68 138 113 92 145 85 72 91 60 52 91 60 52 145 85 72 91 60 52 91 60 52 91 60 52 91 60 52 91 60 52 91 60 52 91 60 52 91 60 52 145 85 72 91 60 52 91 60 52 145 85 72 79 150 177 46 93 116 46 93 116 46 93 116 79 150 177 46 93 116 46 93 116 46 93 116 46 93 116 79 150 177 46 93 116 46 93 116 46 93 116 46 93 116 79 150 177 79 150 177 41 56 47 23 34 28 23 34 28 41 56 47 23 34 28 23 34 28 23 34 28 23 34 28 23 34 28 41 56 47 23 34 28 23 34 28 23 34 28 23 34 28 23 34 28 41 56 47
79 154 92 46 111 68 79 154 92 46 111 68 46 111 68 46 111 68 46 111 68 46 111 68 79 154 92 46 111 68 46 111 68 46 111 68 46 111 68 46 111 68 79 154 92 79 154 92 64 120 73 37 90 61 64 120 73 37 90 61 37 90 61 37 90 61 37 90 61 37 90 61 64 120 73 37 90 61 37 90 61 37 90 61 37 90 61 37 90 61 64 120 73 64 120 73 177 149 101 118 98 68 118 98 68 177 149 101 118 98 68 118 98 68 118 98 68 118 98 68 118 98 68 118 98 68 177 149 101 118 98 68 118 98 68 118 98 68 118 98 68 177 149 101 120 133 142 116 127 135 116 127 135 116 127 135 116 127 135 116 127 135 116 127 135 116 127 135 116 127 135 116 127 135 116 127 135 116 127 135 116 127 135 116 127 135 116 127 135 120 133 142 138 113 92 86 70 56 86 70 56 86 70 56 86 70 56 86 70 56 86 70 56 86 70 56 86 70 56 86 70 56 86 70 56 86 70 56 86 70 56 86 70 56 86 70 56 138 113 92 145 85 72 91 60 52 91 60 52 91 60 52 145 85 72 91 60 52 91 60 52 91 60 52 91 60 52 91 60 52 91 60 52 145 85 72 91 60 52 91 60 52 91 60 52 145 85 72 79 150 177 46 93 116 46 93 116 79 150 177 46 93 116 46 93 116 46 93 116 46 93 116 79 150 177 46 93 116 46 93 116 46 93 116 46 93 116 79 150 177 46 93 116 79 150 177 41 56 47 23 34 28 41 56 47 23 34 28 23 34 28 23 34 28 23 34 28 23 34 28 41 56 47 23 34 28 23 34 28 23 34 28 23 34 28 23 34 28 41 56 47 41 56 47
79 154 92 79 154 92 46 111 68 46 111 68 46 111 68 46 111 68 46 111 68 79 154 92 46 111 68 46 111 68 46 111 68 46 111 68 46 111 68 79 154 92 46 111 68 79 154 92 64 120 73 64 120 73 37 90 61 37 90 61 37 90 61 37 90 61 37 90 61 64 120 73 37 90 61 37 90 61 37 90 61 37 90 61 37 90 61 64 120 73 37 90 61 64 120 73 177 149 101 118 98 68 177 149 101 118 98 68 118 98 68 118 98 68 118 98 68 118 98 68 118 98 68 177 149 101 118 98 68 118 98 68 118 98 68 118 98 68 118 98 68 177 149 101 120 133 142 82 96 106 82 96 106 82 96 106 82 96 106 116 127 135 82 96 106 82 96 106 82 96 106 82 96 106 116 127 135 82 96 106 82 96 106 82 96 106 82 96 106 120 133 142 138 113 92 104 84 68 104 84 68 104 84 68 86 70 56 104 84 68 104 84 68 104 84 68 86 70 56 104 84 68 104 84 68 104 84 68 86 70 56 104 84 68 104 84 68 138 113 92 145 85 72 91 60 52 91 60 52 91 60 52 91 60 52 145 85 72 91 60 52 91 60 52 91 60 52 91 60 52 145 85 72 91 60 52 91 60 52 91 60 52 91 60 52 145 85 72 79 150 177 46 93 116 46 93 116 79 150 177 46 93 116 46 93 116 46 93 116 46 93 116 79 150 177 46 93 116 46 93 116 46 93 116 46 93 116 79 150 177 46 93 116 79 150 177 41 56 47 41 56 47 23 34 28 23 34 28 23 34 28 23 34 28 23 34 28 41 56 47 23 34 28 23 34 28 23 34 28 23 34 28 23 34 28 41 56 47 23 34 28 41 56 47
79 154 92 46 111 68 46 111 68 46 111 68 46 111 68 46 111 68 79 154 92 46 111 68 46 111 68 46 111 68 46 111 68 46 111 68 79 154 92 46 111 68 46 111 68 79 154 92 64 120 73 37 90 61 37 90 61 37 90 61 37 90 61 37 90 61 64 120 73 37 90 61 37 90 61 37 90 61 37 90 61 37 90 61 64 120 73 37 90 61 37 90 61 64 120 73 177 149 101 177 149 101 118 98 68 118 98 68 118 98 68 118 98 68 118 98 68 118 98 68 177 149 101 118 98 68 118 98 68 118 98 68 118 98 68 118 98 68 118 98 68 177 149 101 120 133 142 82 96 106 82 96 106 82 96 106 82 96 106 116 127 135 82 96 106 82 96 106 82 96 106 82 96 106 116 127 135 82 96 106 82 96 106 82 96 106 82 96 106 120 133 142 138 113 92 104 84 68 104 84 68 104 84 68 86 70 56 104 84 68 104 84 68 104 84 68 86 70 56 104 84 68 104 84 68 104 84 68 86 70 56 104 84 68 104 84 68 138 113 92 145 85 72 91 60 52 91 60 52 91 60 52 91 60 52 91 60 52 145 85 72 91 60 52 91 60 52 145 85 72 91 60 52 91 60 52 91 60 52 91 60 52 91 60 52 145 85 72 79 150 177 46 93 116 79 150 177 46 93 116 46 93 116 46 93 116 46 93 116 79 150 177 46 93 116 46 93 116 46 93 116 46 93 116 79 150 177 46 93 116 46 93 116 79 150 177 41 56 47 23 34 28 23 34 28 23 34 28 23 34 28 23 34 28 41 56 47 23 34 28 23 34 28 23 34 28 23 34 28 23 34 28 41 56 47 23 34 28 23 34 28 41 56 47
79 154 92 46 111 68 46 111 68 46 111 68 46 111 68 79 154 92 46 111 68 46 111 68 46 111 68 46 111 68 46 111 68 79 154 92 46 111 68 46 111 68 46 111 68 79 154 92 64 120 73 37 90 61 37 90 61 37 90 61 37 90 61 64 120 73 37 90 61 37 90 61 37 90 61 37 90 61 37 90 61 64 120 73 37 90 61 37 90 61 37 90 61 64 120 73 177 149 101 118 98 68 118 98 68 118 98 68 118 98 68 118 98 68 118 98 68 177 149 101 118 98 68 118 98 68 118 98 68 118 98 68 118 98 68 118 98 68 177 149 101 177 149 101 120 133 142 82 96 106 82 96 106 82 96 106 82 96 106 116 127 135 82 96 106 82 96 106 82 96 106 82 96 106 116 127 135 82 96 106 82 96 106 82 96 106 82 96 106 120 133 142 138 113 92 104 84 68 104 84 68 104 84 68 86 70 56 104 84 68 104 84 68 104 84 68 86 70 56 104 84 68 104 84 68 104 84 68 86 70 56 104 84 68 104 84 68 138 113 92 145 85 72 91 60 52 91 60 52 91 60 52 91 60 52 91 60 52 91 60 52 145 85 72 145 85 72 91 60 52 91 60 52 91 60 52 91 60 52 91 60 52 91 60 52 145 85 72 79 150 177 46 93 116 79 150 177 46 93 116 46 93 116 46 93 116 46 93 116 79 150 177 46 93 116 46 93 116 46 93 116 46 93 116 79 150 177 46 93 116 46 93 116 79 150 177 41 56 47 23 34 28 23 34 28 23 34 28 23 34 28 41 56 47 23 34 28 23 34 28 23 34 28 23 34 28 23 34 28 41 56 47 23 34 28 23 34 28 23 34 28 41 56 47
79 154 92 46 111 68 46 111 68 46 111 68 79 154 92 46 111 68 46 111 68 46 111 68 46 111 68 46 111 68 79 154 92 46 111 68 46 111 68 46 111 68 46 111 68 79 154 92 64 120 73 37 90 61 37 90 61 37 90 61 64 120 73 37 90 61 37 90 61 37 90 61 37 90 61 37 90 61 64 120 73 37 90 61 37 90 61 37 90 61 37 90 61 64 120 73 177 149 101 177 149 101 177 149 101 177 149 101 177 149 101 177 149 101 177 149 101 177 149 101 177 149 101 177 149 101 177 149 101 177 149 101 177 149 101 177 149 101 177 149 101 177 149 101 120 133 142 116 127 135 116 127 135 116 127 135 116 127 135 116 127 135 116 127 135 116 127 135 116 127 135 116 127 135 116 127 135 116 127 135 116 127 135 116 127 135 116 127 135 120 133 142 138 113 92 86 70 56 86 70 56 86 70 56 86 70 56 86 70 56 86 70 56 86 70 56 86 70 56 86 70 56 86 70 56 86 70 56 86 70 56 86 70 56 86 70 56 138 113 92 145 85 72 91 60 52 91 60 52 91 60 52 91 60 52 91 60 52 91 60 52 145 85 72 145 85 72 91 60 52 91 60 52 91 60 52 91 60 52 91 60 52 91 60 52 145 85 72 79 150 177 79 150 177 46 93 116 46 93 116 46 93 116 46 93 116 79 150 177 46 93 116 46 93 116 46 93 116 46 93 116 79 150 177 46 93 116 46 93 116 46 93 116 79 150 177 41 56 47 23 34 28 23 34 28 23 34 28 41 56 47 23 34 28 23 34 28 23 34 28 23 34 28 23 34 28 41 56 47 23 34 28 23 34 28 23 34 28 23 34 28 41 56 47
79 154 92 46 111 68 46 111 68 79 154 92 46 111 68 46 111 68 46 111 68 46 111 68 46 111 68 79 154 92 46 111 68 46 111 68 46 111 68 46 111 68 46 111 68 79 154 92 64 120 73 37 90 61 37 90 61 64 120 73 37 90 61 37 90 61 37 90 61 37 90 61 37 90 61 64 120 73 37 90 61 37 90 61 37 90 61 37 90 61 37 90 61 64 120 73 177 149 101 118 98 68 118 98 68 118 98 68 118 98 68 177 149 101 118 98 68 118 98 68 118 98 68 118 98 68 118 98 68 118 98 68 177 149 101 118 98 68 118 98 68 177 149 101 120 133 142 82 96 106 82 96 106 82 96 106 82 96 106 116 127 135 82 96 106 82 96 106 82 96 106 82 96 106 116 127 135 82 96 106 82 96 106 82 96 106 82 96 106 120 133 142 138 113 92 104 84 68 104 84 68 104 84 68 86 70 56 104 84 68 104 84 68 104 84 68 86 70 56 104 84 68 104 84 68 104 84 68 86 70 56 104 84 68 104 84 68 138 113 92 145 85 72 91 60 52 91 60 52 91 60 52 91 60 52 91 60 52 145 85 72 91 60 52 91 60 52 145 85 72 91 60 52 91 60 52 91 60 52 91 60 52 91 60 52 145 85 72 79 150 177 79 150 177 46 93 116 46 93 116 46 93 116 46 93 116 79 150 177 46 93 116 46 93 116 46 93 116 46 93 116 79 150 177 46 93 116 46 93 116 46 93 116 79 150 177 41 56 47 23 34 28 23 34 28 41 56 47 23 34 28 23 34 28 23 34 28 23 34 28 23 34 28 41 56 47 23 34 28 23 34 28 23 34 28 23 34 28 23 34 28 41 56 47
79 154 92 46 111 68 79 154 92 46 111 68 46 111 68 46 111 68 46 111 68 46 111 68 79 154 92 46 111 68 46 111 68 46 111 68 46 111 68 46 111 68 79 154 92 79 154 92 64 120 73 37 90 61 64 120 73 37 90 61 37 90 61 37 90 61 37 90 61 37 90 61 64 120 73 37 90 61 37 90 61 37 90 61 37 90 61 37 90 61 64 120 73 64 120 73 177 149 101 118 98 68 118 98 68 118 98 68 177 149 101 118 98 68 118 98 68 118 98 68 118 98 68 118 98 68 118 98 68 177 149 101 118 98 68 118 98 68 118 98 68 177 149 101 120 133 142 82 96 106 82 96 106 82 96 106 82 96 106 116 127 135 82 96 106 82 96 106 82 96 106 82 96 106 116 127 135 82 96 106 82 96 106 82 96 106 82 96 106 120 133 142 138 113 92 104 84 68 104 84 68 104 84 68 86 70 56 104 84 68 104 84 68 104 84 68 86 70 56 104 84 68 104 84 68 104 84 68 86 70 56 104 84 68 104 84 68 138 113 92 145 85 72 91 60 52 91 60 52 91 60 52 91 60 52 145 85 72 91 60 52 91 60 52 91 60 52 91 60 52 145 85 72 91 60 52 91 60 52 91 60 52 91 60 52 145 85 72 79 150 177 46 93 116 46 93 116 46 93 116 46 93 116 79 150 177 46 93 116 46 93 116 46 93 116 46 93 116 79 150 177 46 93 116 46 93 116 46 93 116 46 93 116 79 150 177 41 56 47 23 34 28 41 56 47 23 34 28 23 34 28 23 34 28 23 34 28 23 34 28 41 56 47 23 34 28 23 34 28 23 34 28 23 34 28 23 34 28 41 56 47 41 56 47
79 154 92 79 154 92 46 111 68 46 111 68 46 111 68 46 111 68 46 111 68 79 154 92 46 111 68 46 111 68 46 111 68 46 111 68 46 111 68 79 154 92 46 111 68 79 154 92 64 120 73 64 120 73 37 90 61 37 90 61 37 90 61 37 90 61 37 90 61 64 120 73 37 90 61 37 90 61 37 90 61 37 90 61 37 90 61 64 120 73 37 90 61 64 120 73 177 149 101 118 98 68 118 98 68 177 149 101 118 98 68 118 98 68 118 98 68 118 98 68 118 98 68 118 98 68 177 149 101 118 98 68 118 98 68 118 98 68 118 98 68 177 149 101 120 133 142 82 96 106 82 96 106 82 96 106 82 96 106 116 127 135 82 96 106 82 96 106 82 96 106 82 96 106 116 127 135 82 96 106 82 96 106 82 96 106 82 96 106 120 133 142 138 113 92 104 84 68 104 84 68 104 84 68 86 70 56 104 84 68 104 84 68 104 84 68 86 70 56 104 84 68 104 84 68 104 84 68 86 70 56 104 84 68 104 84 68 138 113 92 145 85 72 91 60 52 91 60 52 91 60 52 145 85 72 91 60 52 91 60 52 91 60 52 91 60 52 91 60 52 91 60 52 145 85 72 91 60 52 91 60 52 91 60 52 145 85 72 79 150 177 46 93 116 46 93 116 46 93 116 46 93 116 79 150 177 46 93 116 46 93 116 46 93 116 46 93 116 79 150 177 46 93 116 46 93 116 46 93 116 46 93 116 79 150 177 41 56 47 41 56 47 23 34 28 23 34 28 23 34 28 23 34 28 23 34 28 41 56 47 23 34 28 23 34 28 23 34 28 23 34 28 23 34 28 41 56 47 23 34 28 41 56 47
79 154 92 46 111 68 46 111 68 46 111 68 46 111 68 46 111 68 79 154 92 46 111 68 46 111 68 46 111 68 46 111 68 46 111 68 79 154 92 46 111 68 46 111 68 79 154 92 64 120 73 37 90 61 37 90 61 37 90 61 37 90 61 37 90 61 64 120 73 37 90 61 37 90 61 37 90 61 37 90 61 37 90 61 64 120 73 37 90 61 37 90 61 64 120 73 177 149 101 118 98 68 177 149 101 118 98 68 118 98 68 118 98 68 118 98 68 118 98 68 118 98 68 177 149 101 118 98 68 118 98 68 118 98 68 118 98 68 118 98 68 177 149 101 120 133 142 116 127 135 116 127 135 116 127 135 116 127 135 116 127 135 116 127 135 116 127 135 116 127 135 116 127 135 116 127 135 116 127 135 116 127 135 116 127 135 116 127 135 120 133 142 138 113 92 86 70 56 86 70 56 86 70 56 86 70 56 86 70 56 86 70 56 86 70 56 86 70 56 86 70 56 86 70 56 86 70 56 86 70 56 86 70 56 86 70 56 138 113 92 145 85 72 91 60 52 91 60 52 145 85 72 91 60 52 91 60 52 91 60 52 91 60 52 91 60 52 91 60 52 91 60 52 91 60 52 145 85 72 91 60 52 91 60 52 145 85 72 79 150 177 46 93 116 46 93 116 46 93 116 79 150 177 46 93 116 46 93 116 46 93 116 46 93 116 79 150 177 46 93 116 46 93 116 46 93 116 46 93 116 79 150 177 79 150 177 41 56 47 23 34 28 23 34 28 23 34 28 23 34 28 23 34 28 41 56 47 23 34 28 23 34 28 23 34 28 23 34 28 23 34 28 41 56 47 23 34 28 23 34 28 41 56 47
79 154 92 46 111 68 46 111 68 46 111 68 46 111 68 79 154 92 46 111 68 46 111 68 46 111 68 46 111 68 46 111 68 79 154 92 46 111 68 46 111 68 46 111 68 79 154 92 64 120 73 37 90 61 37 90 61 37 90 61 37 90 61 64 120 73 37 90 61 37 90 61 37 90 61 37 90 61 37 90 61 64 120 73 37 90 61 37 90 61 37 90 61 64 120 73 177 149 101 177 149 101 118 98 68 118 98 68 118 98 68 118 98 68 118 98 68 118 98 68 177 149 101 118 98 68 118 98 68 118 98 68 118 98 68 118 98 68 118 98 68 177 149 101 120 133 142 82 96 106 82 96 106 82 96 106 82 96 106 116 127 135 82 96 106 82 96 106 82 96 106 82 96 106 116 127 135 82 96 106 82 96 106 82 96 106 82 96 106 120 133 142 138 113 92 104 84 68 104 84 68 104 84 68 86 70 56 104 84 68 104 84 68 104 84 68 86 70 56 104 84 68 104 84 68 104 84 68 86 70 56 104 84 68 104 84 68 138 113 92 145 85 72 91 60 52 145 85 72 91 60 52 91 60 52 91 60 52 91 60 52 91 60 52 91 60 52 91 60 52 91 60 52 91 60 52 91 60 52 145 85 72 91 60 52 145 85 72 79 150 177 46 93 116 46 93 116 46 93 116 79 150 177 46 93 116 46 93 116 46 93 116 46 93 116 79 150 177 46 93 116 46 93 116 46 93 116 46 93 116 79 150 177 79 150 177 41 56 47 23 34 28 23 34 28 23 34 28 23 34 28 41 56 47 23 34 28 23 34 28 23 34 28 23 34 28 23 34 28 41 56 47 23 34 28 23 34 28 23 34 28 41 56 47
79 154 92 46 111 68 46 111 68 46 111 68 79 154 92 46 111 68 46 111 68 46 111 68 46 111 68 46 111 68 79 154 92 46 111 68 46 111 68 46 111 68 46 111 68 79 154 92 64 120 73 37 90 61 37 90 61 37 90 61 64 120 73 37 90 61 37 90 61 37 90 61 37 90 61 37 90 61 64 120 73 37 90 61 37 90 61 37 90 61 37 90 61 64 120 73 177 149 101 118 98 68 118 98 68 118 98 68 118 98 68 118 98 68 118 98 68 177 149 101 118 98 68 118 98 68 118 98 68 118 98 68 118 98 68 118 98 68 177 149 101 177 149 101 120 133 142 82 96 106 82 96 106 82 96 106 82 96 106 116 127 135 82 96 106 82 96 106 82 96 106 82 96 106 116 127 135 82 96 106 82 96 106 82 96 106 82 96 106 120 133 142 138 113 92 104 84 68 104 84 68 104 84 68 86 70 56 104 84 68 104 84 68 104 84 68 86 70 56 104 84 68 104 84 68 104 84 68 86 70 56 104 84 68 104 84 68 138 113 92 145 85 72 145 85 72 91 60 52 91 60 52 91 60 52 91 60 52 91 60 52 91 60 52 91 60 52 91 60 52 91 60 52 91 60 52 91 60 52 91 60 52 145 85 72 145 85 72 79 150 177 46 93 116 46 93 116 79 150 177 46 93 116 46 93 116 46 93 116 46 93 116 79 150 177 46 93 116 46 93 116 46 93 116 46 93 116 79 150 177 46 93 116 79 150 177 41 56 47 23 34 28 23 34 28 23 34 28 41 56 47 23 34 28 23 34 28 23 34 28 23 34 28 23 34 28 41 56 47 23 34 28 23 34 28 23 34 28 23 34 28 41 56 47
79 154 92 79 154 92 79 154 92 79 154 92 79 154 92 79 154 92 79 154 92 79 154 92 79 154 92 79 154 92 79 154 92 79 154 92 79 154 92 79 154 92 79 154 92 79 154 92 64 120 73 64 120 73 64 120 73 64 120 73 64 120 73 64 120 73 64 120 73 64 120 73 64 120 73 64 120 73 64 120 73 64 120 73 64 120 73 64 120 73 64 120 73 64 120 73 177 149 101 177 149 101 177 149 101 177 149 101 177 149 101 177 149 101 177 149 101 177 149 101 177 149 101 177 149 101 177 149 101 177 149 101 177 149 101 177 149 101 177 149 101 177 149 101 120 133 142 120 133 142 120 133 142 120 133 142 120 133 142 120 133 142 120 133 142 120 133 142 120 133 142 120 133 142 120 133 142 120 133 142 120 133 142 120 133 142 120 133 142 120 133 142 138 113 92 138 113 92 138 113 92 138 113 92 138 113 92 138 113 92 138 113 92 138 113 92 138 113 92 138 113 92 138 113 92 138 113 92 138 113 92 138 113 92 138 113 92 138 113 92 145 85 72 145 85 72 145 85 72 145 85 72 145 85 72 145 85 72 145 85 72 145 85 72 145 85 72 145 85 72 145 85 72 145 85 72 145 85 72 145 85 72 145 85 72 145 85 72 79 150 177 79 150 177 79 150 177 79 150 177 79 150 177 79 150 177 79 150 177 79 150 177 79 150 177 79 150 177 79 150 177 79 150 177 79 150 177 79 150 177 79 150 177 79 150 177 41 56 47 41 56 47 41 56 47 41 56 47 41 56 47 41 56 47 41 56 47 41 56 47 41 56 47 41 56 47 41 56 47 41 56 47 41 56 47 41 56 47 41 56 47 41 56 47
108 119 124 108 119 124 108 119 124 108 119 124 108 119 124 108 119 124 108 119 124 108 119 124 108 119 124 108 119 124 108 119 124 108 119 124 108 119 124 108 119 124 108 119 124 108 119 124 157 90 85 157 90 85 157 90 85 157 90 85 157 90 85 157 90 85 157 90 85 157 90 85 157 90 85 157 90 85 157 90 85 157 90 85 157 90 85 157 90 85 157 90 85 157 90 85 101 168 93 101 168 93 101 168 93 101 168 93 101 168 93 101 168 93 101 168 93 101 168 93 101 168 93 101 168 93 101 168 93 101 168 93 101 168 93 101 168 93 101 168 93 101 168 93 181 135 89 181 135 89 181 135 89 181 135 89 181 135 89 181 135 89 181 135 89 181 135 89 181 135 89 181 135 89 181 135 89 181 135 89 181 135 89 181 135 89 181 135 89 181 135 89 0 0 0 0 0 0 0 0 0 0 0 0 0 0 0 0 0 0 0 0 0 0 0 0 0 0 0 0 0 0 0 0 0 0 0 0 0 0 0 0 0 0 0 0 0 0 0 0 0 0 0 0 0 0 0 0 0 0 0 0 0 0 0 0 0 0 0 0 0 0 0 0 0 0 0 0 0 0 0 0 0 0 0 0 0 0 0 0 0 0 0 0 0 0 0 0 0 0 0 0 0 0 0 0 0 0 0 0 0 0 0 0 0 0 0 0 0 0 0 0 0 0 0 0 0 0 0 0 0 0 0 0 0 0 0 0 0 0 0 0 0 0 0 0 0 0 0 0 0 0 0 0 0 0 0 0 0 0 0 0 0 0 0 0 0 0 0 0 0 0 0 0 0 0 0 0 0 0 0 0 0 0 0 0 0 0 0 0 0 0 0 0
108 119 124 61 70 74 61 70 74 61 70 74 61 70 74 99 107 110 61 70 74 61 70 74 61 70 74 61 70 74 99 107 110 61 70 74 61 70 74 61 70 74 61 70 74 108 119 124 157 90 85 157 90 85 90 51 51 90 51 51 90 51 51 90 51 51 90 51 51 90 51 51 90 51 51 90 51 51 90 51 51 90 51 51 90 51 51 90 51 51 157 90 85 157 90 85 101 168 93 22 67 39 22 67 39 22 67 39 22 67 39 22 67 39 22 67 39 22 67 39 101 168 93 22 67 39 22 67 39 22 67 39 22 67 39 22 67 39 22 67 39 101 168 93 181 135 89 117 89 64 117 89 64 117 89 64 117 89 64 181 135 89 117 89 64 117 89 64 117 89 64 117 89 64 117 89 64 181 135 89 117 89 64 117 89 64 117 89 64 181 135 89 0 0 0 0 0 0 0 0 0 0 0 0 0 0 0 0 0 0 0 0 0 0 0 0 0 0 0 0 0 0 0 0 0 0 0 0 0 0 0 0 0 0 0 0 0 0 0 0 0 0 0 0 0 0 0 0 0 0 0 0 0 0 0 0 0 0 0 0 0 0 0 0 0 0 0 0 0 0 0 0 0 0 0 0 0 0 0 0 0 0 0 0 0 0 0 0 0 0 0 0 0 0 0 0 0 0 0 0 0 0 0 0 0 0 0 0 0 0 0 0 0 0 0 0 0 0 0 0 0 0 0 0 0 0 0 0 0 0 0 0 0 0 0 0 0 0 0 0 0 0 0 0 0 0 0 0 0 0 0 0 0 0 0 0 0 0 0 0 0 0 0 0 0 0 0 0 0 0 0 0 0 0 0 0 0 0 0 0 0 0 0 0
108 119 124 61 70 74 61 70 74 61 70 74 61 70 74 99 107 110 61 70 74 61 70 74 61 70 74 61 70 74 99 107 110 61 70 74 61 70 74 61 70 74 61 70 74 108 119 124 157 90 85 90 51 51 157 90 85 90 51 51 90 51 51 90 51 51 90 51 51 90 51 51 90 51 51 90 51 51 90 51 51 90 51 51 90 51 51 157 90 85 90 51 51 157 90 85 101 168 93 22 67 39 22 67 39 22 67 39 22 67 39 22 67 39 22 67 39 101 168 93 101 168 93 101 168 93 22 67 39 22 67 39 22 67 39 22 67 39 22 67 39 101 168 93 181 135 89 117 89 64 117 89 64 117 89 64 181 135 89 117 89 64 117 89 64 117 89 64 117 89 64 117 89 64 181 135 89 117 89 64 117 89 64 117 89 64 117 89 64 181 135 89 0 0 0 0 0 0 0 0 0 0 0 0 0 0 0 0 0 0 27 51 29 27 51 29 27 51 29 27 51 29 0 0 0 0 0 0 0 0 0 0 0 0 0 0 0 0 0 0 0 0 0 0 0 0 0 0 0 0 0 0 0 0 0 0 0 0 18 42 24 18 42 24 18 42 24 18 42 24 0 0 0 0 0 0 0 0 0 0 0 0 0 0 0 0 0 0 0 0 0 0 0 0 0 0 0 0 0 0 0 0 0 0 0 0 23 47 30 23 47 30 23 47 30 23 47 30 0 0 0 0 0 0 0 0 0 0 0 0 0 0 0 0 0 0 0 0 0 0 0 0 0 0 0 0 0 0 0 0 0 0 0 0 23 47 30 23 47 30 23 47 30 23 47 30 0 0 0 0 0 0 0 0 0 0 0 0 0 0 0 0 0 0
108 119 124 61 70 74 61 70 74 61 70 74 61 70 74 99 107 110 61 70 74 61 70 74 61 70 74 61 70 74 99 107 110 61 70 74 61 70 74 61 70 74 61 70 74 108 119 124 157 90 85 90 51 51 90 51 51 157 90 85 90 51 51 90 51 51 90 51 51 90 51 51 90 51 51 90 51 51 90 51 51 90 51 51 157 90 85 90 51 51 90 51 51 157 90 85 101 168 93 22 67 39 22 67 39 22 67 39 22 67 39 22 67 39 101 168 93 101 168 93 101 168 93 101 168 93 101 168 93 22 67 39 22 67 39 22 67 39 22 67 39 101 168 93 181 135 89 117 89 64 117 89 64 181 135 89 117 89 64 117 89 64 117 89 64 117 89 64 117 89 64 181 135 89 117 89 64 117 89 64 117 89 64 117 89 64 117 89 64 181 135 89 0 0 0 0 0 0 0 0 0 0 0 0 0 0 0 0 0 0 27 51 29 232 191 138 232 191 138 27 51 29 0 0 0 0 0 0 0 0 0 0 0 0 0 0 0 0 0 0 0 0 0 0 0 0 0 0 0 0 0 0 0 0 0 0 0 0 18 42 24 55 126 72 55 126 72 18 42 24 0 0 0 0 0 0 0 0 0 0 0 0 0 0 0 0 0 0 0 0 0 0 0 0 0 0 0 0 0 0 0 0 0 0 0 0 23 47 30 232 191 138 232 191 138 23 47 30 0 0 0 0 0 0 0 0 0 0 0 0 0 0 0 0 0 0 0 0 0 0 0 0 0 0 0 0 0 0 0 0 0 0 0 0 23 47 30 232 191 138 232 191 138 23 47 30 0 0 0 0 0 0 0 0 0 0 0 0 0 0 0 0 0 0
108 119 124 99 107 110 99 107 110 99 107 110 99 107 110 99 107 110 99 107 110 99 107 110 99 107 110 99 107 110 99 107 110 99 107 110 99 107 110 99 107 110 99 107 110 108 119 124 157 90 85 90 51 51 90 51 51 90 51 51 157 90 85 90 51 51 90 51 51 90 51 51 90 51 51 90 51 51 90 51 51 157 90 85 90 51 51 90 51 51 90 51 51 157 90 85 101 168 93 22 67 39 22 67 39 22 67 39 22 67 39 101 168 93 101 168 93 101 168 93 101 168 93 101 168 93 101 168 93 101 168 93 22 67 39 22 67 39 22 67 39 101 168 93 181 135 89 117 89 64 181 135 89 117 89 64 117 89 64 117 89 64 117 89 64 117 89 64 181 135 89 117 89 64 117 89 64 117 89 64 117 89 64 117 89 64 181 135 89 181 135 89 0 0 0 0 0 0 0 0 0 0 0 0 0 0 0 0 0 0 27 51 29 232 191 138 232 191 138 27 51 29 0 0 0 0 0 0 0 0 0 0 0 0 0 0 0 0 0 0 0 0 0 0 0 0 0 0 0 0 0 0 0 0 0 0 0 0 18 42 24 55 126 72 55 126 72 18 42 24 0 0 0 0 0 0 0 0 0 0 0 0 0 0 0 0 0 0 0 0 0 0 0 0 0 0 0 0 0 0 0 0 0 0 0 0 23 47 30 232 191 138 232 191 138 23 47 30 0 0 0 0 0 0 0 0 0 0 0 0 0 0 0 0 0 0 0 0 0 0 0 0 0 0 0 0 0 0 0 0 0 0 0 0 23 47 30 232 191 138 232 191 138 23 47 30 0 0 0 0 0 0 0 0 0 0 0 0 0 0 0 0 0 0
108 119 124 61 70 74 61 70 74 61 70 74 61 70 74 99 107 110 61 70 74 61 70 74 61 70 74 61 70 74 99 107 110 61 70 74 61 70 74 61 70 74 61 70 74 108 119 124 157 90 85 90 51 51 90 51 51 90 51 51 90 51 51 157 90 85 90 51 51 90 51 51 90 51 51 90 51 51 157 90 85 90 51 51 90 51 51 90 51 51 90 51 51 157 90 85 101 168 93 22 67 39 22 67 39 22 67 39 101 168 93 101 168 93 101 168 93 101 168 93 101 168 93 101 168 93 101 168 93 101 168 93 101 168 93 22 67 39 22 67 39 101 168 93 181 135 89 181 135 89 117 89 64 117 89 64 117 89 64 117 89 64 117 89 64 181 135 89 117 89 64 117 89 64 117 89 64 117 89 64 117 89 64 181 135 89 117 89 64 181 135 89 0 0 0 0 0 0 0 0 0 0 0 0 0 0 0 0 0 0 27 51 29 232 191 138 232 191 138 27 51 29 0 0 0 0 0 0 0 0 0 0 0 0 0 0 0 0 0 0 0 0 0 0 0 0 0 0 0 0 0 0 0 0 0 0 0 0 18 42 24 55 126 72 55 126 72 18 42 24 0 0 0 0 0 0 0 0 0 0 0 0 0 0 0 0 0 0 0 0 0 0 0 0 0 0 0 0 0 0 0 0 0 0 0 0 23 47 30 232 191 138 232 191 138 23 47 30 0 0 0 0 0 0 0 0 0 0 0 0 0 0 0 0 0 0 0 0 0 0 0 0 0 0 0 0 0 0 0 0 0 0 0 0 23 47 30 232 191 138 232 191 138 23 47 30 0 0 0 0 0 0 0 0 0 0 0 0 0 0 0 0 0 0
108 119 124 61 70 74 61 70 74 61 70 74 61 70 74 99 107 110 61 70 74 61 70 74 61 70 74 61 70 74 99 107 110 61 70 74 61 70 74 61 70 74 61 70 74 108 119 124 157 90 85 90 51 51 90 51 51 90 51 51 90 51 51 90 51 51 157 90 85 90 51 51 90 51 51 157 90 85 90 51 51 90 51 51 90 51 51 90 51 51 90 51 51 157 90 85 101 168 93 22 67 39 22 67 39 101 168 93 101 168 93 101 168 93 101 168 93 101 168 93 101 168 93 101 168 93 101 168 93 101 168 93 101 168 93 101 168 93 22 67 39 101 168 93 181 135 89 117 89 64 117 89 64 117 89 64 117 89 64 117 89 64 181 135 89 117 89 64 117 89 64 117 89 64 117 89 64 117 89 64 181 135 89 117 89 64 117 89 64 181 135 89 0 0 0 0 0 0 0 0 0 0 0 0 0 0 0 27 51 29 111 207 117 111 207 117 111 207 117 111 207 117 27 51 29 0 0 0 0 0 0 0 0 0 0 0 0 0 0 0 0 0 0 0 0 0 0 0 0 0 0 0 0 0 0 18 42 24 74 168 97 74 168 97 74 168 97 74 168 97 18 42 24 0 0 0 0 0 0 0 0 0 0 0 0 0 0 0 0 0 0 0 0 0 0 0 0 0 0 0 0 0 0 23 47 30 95 189 120 95 189 120 95 189 120 95 189 120 23 47 30 0 0 0 0 0 0 0 0 0 0 0 0 0 0 0 0 0 0 0 0 0 0 0 0 0 0 0 0 0 0 23 47 30 95 189 120 95 189 120 95 189 120 95 189 120 23 47 30 0 0 0 0 0 0 0 0 0 0 0 0 0 0 0
108 119 124 61 70 74 61 70 74 61 70 74 61 70 74 99 107 110 61 70 74 61 70 74 61 70 74 61 70 74 99 107 110 61 70 74 61 70 74 61 70 74 61 70 74 108 119 124 157 90 85 90 51 51 90 51 51 90 51 51 90 51 51 90 51 51 90 51 51 157 90 85 157 90 85 90 51 51 90 51 51 90 51 51 90 51 51 90 51 51 90 51 51 157 90 85 101 168 93 22 67 39 101 168 93 101 168 93 101 168 93 101 168 93 101 168 93 101 168 93 101 168 93 101 168 93 101 168 93 101 168 93 101 168 93 101 168 93 101 168 93 101 168 93 181 135 89 117 89 64 117 89 64 117 89 64 117 89 64 181 135 89 117 89 64 117 89 64 117 89 64 117 89 64 117 89 64 181 135 89 117 89 64 117 89 64 117 89 64 181 135 89 0 0 0 0 0 0 0 0 0 0 0 0 0 0 0 27 51 29 111 207 117 111 207 117 111 207 117 111 207 117 27 51 29 0 0 0 0 0 0 0 0 0 0 0 0 0 0 0 0 0 0 0 0 0 0 0 0 0 0 0 0 0 0 18 42 24 74 168 97 74 168 97 74 168 97 74 168 97 18 42 24 0 0 0 0 0 0 0 0 0 0 0 0 0 0 0 0 0 0 0 0 0 0 0 0 0 0 0 0 0 0 23 47 30 95 189 120 95 189 120 95 189 120 95 189 120 23 47 30 0 0 0 0 0 0 0 0 0 0 0 0 0 0 0 0 0 0 0 0 0 0 0 0 0 0 0 0 0 0 23 47 30 95 189 120 95 189 120 95 189 120 95 189 120 23 47 30 0 0 0 0 0 0 0 0 0 0 0 0 0 0 0
108 119 124 99 107 110 99 107 110 99 107 110 99 107 110 99 107 110 99 107 110 99 107 110 99 107 110 99 107 110 99 107 110 99 107 110 99 107 110 99 107 110 99 107 110 108 119 124 157 90 85 90 51 51 90 51 51 90 51 51 90 51 51 90 51 51 90 51 51 157 90 85 157 90 85 90 51 51 90 51 51 90 51 51 90 51 51 90 51 51 90 51 51 157 90 85 101 168 93 22 67 39 22 67 39 101 168 93 101 168 93 101 168 93 101 168 93 101 168 93 101 168 93 101 168 93 101 168 93 101 168 93 101 168 93 101 168 93 22 67 39 101 168 93 181 135 89 117 89 64 117 89 64 117 89 64 181 135 89 117 89 64 117 89 64 117 89 64 117 89 64 117 89 64 181 135 89 117 89 64 117 89 64 117 89 64 117 89 64 181 135 89 0 0 0 0 0 0 0 0 0 0 0 0 0 0 0 27 51 29 111 207 117 111 207 117 111 207 117 111 207 117 27 51 29 0 0 0 0 0 0 0 0 0 0 0 0 0 0 0 0 0 0 0 0 0 0 0 0 0 0 0 0 0 0 18 42 24 74 168 97 74 168 97 74 168 97 74 168 97 18 42 24 0 0 0 0 0 0 0 0 0 0 0 0 0 0 0 0 0 0 0 0 0 0 0 0 0 0 0 0 0 0 23 47 30 95 189 120 95 189 120 95 189 120 95 189 120 23 47 30 0 0 0 0 0 0 0 0 0 0 0 0 0 0 0 0 0 0 0 0 0 0 0 0 0 0 0 0 0 0 23 47 30 95 189 120 95 189 120 95 189 120 95 189 120 23 47 30 0 0 0 0 0 0 0 0 0 0 0 0 0 0 0
108 119 124 61 70 74 61 70 74 61 70 74 61 70 74 99 107 110 61 70 74 61 70 74 61 70 74 61 70 74 99 107 110 61 70 74 61 70 74 61 70 74 61 70 74 108 119 124 157 90 85 90 51 51 90 51 51 90 51 51 90 51 51 90 51 51 157 90 85 90 51 51 90 51 51 157 90 85 90 51 51 90 51 51 90 51 51 90 51 51 90 51 51 157 90 85 101 168 93 22 67 39 22 67 39 22 67 39 101 168 93 101 168 93 101 168 93 101 168 93 101 168 93 101 168 93 101 168 93 101 168 93 101 168 93 22 67 39 22 67 39 101 168 93 181 135 89 117 89 64 117 89 64 181 135 89 117 89 64 117 89 64 117 89 64 117 89 64 117 89 64 181 135 89 117 89 64 117 89 64 117 89 64 117 89 64 117 89 64 181 135 89 0 0 0 0 0 0 0 0 0 0 0 0 0 0 0 27 51 29 111 207 117 111 207 117 111 207 117 111 207 117 27 51 29 0 0 0 0 0 0 0 0 0 0 0 0 0 0 0 0 0 0 0 0 0 0 0 0 0 0 0 0 0 0 18 42 24 74 168 97 74 168 97 74 168 97 74 168 97 18 42 24 0 0 0 0 0 0 0 0 0 0 0 0 0 0 0 0 0 0 0 0 0 0 0 0 0 0 0 0 0 0 23 47 30 95 189 120 95 189 120 95 189 120 95 189 120 23 47 30 0 0 0 0 0 0 0 0 0 0 0 0 0 0 0 0 0 0 0 0 0 0 0 0 0 0 0 0 0 0 23 47 30 95 189 120 95 189 120 95 189 120 95 189 120 23 47 30 0 0 0 0 0 0 0 0 0 0 0 0 0 0 0
108 119 124 61 70 74 61 70 74 61 70 74 61 70 74 99 107 110 61 70 74 61 70 74 61 70 74 61 70 74 99 107 110 61 70 74 61 70 74 61 70 74 61 70 74 108 119 124 157 90 85 90 51 51 90 51 51 90 51 51 90 51 51 157 90 85 90 51 51 90 51 51 90 51 51 90 51 51 157 90 85 90 51 51 90 51 51 90 51 51 90 51 51 157 90 85 101 168 93 22 67 39 22 67 39 22 67 39 22 67 39 101 168 93 101 168 93 101 168 93 101 168 93 101 168 93 101 168 93 101 168 93 22 67 39 22 67 39 22 67 39 101 168 93 181 135 89 117 89 64 181 135 89 117 89 64 117 89 64 117 89 64 117 89 64 117 89 64 181 135 89 117 89 64 117 89 64 117 89 64 117 89 64 117 89 64 181 135 89 181 135 89 0 0 0 0 0 0 0 0 0 0 0 0 0 0 0 27 51 29 27 51 29 27 51 29 27 51 29 27 51 29 27 51 29 0 0 0 0 0 0 0 0 0 0 0 0 0 0 0 0 0 0 0 0 0 0 0 0 0 0 0 0 0 0 18 42 24 18 42 24 18 42 24 18 42 24 18 42 24 18 42 24 0 0 0 0 0 0 0 0 0 0 0 0 0 0 0 0 0 0 0 0 0 0 0 0 0 0 0 0 0 0 23 47 30 23 47 30 23 47 30 23 47 30 23 47 30 23 47 30 0 0 0 0 0 0 0 0 0 0 0 0 0 0 0 0 0 0 0 0 0 0 0 0 0 0 0 0 0 0 23 47 30 23 47 30 23 47 30 23 47 30 23 47 30 23 47 30 0 0 0 0 0 0 0 0 0 0 0 0 0 0 0
108 119 124 61 70 74 61 70 74 61 70 74 61 70 74 99 107 110 61 70 74 61 70 74 61 70 74 61 70 74 99 107 110 61 70 74 61 70 74 61 70 74 61 70 74 108 119 124 157 90 85 90 51 51 90 51 51 90 51 51 157 90 85 90 51 51 90 51 51 90 51 51 90 51 51 90 51 51 90 51 51 157 90 85 90 51 51 90 51 51 90 51 51 157 90 85 101 168 93 22 67 39 22 67 39 22 67 39 22 67 39 22 67 39 101 168 93 101 168 93 101 168 93 101 168 93 101 168 93 22 67 39 22 67 39 22 67 39 22 67 39 101 168 93 181 135 89 181 135 89 117 89 64 117 89 64 117 89 64 117 89 64 117 89 64 181 135 89 117 89 64 117 89 64 117 89 64 117 89 64 117 89 64 181 135 89 117 89 64 181 135 89 0 0 0 0 0 0 0 0 0 0 0 0 0 0 0 27 51 29 27 51 29 27 51 29 27 51 29 27 51 29 27 51 29 0 0 0 0 0 0 0 0 0 0 0 0 0 0 0 0 0 0 0 0 0 0 0 0 0 0 0 0 0 0 18 42 24 18 42 24 18 42 24 18 42 24 18 42 24 18 42 24 0 0 0 0 0 0 0 0 0 0 0 0 0 0 0 0 0 0 0 0 0 0 0 0 0 0 0 0 0 0 23 47 30 23 47 30 23 47 30 23 47 30 23 47 30 23 47 30 0 0 0 0 0 0 0 0 0 0 0 0 0 0 0 0 0 0 0 0 0 0 0 0 0 0 0 0 0 0 23 47 30 23 47 30 23 47 30 23 47 30 23 47 30 23 47 30 0 0 0 0 0 0 0 0 0 0 0 0 0 0 0
108 119 124 99 107 110 99 107 110 99 107 110 99 107 110 99 107 110 99 107 110 99 107 110 99 107 110 99 107 110 99 107 110 99 107 110 99 107 110 99 107 110 99 107 110 108 119 124 157 90 85 90 51 51 90 51 51 157 90 85 90 51 51 90 51 51 90 51 51 90 51 51 90 51 51 90 51 51 90 51 51 90 51 51 157 90 85 90 51 51 90 51 51 157 90 85 101 168 93 22 67 39 22 67 39 22 67 39 22 67 39 22 67 39 22 67 39 101 168 93 101 168 93 101 168 93 22 67 39 22 67 39 22 67 39 22 67 39 22 67 39 101 168 93 181 135 89 117 89 64 117 89 64 117 89 64 117 89 64 117 89 64 181 135 89 117 89 64 117 89 64 117 89 64 117 89 64 117 89 64 181 135 89 117 89 64 117 89 64 181 135 89 0 0 0 0 0 0 0 0 0 0 0 0 0 0 0 27 51 29 27 51 29 27 51 29 27 51 29 27 51 29 27 51 29 0 0 0 0 0 0 0 0 0 0 0 0 0 0 0 0 0 0 0 0 0 0 0 0 0 0 0 0 0 0 18 42 24 18 42 24 18 42 24 18 42 24 18 42 24 18 42 24 0 0 0 0 0 0 0 0 0 0 0 0 0 0 0 0 0 0 0 0 0 0 0 0 0 0 0 0 0 0 23 47 30 23 47 30 23 47 30 23 47 30 23 47 30 23 47 30 0 0 0 0 0 0 0 0 0 0 0 0 0 0 0 0 0 0 0 0 0 0 0 0 0 0 0 0 0 0 23 47 30 23 47 30 23 47 30 23 47 30 23 47 30 23 47 30 0 0 0 0 0 0 0 0 0 0 0 0 0 0 0
108 119 124 61 70 74 61 70 74 61 70 74 61 70 74 99 107 110 61 70 74 61 70 74 61 70 74 61 70 74 99 107 110 61 70 74 61 70 74 61 70 74 61 70 74 108 119 124 157 90 85 90 51 51 157 90 85 90 51 51 90 51 51 90 51 51 90 51 51 90 51 51 90 51 51 90 51 51 90 51 51 90 51 51 90 51 51 157 90 85 90 51 51 157 90 85 101 168 93 22 67 39 22 67 39 22 67 39 22 67 39 22 67 39 22 67 39 22 67 39 101 168 93 22 67 39 22 67 39 22 67 39 22 67 39 22 67 39 22 67 39 101 168 93 181 135 89 117 89 64 117 89 64 117 89 64 117 89 64 181 135 89 117 89 64 117 89 64 117 89 64 117 89 64 117 89 64 181 135 89 117 89 64 117 89 64 117 89 64 181 135 89 0 0 0 0 0 0 0 0 0 0 0 0 21 25 21 21 25 21 21 25 21 21 25 21 21 25 21 21 25 21 21 25 21 21 25 21 0 0 0 0 0 0 0 0 0 0 0 0 0 0 0 0 0 0 0 0 0 0 0 0 21 25 21 21 25 21 21 25 21 21 25 21 21 25 21 21 25 21 21 25 21 21 25 21 0 0 0 0 0 0 0 0 0 0 0 0 0 0 0 0 0 0 0 0 0 0 0 0 21 25 21 21 25 21 21 25 21 21 25 21 21 25 21 21 25 21 21 25 21 21 25 21 0 0 0 0 0 0 0 0 0 0 0 0 0 0 0 0 0 0 0 0 0 0 0 0 21 25 21 21 25 21 21 25 21 21 25 21 21 25 21 21 25 21 21 25 21 21 25 21 0 0 0 0 0 0 0 0 0 0 0 0
108 119 124 61 70 74 61 70 74 61 70 74 61 70 74 99 107 110 61 70 74 61 70 74 61 70 74 61 70 74 99 107 110 61 70 74 61 70 74 61 70 74 61 70 74 108 119 124 157 90 85 157 90 85 90 51 51 90 51 51 90 51 51 90 51 51 90 51 51 90 51 51 90 51 51 90 51 51 90 51 51 90 51 51 90 51 51 90 51 51 157 90 85 157 90 85 101 168 93 22 67 39 22 67 39 22 67 39 22 67 39 22 67 39 22 67 39 22 67 39 22 67 39 22 67 39 22 67 39 22 67 39 22 67 39 22 67 39 22 67 39 101 168 93 181 135 89 117 89 64 117 89 64 117 89 64 181 135 89 117 89 64 117 89 64 117 89 64 117 89 64 117 89 64 181 135 89 117 89 64 117 89 64 117 89 64 117 89 64 181 135 89 0 0 0 0 0 0 0 0 0 0 0 0 21 25 21 21 25 21 21 25 21 21 25 21 21 25 21 21 25 21 21 25 21 21 25 21 0 0 0 0 0 0 0 0 0 0 0 0 0 0 0 0 0 0 0 0 0 0 0 0 21 25 21 21 25 21 21 25 21 21 25 21 21 25 21 21 25 21 21 25 21 21 25 21 0 0 0 0 0 0 0 0 0 0 0 0 0 0 0 0 0 0 0 0 0 0 0 0 21 25 21 21 25 21 21 25 21 21 25 21 21 25 21 21 25 21 21 25 21 21 25 21 0 0 0 0 0 0 0 0 0 0 0 0 0 0 0 0 0 0 0 0 0 0 0 0 21 25 21 21 25 21 21 25 21 21 25 21 21 25 21 21 25 21 21 25 21 21 25 21 0 0 0 0 0 0 0 0 0 0 0 0
108 119 124 108 119 124 108 119 124 108 119 124 108 119 124 108 119 124 108 119 124 108 119 124 108 119 124 108 119 124 108 119 124 108 119 124 108 119 124 108 119 124 108 119 124 108 119 124 157 90 85 157 90 85 157 90 85 157 90 85 157 90 85 157 90 85 157 90 85 157 90 85 157 90 85 157 90 85 157 90 85 157 90 85 157 90 85 157 90 85 157 90 85 157 90 85 101 168 93 101 168 93 101 168 93 101 168 93 101 168 93 101 168 93 101 168 93 101 168 93 101 168 93 101 168 93 101 168 93 101 168 93 101 168 93 101 168 93 101 168 93 101 168 93 181 135 89 181 135 89 181 135 89 181 135 89 181 135 89 181 135 89 181 135 89 181 135 89 181 135 89 181 135 89 181 135 89 181 135 89 181 135 89 181 135 89 181 135 89 181 135 89 0 0 0 0 0 0 0 0 0 0 0 0 0 0 0 0 0 0 0 0 0 0 0 0 0 0 0 0 0 0 0 0 0 0 0 0 0 0 0 0 0 0 0 0 0 0 0 0 0 0 0 0 0 0 0 0 0 0 0 0 0 0 0 0 0 0 0 0 0 0 0 0 0 0 0 0 0 0 0 0 0 0 0 0 0 0 0 0 0 0 0 0 0 0 0 0 0 0 0 0 0 0 0 0 0 0 0 0 0 0 0 0 0 0 0 0 0 0 0 0 0 0 0 0 0 0 0 0 0 0 0 0 0 0 0 0 0 0 0 0 0 0 0 0 0 0 0 0 0 0 0 0 0 0 0 0 0 0 0 0 0 0 0 0 0 0 0 0 0 0 0 0 0 0 0 0 0 0 0 0 0 0 0 0 0 0 0 0 0 0 0 0
0 0 0 0 0 0 0 0 0 0 0 0 0 0 0 0 0 0 0 0 0 0 0 0 0 0 0 0 0 0 0 0 0 0 0 0 0 0 0 0 0 0 0 0 0 0 0 0 0 0 0 0 0 0 0 0 0 0 0 0 0 0 0 0 0 0 0 0 0 0 0 0 0 0 0 0 0 0 0 0 0 0 0 0 0 0 0 0 0 0 0 0 0 0 0 0 0 0 0 0 0 0 0 0 0 0 0 0 0 0 0 0 0 0 0 0 0 0 0 0 0 0 0 0 0 0 0 0 0 0 0 0 0 0 0 0 0 0 0 0 0 0 0 0 0 0 0 0 0 0 0 0 0 0 0 0 0 0 0 0 0 0 0 0 0 0 0 0 0 0 0 0 0 0 0 0 0 0 0 0 0 0 0 0 0 0 0 0 0 0 0 0 0 0 0 0 0 0 0 0 0 0 0 0 0 0 0 0 0 0 0 0 0 0 0 0 0 0 0 0 0 0 0 0 0 0 0 0 0 0 0 0 0 0 0 0 0 0 0 0 0 0 0 0 0 0 0 0 0 0 0 0 0 0 0 0 0 0 0 0 0 0 0 0 0 0 0 0 0 0 0 0 0 0 0 0 0 0 0 0 0 0 0 0 0 0 0 0 0 0 0 0 0 0 0 0 0 0 0 0 0 0 0 0 0 0 0 0 0 0 0 0 0 0 0 0 0 0 0 0 0 0 0 0 0 0 0 0 0 0 0 0 0 0 0 0 0 0 0 0 0 0 0 0 0 0 0 0 0 0 0 0 0 0 0 0 0 0 0 0 0 0 0 0 0 0 0 0 0 0 0 0 0 0 0 0 0 0 0 0 0 0 0 0
0 0 0 0 0 0 0 0 0 0 0 0 0 0 0 0 0 0 0 0 0 0 0 0 0 0 0 0 0 0 0 0 0 0 0 0 0 0 0 0 0 0 0 0 0 0 0 0 0 0 0 0 0 0 0 0 0 0 0 0 0 0 0 0 0 0 0 0 0 0 0 0 0 0 0 0 0 0 0 0 0 0 0 0 0 0 0 0 0 0 0 0 0 0 0 0 0 0 0 0 0 0 0 0 0 0 0 0 0 0 0 0 0 0 0 0 0 0 0 0 0 0 0 0 0 0 0 0 0 0 0 0 0 0 0 0 0 0 0 0 0 0 0 0 0 0 0 0 0 0 0 0 0 0 0 0 0 0 0 0 0 0 0 0 0 0 0 0 0 0 0 0 0 0 0 0 0 0 0 0 0 0 0 0 0 0 0 0 0 0 0 0 0 0 0 0 0 0 0 0 0 0 0 0 0 0 0 0 0 0 0 0 0 0 0 0 0 0 0 0 0 0 0 0 0 0 0 0 0 0 0 0 0 0 0 0 0 0 0 0 0 0 0 0 0 0 0 0 0 0 0 0 0 0 0 0 0 0 0 0 0 0 0 0 0 0 0 0 0 0 0 0 0 0 0 0 0 0 0 0 0 0 0 0 0 0 0 0 0 0 0 0 0 0 0 0 0 0 0 0 0 0 0 0 0 0 0 0 0 0 0 0 0 0 0 0 0 0 0 0 0 0 0 0 0 0 0 0 0 0 0 0 0 0 0 0 0 0 0 0 0 0 0 0 0 0 0 0 0 0 0 0 0 0 0 0 0 0 0 0 0 0 0 0 0 0 0 0 0 0 0 0 0 0 0 0 0 0 0 0 0 0 0 0
0 0 0 0 0 0 0 0 0 0 0 0 0 0 0 0 0 0 21 46 26 21 46 26 21 46 26 21 46 26 0 0 0 0 0 0 0 0 0 0 0 0 0 0 0 0 0 0 0 0 0 0 0 0 0 0 0 0 0 0 0 0 0 0 0 0 21 46 26 21 46 26 21 46 26 21 46 26 0 0 0 0 0 0 0 0 0 0 0 0 0 0 0 0 0 0 0 0 0 0 0 0 0 0 0 0 0 0 0 0 0 0 0 0 17 42 23 17 42 23 17 42 23 17 42 23 0 0 0 0 0 0 0 0 0 0 0 0 0 0 0 0 0 0 0 0 0 0 0 0 0 0 0 0 0 0 0 0 0 0 0 0 16 35 24 16 35 24 16 35 24 16 35 24 0 0 0 0 0 0 0 0 0 0 0 0 0 0 0 0 0 0 0 0 0 0 0 0 0 0 0 0 0 0 0 0 0 0 0 0 13 31 22 13 31 22 13 31 22 13 31 22 0 0 0 0 0 0 0 0 0 0 0 0 0 0 0 0 0 0 0 0 0 0 0 0 0 0 0 0 0 0 0 0 0 0 0 0 21 46 26 21 46 26 21 46 26 21 46 26 0 0 0 0 0 0 0 0 0 0 0 0 0 0 0 0 0 0 0 0 0 0 0 0 0 0 0 0 0 0 0 0 0 0 0 0 17 42 23 17 42 23 17 42 23 17 42 23 0 0 0 0 0 0 0 0 0 0 0 0 0 0 0 0 0 0 0 0 0 0 0 0 0 0 0 0 0 0 0 0 0 0 0 0 21 46 26 21 46 26 21 46 26 21 46 26 0 0 0 0 0 0 0 0 0 0 0 0 0 0 0 0 0 0
0 0 0 0 0 0 0 0 0 0 0 0 0 0 0 0 0 0 21 46 26 232 191 138 232 191 138 21 46 26 0 0 0 0 0 0 0 0 0 0 0 0 0 0 0 0 0 0 0 0 0 0 0 0 0 0 0 0 0 0 0 0 0 0 0 0 21 46 26 232 191 138 232 191 138 21 46 26 0 0 0 0 0 0 0 0 0 0 0 0 0 0 0 0 0 0 0 0 0 0 0 0 0 0 0 0 0 0 0 0 0 0 0 0 17 42 23 232 191 138 232 191 138 17 42 23 0 0 0 0 0 0 0 0 0 0 0 0 0 0 0 0 0 0 0 0 0 0 0 0 0 0 0 0 0 0 0 0 0 0 0 0 16 35 24 48 107 73 48 107 73 16 35 24 0 0 0 0 0 0 0 0 0 0 0 0 0 0 0 0 0 0 0 0 0 0 0 0 0 0 0 0 0 0 0 0 0 0 0 0 13 31 22 40 93 66 40 93 66 13 31 22 0 0 0 0 0 0 0 0 0 0 0 0 0 0 0 0 0 0 0 0 0 0 0 0 0 0 0 0 0 0 0 0 0 0 0 0 21 46 26 232 191 138 232 191 138 21 46 26 0 0 0 0 0 0 0 0 0 0 0 0 0 0 0 0 0 0 0 0 0 0 0 0 0 0 0 0 0 0 0 0 0 0 0 0 17 42 23 232 191 138 232 191 138 17 42 23 0 0 0 0 0 0 0 0 0 0 0 0 0 0 0 0 0 0 0 0 0 0 0 0 0 0 0 0 0 0 0 0 0 0 0 0 21 46 26 232 191 138 232 191 138 21 46 26 0 0 0 0 0 0 0 0 0 0 0 0 0 0 0 0 0 0
0 0 0 0 0 0 0 0 0 0 0 0 0 0 0 0 0 0 21 46 26 232 191 138 232 191 138 21 46 26 0 0 0 0 0 0 0 0 0 0 0 0 0 0 0 0 0 0 0 0 0 0 0 0 0 0 0 0 0 0 0 0 0 0 0 0 21 46 26 232 191 138 232 191 138 21 46 26 0 0 0 0 0 0 0 0 0 0 0 0 0 0 0 0 0 0 0 0 0 0 0 0 0 0 0 0 0 0 0 0 0 0 0 0 17 42 23 232 191 138 232 191 138 17 42 23 0 0 0 0 0 0 0 0 0 0 0 0 0 0 0 0 0 0 0 0 0 0 0 0 0 0 0 0 0 0 0 0 0 0 0 0 16 35 24 48 107 73 48 107 73 16 35 24 0 0 0 0 0 0 0 0 0 0 0 0 0 0 0 0 0 0 0 0 0 0 0 0 0 0 0 0 0 0 0 0 0 0 0 0 13 31 22 40 93 66 40 93 66 13 31 22 0 0 0 0 0 0 0 0 0 0 0 0 0 0 0 0 0 0 0 0 0 0 0 0 0 0 0 0 0 0 0 0 0 0 0 0 21 46 26 232 191 138 232 191 138 21 46 26 0 0 0 0 0 0 0 0 0 0 0 0 0 0 0 0 0 0 0 0 0 0 0 0 0 0 0 0 0 0 0 0 0 0 0 0 17 42 23 232 191 138 232 191 138 17 42 23 0 0 0 0 0 0 0 0 0 0 0 0 0 0 0 0 0 0 0 0 0 0 0 0 0 0 0 0 0 0 0 0 0 0 0 0 21 46 26 232 191 138 232 191 138 21 46 26 0 0 0 0 0 0 0 0 0 0 0 0 0 0 0 0 0 0
0 0 0 0 0 0 0 0 0 0 0 0 0 0 0 0 0 0 21 46 26 232 191 138 232 191 138 21 46 26 0 0 0 0 0 0 0 0 0 0 0 0 0 0 0 0 0 0 0 0 0 0 0 0 0 0 0 0 0 0 0 0 0 0 0 0 21 46 26 232 191 138 232 191 138 21 46 26 0 0 0 0 0 0 0 0 0 0 0 0 0 0 0 0 0 0 0 0 0 0 0 0 0 0 0 0 0 0 0 0 0 0 0 0 17 42 23 232 191 138 232 191 138 17 42 23 0 0 0 0 0 0 0 0 0 0 0 0 0 0 0 0 0 0 0 0 0 0 0 0 0 0 0 0 0 0 0 0 0 0 0 0 16 35 24 48 107 73 48 107 73 16 35 24 0 0 0 0 0 0 0 0 0 0 0 0 0 0 0 0 0 0 0 0 0 0 0 0 0 0 0 0 0 0 0 0 0 0 0 0 13 31 22 40 93 66 40 93 66 13 31 22 0 0 0 0 0 0 0 0 0 0 0 0 0 0 0 0 0 0 0 0 0 0 0 0 0 0 0 0 0 0 0 0 0 0 0 0 21 46 26 232 191 138 232 191 138 21 46 26 0 0 0 0 0 0 0 0 0 0 0 0 0 0 0 0 0 0 0 0 0 0 0 0 0 0 0 0 0 0 0 0 0 0 0 0 17 42 23 232 191 138 232 191 138 17 42 23 0 0 0 0 0 0 0 0 0 0 0 0 0 0 0 0 0 0 0 0 0 0 0 0 0 0 0 0 0 0 0 0 0 0 0 0 21 46 26 232 191 138 232 191 138 21 46 26 0 0 0 0 0 0 0 0 0 0 0 0 0 0 0 0 0 0
0 0 0 0 0 0 0 0 0 0 0 0 0 0 0 21 46 26 86 185 106 86 185 106 86 185 106 86 185 106 21 46 26 0 0 0 0 0 0 0 0 0 0 0 0 0 0 0 0 0 0 0 0 0 0 0 0 0 0 0 0 0 0 21 46 26 86 185 106 86 185 106 86 185 106 86 185 106 21 46 26 0 0 0 0 0 0 0 0 0 0 0 0 0 0 0 0 0 0 0 0 0 0 0 0 0 0 0 0 0 0 17 42 23 70 169 93 70 169 93 70 169 93 70 169 93 17 42 23 0 0 0 0 0 0 0 0 0 0 0 0 0 0 0 0 0 0 0 0 0 0 0 0 0 0 0 0 0 0 16 35 24 65 143 98 65 143 98 65 143 98 65 143 98 16 35 24 0 0 0 0 0 0 0 0 0 0 0 0 0 0 0 0 0 0 0 0 0 0 0 0 0 0 0 0 0 0 13 31 22 54 124 88 54 124 88 54 124 88 54 124 88 13 31 22 0 0 0 0 0 0 0 0 0 0 0 0 0 0 0 0 0 0 0 0 0 0 0 0 0 0 0 0 0 0 21 46 26 86 185 106 86 185 106 86 185 106 86 185 106 21 46 26 0 0 0 0 0 0 0 0 0 0 0 0 0 0 0 0 0 0 0 0 0 0 0 0 0 0 0 0 0 0 17 42 23 70 169 93 70 169 93 70 169 93 70 169 93 17 42 23 0 0 0 0 0 0 0 0 0 0 0 0 0 0 0 0 0 0 0 0 0 0 0 0 0 0 0 0 0 0 21 46 26 86 185 106 86 185 106 86 185 106 86 185 106 21 46 26 0 0 0 0 0 0 0 0 0 0 0 0 0 0 0
0 0 0 0 0 0 0 0 0 0 0 0 0 0 0 21 46 26 86 185 106 86 185 106 86 185 106 86 185 106 21 46 26 0 0 0 0 0 0 0 0 0 0 0 0 0 0 0 0 0 0 0 0 0 0 0 0 0 0 0 0 0 0 21 46 26 86 185 106 86 185 106 86 185 106 86 185 106 21 46 26 0 0 0 0 0 0 0 0 0 0 0 0 0 0 0 0 0 0 0 0 0 0 0 0 0 0 0 0 0 0 17 42 23 70 169 93 70 169 93 70 169 93 70 169 93 17 42 23 0 0 0 0 0 0 0 0 0 0 0 0 0 0 0 0 0 0 0 0 0 0 0 0 0 0 0 0 0 0 16 35 24 65 143 98 65 143 98 65 143 98 65 143 98 16 35 24 0 0 0 0 0 0 0 0 0 0 0 0 0 0 0 0 0 0 0 0 0 0 0 0 0 0 0 0 0 0 13 31 22 54 124 88 54 124 88 54 124 88 54 124 88 13 31 22 0 0 0 0 0 0 0 0 0 0 0 0 0 0 0 0 0 0 0 0 0 0 0 0 0 0 0 0 0 0 21 46 26 86 185 106 86 185 106 86 185 106 86 185 106 21 46 26 0 0 0 0 0 0 0 0 0 0 0 0 0 0 0 0 0 0 0 0 0 0 0 0 0 0 0 0 0 0 17 42 23 70 169 93 70 169 93 70 169 93 70 169 93 17 42 23 0 0 0 0 0 0 0 0 0 0 0 0 0 0 0 0 0 0 0 0 0 0 0 0 0 0 0 0 0 0 21 46 26 86 185 106 86 185 106 86 185 106 86 185 106 21 46 26 0 0 0 0 0 0 0 0 0 0 0 0 0 0 0
0 0 0 0 0 0 0 0 0 0 0 0 0 0 0 21 46 26 86 185 106 86 185 106 86 185 106 86 185 106 21 46 26 0 0 0 0 0 0 0 0 0 0 0 0 0 0 0 0 0 0 0 0 0 0 0 0 0 0 0 0 0 0 21 46 26 86 185 106 86 185 106 86 185 106 86 185 106 21 46 26 0 0 0 0 0 0 0 0 0 0 0 0 0 0 0 0 0 0 0 0 0 0 0 0 0 0 0 0 0 0 17 42 23 70 169 93 70 169 93 70 169 93 70 169 93 17 42 23 0 0 0 0 0 0 0 0 0 0 0 0 0 0 0 0 0 0 0 0 0 0 0 0 0 0 0 0 0 0 16 35 24 65 143 98 65 143 98 65 143 98 65 143 98 16 35 24 0 0 0 0 0 0 0 0 0 0 0 0 0 0 0 0 0 0 0 0 0 0 0 0 0 0 0 0 0 0 13 31 22 54 124 88 54 124 88 54 124 88 54 124 88 13 31 22 0 0 0 0 0 0 0 0 0 0 0 0 0 0 0 0 0 0 0 0 0 0 0 0 0 0 0 0 0 0 21 46 26 86 185 106 86 185 106 86 185 106 86 185 106 21 46 26 0 0 0 0 0 0 0 0 0 0 0 0 0 0 0 0 0 0 0 0 0 0 0 0 0 0 0 0 0 0 17 42 23 70 169 93 70 169 93 70 169 93 70 169 93 17 42 23 0 0 0 0 0 0 0 0 0 0 0 0 0 0 0 0 0 0 0 0 0 0 0 0 0 0 0 0 0 0 21 46 26 86 185 106 86 185 106 86 185 106 86 185 106 21 46 26 0 0 0 0 0 0 0 0 0 0 0 0 0 0 0
0 0 0 0 0 0 0 0 0 0 0 0 0 0 0 21 46 26 86 185 106 86 185 106 86 185 106 86 185 106 21 46 26 0 0 0 0 0 0 0 0 0 0 0 0 0 0 0 0 0 0 0 0 0 0 0 0 0 0 0 0 0 0 21 46 26 86 185 106 86 185 106 86 185 106 86 185 106 21 46 26 0 0 0 0 0 0 0 0 0 0 0 0 0 0 0 0 0 0 0 0 0 0 0 0 0 0 0 0 0 0 17 42 23 70 169 93 70 169 93 70 169 93 70 169 93 17 42 23 0 0 0 0 0 0 0 0 0 0 0 0 0 0 0 0 0 0 0 0 0 0 0 0 0 0 0 0 0 0 16 35 24 65 143 98 65 143 98 65 143 98 65 143 98 16 35 24 0 0 0 0 0 0 0 0 0 0 0 0 0 0 0 0 0 0 0 0 0 0 0 0 0 0 0 0 0 0 13 31 22 54 124 88 54 124 88 54 124 88 54 124 88 13 31 22 0 0 0 0 0 0 0 0 0 0 0 0 0 0 0 0 0 0 0 0 0 0 0 0 0 0 0 0 0 0 21 46 26 86 185 106 86 185 106 86 185 106 86 185 106 21 46 26 0 0 0 0 0 0 0 0 0 0 0 0 0 0 0 0 0 0 0 0 0 0 0 0 0 0 0 0 0 0 17 42 23 70 169 93 70 169 93 70 169 93 70 169 93 17 42 23 0 0 0 0 0 0 0 0 0 0 0 0 0 0 0 0 0 0 0 0 0 0 0 0 0 0 0 0 0 0 21 46 26 86 185 106 86 185 106 86 185 106 86 185 106 21 46 26 0 0 0 0 0 0 0 0 0 0 0 0 0 0 0
0 0 0 0 0 0 0 0 0 0 0 0 0 0 0 21 46 26 21 46 26 21 46 26 21 46 26 21 46 26 21 46 26 0 0 0 0 0 0 0 0 0 0 0 0 0 0 0 0 0 0 0 0 0 0 0 0 0 0 0 0 0 0 21 46 26 21 46 26 21 46 26 21 46 26 21 46 26 21 46 26 0 0 0 0 0 0 0 0 0 0 0 0 0 0 0 0 0 0 0 0 0 0 0 0 0 0 0 0 0 0 17 42 23 17 42 23 17 42 23 17 42 23 17 42 23 17 42 23 0 0 0 0 0 0 0 0 0 0 0 0 0 0 0 0 0 0 0 0 0 0 0 0 0 0 0 0 0 0 16 35 24 16 35 24 16 35 24 16 35 24 16 35 24 16 35 24 0 0 0 0 0 0 0 0 0 0 0 0 0 0 0 0 0 0 0 0 0 0 0 0 0 0 0 0 0 0 13 31 22 13 31 22 13 31 22 13 31 22 13 31 22 13 31 22 0 0 0 0 0 0 0 0 0 0 0 0 0 0 0 0 0 0 0 0 0 0 0 0 0 0 0 0 0 0 21 46 26 21 46 26 21 46 26 21 46 26 21 46 26 21 46 26 0 0 0 0 0 0 0 0 0 0 0 0 0 0 0 0 0 0 0 0 0 0 0 0 0 0 0 0 0 0 17 42 23 17 42 23 17 42 23 17 42 23 17 42 23 17 42 23 0 0 0 0 0 0 0 0 0 0 0 0 0 0 0 0 0 0 0 0 0 0 0 0 0 0 0 0 0 0 21 46 26 21 46 26 21 46 26 21 46 26 21 46 26 21 46 26 0 0 0 0 0 0 0 0 0 0 0 0 0 0 0
0 0 0 0 0 0 0 0 0 0 0 0 21 46 26 21 46 26 21 46 26 0 0 0 0 0 0 21 46 26 21 46 26 21 46 26 0 0 0 0 0 0 0 0 0 0 0 0 0 0 0 0 0 0 0 0 0 0 0 0 0 0 0 21 46 26 21 46 26 21 46 26 21 46 26 21 46 26 21 46 26 0 0 0 0 0 0 0 0 0 0 0 0 0 0 0 0 0 0 0 0 0 0 0 0 0 0 0 17 42 23 17 42 23 17 42 23 0 0 0 0 0 0 17 42 23 17 42 23 17 42 23 0 0 0 0 0 0 0 0 0 0 0 0 0 0 0 0 0 0 0 0 0 0 0 0 0 0 0 16 35 24 16 35 24 16 35 24 16 35 24 16 35 24 16 35 24 0 0 0 0 0 0 0 0 0 0 0 0 0 0 0 0 0 0 0 0 0 0 0 0 0 0 0 13 31 22 13 31 22 13 31 22 0 0 0 0 0 0 13 31 22 13 31 22 13 31 22 0 0 0 0 0 0 0 0 0 0 0 0 0 0 0 0 0 0 0 0 0 0 0 0 0 0 0 21 46 26 21 46 26 21 46 26 21 46 26 21 46 26 21 46 26 0 0 0 0 0 0 0 0 0 0 0 0 0 0 0 0 0 0 0 0 0 0 0 0 0 0 0 17 42 23 17 42 23 17 42 23 0 0 0 0 0 0 17 42 23 17 42 23 17 42 23 0 0 0 0 0 0 0 0 0 0 0 0 0 0 0 0 0 0 0 0 0 0 0 0 0 0 0 21 46 26 21 46 26 21 46 26 21 46 26 21 46 26 21 46 26 0 0 0 0 0 0 0 0 0 0 0 0 0 0 0
0 0 0 0 0 0 0 0 0 0 0 0 21 46 26 21 46 26 21 46 26 0 0 0 0 0 0 21 46 26 21 46 26 21 46 26 0 0 0 0 0 0 0 0 0 0 0 0 0 0 0 0 0 0 0 0 0 0 0 0 0 0 0 21 46 26 21 46 26 21 46 26 21 46 26 21 46 26 21 46 26 0 0 0 0 0 0 0 0 0 0 0 0 0 0 0 0 0 0 0 0 0 0 0 0 0 0 0 17 42 23 17 42 23 17 42 23 0 0 0 0 0 0 17 42 23 17 42 23 17 42 23 0 0 0 0 0 0 0 0 0 0 0 0 0 0 0 0 0 0 0 0 0 0 0 0 0 0 0 16 35 24 16 35 24 16 35 24 16 35 24 16 35 24 16 35 24 0 0 0 0 0 0 0 0 0 0 0 0 0 0 0 0 0 0 0 0 0 0 0 0 0 0 0 13 31 22 13 31 22 13 31 22 0 0 0 0 0 0 13 31 22 13 31 22 13 31 22 0 0 0 0 0 0 0 0 0 0 0 0 0 0 0 0 0 0 0 0 0 0 0 0 0 0 0 21 46 26 21 46 26 21 46 26 21 46 26 21 46 26 21 46 26 0 0 0 0 0 0 0 0 0 0 0 0 0 0 0 0 0 0 0 0 0 0 0 0 0 0 0 17 42 23 17 42 23 17 42 23 0 0 0 0 0 0 17 42 23 17 42 23 17 42 23 0 0 0 0 0 0 0 0 0 0 0 0 0 0 0 0 0 0 0 0 0 0 0 0 0 0 0 21 46 26 21 46 26 21 46 26 21 46 26 21 46 26 21 46 26 0 0 0 0 0 0 0 0 0 0 0 0 0 0 0
0 0 0 0 0 0 0 0 0 0 0 0 21 25 21 21 25 21 21 25 21 21 25 21 21 25 21 21 25 21 21 25 21 21 25 21 0 0 0 0 0 0 0 0 0 0 0 0 0 0 0 0 0 0 0 0 0 0 0 0 21 25 21 21 25 21 21 25 21 21 25 21 21 25 21 21 25 21 21 25 21 21 25 21 0 0 0 0 0 0 0 0 0 0 0 0 0 0 0 0 0 0 0 0 0 0 0 0 21 25 21 21 25 21 21 25 21 21 25 21 21 25 21 21 25 21 21 25 21 21 25 21 0 0 0 0 0 0 0 0 0 0 0 0 0 0 0 0 0 0 0 0 0 0 0 0 21 25 21 21 25 21 21 25 21 21 25 21 21 25 21 21 25 21 21 25 21 21 25 21 0 0 0 0 0 0 0 0 0 0 0 0 0 0 0 0 0 0 0 0 0 0 0 0 21 25 21 21 25 21 21 25 21 21 25 21 21 25 21 21 25 21 21 25 21 21 25 21 0 0 0 0 0 0 0 0 0 0 0 0 0 0 0 0 0 0 0 0 0 0 0 0 21 25 21 21 25 21 21 25 21 21 25 21 21 25 21 21 25 21 21 25 21 21 25 21 0 0 0 0 0 0 0 0 0 0 0 0 0 0 0 0 0 0 0 0 0 0 0 0 21 25 21 21 25 21 21 25 21 21 25 21 21 25 21 21 25 21 21 25 21 21 25 21 0 0 0 0 0 0 0 0 0 0 0 0 0 0 0 0 0 0 0 0 0 0 0 0 21 25 21 21 25 21 21 25 21 21 25 21 21 25 21 21 25 21 21 25 21 21 25 21 0 0 0 0 0 0 0 0 0 0 0 0
0 0 0 0 0 0 0 0 0 0 0 0 21 25 21 21 25 21 21 25 21 21 25 21 21 25 21 21 25 21 21 25 21 21 25 21 0 0 0 0 0 0 0 0 0 0 0 0 0 0 0 0 0 0 0 0 0 0 0 0 21 25 21 21 25 21 21 25 21 21 25 21 21 25 21 21 25 21 21 25 21 21 25 21 0 0 0 0 0 0 0 0 0 0 0 0 0 0 0 0 0 0 0 0 0 0 0 0 21 25 21 21 25 21 21 25 21 21 25 21 21 25 21 21 25 21 21 25 21 21 25 21 0 0 0 0 0 0 0 0 0 0 0 0 0 0 0 0 0 0 0 0 0 0 0 0 21 25 21 21 25 21 21 25 21 21 25 21 21 25 21 21 25 21 21 25 21 21 25 21 0 0 0 0 0 0 0 0 0 0 0 0 0 0 0 0 0 0 0 0 0 0 0 0 21 25 21 21 25 21 21 25 21 21 25 21 21 25 21 21 25 21 21 25 21 21 25 21 0 0 0 0 0 0 0 0 0 0 0 0 0 0 0 0 0 0 0 0 0 0 0 0 21 25 21 21 25 21 21 25 21 21 25 21 21 25 21 21 25 21 21 25 21 21 25 21 0 0 0 0 0 0 0 0 0 0 0 0 0 0 0 0 0 0 0 0 0 0 0 0 21 25 21 21 25 21 21 25 21 21 25 21 21 25 21 21 25 21 21 25 21 21 25 21 0 0 0 0 0 0 0 0 0 0 0 0 0 0 0 0 0 0 0 0 0 0 0 0 21 25 21 21 25 21 21 25 21 21 25 21 21 25 21 21 25 21 21 25 21 21 25 21 0 0 0 0 0 0 0 0 0 0 0 0
0 0 0 0 0 0 0 0 0 0 0 0 0 0 0 0 0 0 0 0 0 0 0 0 0 0 0 0 0 0 0 0 0 0 0 0 0 0 0 0 0 0 0 0 0 0 0 0 0 0 0 0 0 0 0 0 0 0 0 0 0 0 0 0 0 0 0 0 0 0 0 0 0 0 0 0 0 0 0 0 0 0 0 0 0 0 0 0 0 0 0 0 0 0 0 0 0 0 0 0 0 0 0 0 0 0 0 0 0 0 0 0 0 0 0 0 0 0 0 0 0 0 0 0 0 0 0 0 0 0 0 0 0 0 0 0 0 0 0 0 0 0 0 0 0 0 0 0 0 0 0 0 0 0 0 0 0 0 0 0 0 0 0 0 0 0 0 0 0 0 0 0 0 0 0 0 0 0 0 0 0 0 0 0 0 0 0 0 0 0 0 0 0 0 0 0 0 0 0 0 0 0 0 0 0 0 0 0 0 0 0 0 0 0 0 0 0 0 0 0 0 0 0 0 0 0 0 0 0 0 0 0 0 0 0 0 0 0 0 0 0 0 0 0 0 0 0 0 0 0 0 0 0 0 0 0 0 0 0 0 0 0 0 0 0 0 0 0 0 0 0 0 0 0 0 0 0 0 0 0 0 0 0 0 0 0 0 0 0 0 0 0 0 0 0 0 0 0 0 0 0 0 0 0 0 0 0 0 0 0 0 0 0 0 0 0 0 0 0 0 0 0 0 0 0 0 0 0 0 0 0 0 0 0 0 0 0 0 0 0 0 0 0 0 0 0 0 0 0 0 0 0 0 0 0 0 0 0 0 0 0 0 0 0 0 0 0 0 0 0 0 0 0 0 0 0 0 0 0 0 0 0 0 0
0 0 0 0 0 0 0 0 0 0 0 0 0 0 0 0 0 0 0 0 0 0 0 0 0 0 0 0 0 0 0 0 0 0 0 0 0 0 0 0 0 0 0 0 0 0 0 0 0 0 0 0 0 0 0 0 0 0 0 0 0 0 0 0 0 0 0 0 0 0 0 0 0 0 0 0 0 0 0 0 0 0 0 0 0 0 0 0 0 0 0 0 0 0 0 0 0 0 0 0 0 0 0 0 0 0 0 0 0 0 0 0 0 0 0 0 0 0 0 0 0 0 0 0 0 0 0 0 0 0 0 0 0 0 0 0 0 0 0 0 0 0 0 0 0 0 0 0 0 0 0 0 0 0 0 0 0 0 0 0 0 0 0 0 0 0 0 0 0 0 0 0 0 0 0 0 0 0 0 0 0 0 0 0 0 0 0 0 0 0 0 0 0 0 0 0 0 0 0 0 0 0 0 0 0 0 0 0 0 0 0 0 0 0 0 0 0 0 0 0 0 0 0 0 0 0 0 0 0 0 0 0 0 0 0 0 0 0 0 0 0 0 0 0 0 0 0 0 0 0 0 0 0 0 0 0 0 0 0 0 0 0 0 0 0 0 0 0 0 0 0 0 0 0 0 0 0 0 0 0 0 0 0 0 0 0 0 0 0 0 0 0 0 0 0 0 0 0 0 0 0 0 0 0 0 0 0 0 0 0 0 0 0 0 0 0 0 0 0 0 0 0 0 0 0 0 0 0 0 0 0 0 0 0 0 0 0 0 0 0 0 0 0 0 0 0 0 0 0 0 0 0 0 0 0 0 0 0 0 0 0 0 0 0 0 0 0 0 0 0 0 0 0 0 0 0 0 0 0 0 0 0 0 0
0 0 0 0 0 0 0 0 0 0 0 0 0 0 0 0 0 0 0 0 0 0 0 0 0 0 0 0 0 0 0 0 0 0 0 0 0 0 0 0 0 0 0 0 0 0 0 0 0 0 0 0 0 0 0 0 0 0 0 0 0 0 0 0 0 0 0 0 0 0 0 0 0 0 0 0 0 0 0 0 0 0 0 0 0 0 0 0 0 0 0 0 0 0 0 0 0 0 0 0 0 0 0 0 0 0 0 0 0 0 0 0 0 0 0 0 0 0 0 0 0 0 0 0 0 0 0 0 0 0 0 0 0 0 0 0 0 0 0 0 0 0 0 0 0 0 0 0 0 0 0 0 0 0 0 0 0 0 0 0 0 0 0 0 0 0 0 0 0 0 0 0 0 0 0 0 0 0 0 0 0 0 0 0 0 0 0 0 0 0 0 0 0 0 0 0 0 0 0 0 0 0 0 0 0 0 0 0 0 0 0 0 0 0 0 0 0 0 0 0 0 0 0 0 0 0 0 0 0 0 0 0 0 0 0 0 0 0 0 0 0 0 0 0 0 0 0 0 0 0 0 0 0 0 0 0 0 0 0 0 0 0 0 0 0 0 0 0 0 0 0 0 0 0 0 0 0 0 0 0 0 0 0 0 0 0 0 0 0 0 0 0 0 0 0 0 0 0 0 0 0 0 0 0 0 0 0 0 0 0 0 0 0 0 0 0 0 0 0 0 0 0 0 0 0 0 0 0 0 0 0 0 0 0 0 0 0 0 0 0 0 0 0 0 0 0 0 0 0 0 0 0 0 0 0 0 0 0 0 0 0 0 0 0 0 0 0 0 0 0 0 0 0 0 0 0 0 0 0 0 0 0 0 0
0 0 0 0 0 0 0 0 0 0 0 0 0 0 0 0 0 0 17 42 23 17 42 23 17 42 23 17 42 23 0 0 0 0 0 0 0 0 0 0 0 0 0 0 0 0 0 0 0 0 0 0 0 0 0 0 0 0 0 0 0 0 0 0 0 0 56 49 27 56 49 27 56 49 27 56 49 27 0 0 0 0 0 0 0 0 0 0 0 0 0 0 0 0 0 0 0 0 0 0 0 0 0 0 0 0 0 0 0 0 0 0 0 0 53 46 23 53 46 23 53 46 23 53 46 23 0 0 0 0 0 0 0 0 0 0 0 0 0 0 0 0 0 0 0 0 0 0 0 0 0 0 0 0 0 0 0 0 0 0 0 0 50 41 20 50 41 20 50 41 20 50 41 20 0 0 0 0 0 0 0 0 0 0 0 0 0 0 0 0 0 0 0 0 0 0 0 0 0 0 0 0 0 0 0 0 0 0 0 0 27 38 52 27 38 52 27 38 52 27 38 52 0 0 0 0 0 0 0 0 0 0 0 0 0 0 0 0 0 0 0 0 0 0 0 0 0 0 0 0 0 0 0 0 0 0 0 0 50 20 19 50 20 19 50 20 19 50 20 19 0 0 0 0 0 0 0 0 0 0 0 0 0 0 0 0 0 0 0 0 0 0 0 0 0 0 0 0 0 0 0 0 0 0 0 0 46 17 17 46 17 17 46 17 17 46 17 17 0 0 0 0 0 0 0 0 0 0 0 0 0 0 0 0 0 0 0 0 0 0 0 0 0 0 0 0 0 0 0 0 0 0 0 0 36 12 12 36 12 12 36 12 12 36 12 12 0 0 0 0 0 0 0 0 0 0 0 0 0 0 0 0 0 0
0 0 0 0 0 0 0 0 0 0 0 0 0 0 0 0 0 0 17 42 23 232 191 138 232 191 138 17 42 23 0 0 0 0 0 0 0 0 0 0 0 0 0 0 0 0 0 0 0 0 0 0 0 0 0 0 0 0 0 0 0 0 0 0 0 0 56 49 27 232 191 138 232 191 138 56 49 27 0 0 0 0 0 0 0 0 0 0 0 0 0 0 0 0 0 0 0 0 0 0 0 0 0 0 0 0 0 0 0 0 0 0 0 0 53 46 23 232 191 138 232 191 138 53 46 23 0 0 0 0 0 0 0 0 0 0 0 0 0 0 0 0 0 0 0 0 0 0 0 0 0 0 0 0 0 0 0 0 0 0 0 0 50 41 20 232 191 138 232 191 138 50 41 20 0 0 0 0 0 0 0 0 0 0 0 0 0 0 0 0 0 0 0 0 0 0 0 0 0 0 0 0 0 0 0 0 0 0 0 0 27 38 52 232 191 138 232 191 138 27 38 52 0 0 0 0 0 0 0 0 0 0 0 0 0 0 0 0 0 0 0 0 0 0 0 0 0 0 0 0 0 0 0 0 0 0 0 0 50 20 19 255 159 138 255 159 138 50 20 19 0 0 0 0 0 0 0 0 0 0 0 0 0 0 0 0 0 0 0 0 0 0 0 0 0 0 0 0 0 0 0 0 0 0 0 0 46 17 17 255 159 138 255 159 138 46 17 17 0 0 0 0 0 0 0 0 0 0 0 0 0 0 0 0 0 0 0 0 0 0 0 0 0 0 0 0 0 0 0 0 0 0 0 0 36 12 12 255 119 106 255 119 106 36 12 12 0 0 0 0 0 0 0 0 0 0 0 0 0 0 0 0 0 0
0 0 0 0 0 0 0 0 0 0 0 0 0 0 0 0 0 0 17 42 23 232 191 138 232 191 138 17 42 23 0 0 0 0 0 0 0 0 0 0 0 0 0 0 0 0 0 0 0 0 0 0 0 0 0 0 0 0 0 0 0 0 0 0 0 0 56 49 27 232 191 138 232 191 138 56 49 27 0 0 0 0 0 0 0 0 0 0 0 0 0 0 0 0 0 0 0 0 0 0 0 0 0 0 0 0 0 0 0 0 0 0 0 0 53 46 23 232 191 138 232 191 138 53 46 23 0 0 0 0 0 0 0 0 0 0 0 0 0 0 0 0 0 0 0 0 0 0 0 0 0 0 0 0 0 0 0 0 0 0 0 0 50 41 20 232 191 138 232 191 138 50 41 20 0 0 0 0 0 0 0 0 0 0 0 0 0 0 0 0 0 0 0 0 0 0 0 0 0 0 0 0 0 0 0 0 0 0 0 0 27 38 52 232 191 138 232 191 138 27 38 52 0 0 0 0 0 0 0 0 0 0 0 0 0 0 0 0 0 0 0 0 0 0 0 0 0 0 0 0 0 0 0 0 0 0 0 0 50 20 19 255 159 138 255 159 138 50 20 19 0 0 0 0 0 0 0 0 0 0 0 0 0 0 0 0 0 0 0 0 0 0 0 0 0 0 0 0 0 0 0 0 0 0 0 0 46 17 17 255 159 138 255 159 138 46 17 17 0 0 0 0 0 0 0 0 0 0 0 0 0 0 0 0 0 0 0 0 0 0 0 0 0 0 0 0 0 0 0 0 0 0 0 0 36 12 12 255 119 106 255 119 106 36 12 12 0 0 0 0 0 0 0 0 0 0 0 0 0 0 0 0 0 0
0 0 0 0 0 0 0 0 0 0 0 0 0 0 0 0 0 0 17 42 23 232 191 138 232 191 138 17 42 23 0 0 0 0 0 0 0 0 0 0 0 0 0 0 0 0 0 0 0 0 0 0 0 0 0 0 0 0 0 0 0 0 0 0 0 0 56 49 27 232 191 138 232 191 138 56 49 27 0 0 0 0 0 0 0 0 0 0 0 0 0 0 0 0 0 0 0 0 0 0 0 0 0 0 0 0 0 0 0 0 0 0 0 0 53 46 23 232 191 138 232 191 138 53 46 23 0 0 0 0 0 0 0 0 0 0 0 0 0 0 0 0 0 0 0 0 0 0 0 0 0 0 0 0 0 0 0 0 0 0 0 0 50 41 20 232 191 138 232 191 138 50 41 20 0 0 0 0 0 0 0 0 0 0 0 0 0 0 0 0 0 0 0 0 0 0 0 0 0 0 0 0 0 0 0 0 0 0 0 0 27 38 52 232 191 138 232 191 138 27 38 52 0 0 0 0 0 0 0 0 0 0 0 0 0 0 0 0 0 0 0 0 0 0 0 0 0 0 0 0 0 0 0 0 0 0 0 0 50 20 19 255 159 138 255 159 138 50 20 19 0 0 0 0 0 0 0 0 0 0 0 0 0 0 0 0 0 0 0 0 0 0 0 0 0 0 0 0 0 0 0 0 0 0 0 0 46 17 17 255 159 138 255 159 138 46 17 17 0 0 0 0 0 0 0 0 0 0 0 0 0 0 0 0 0 0 0 0 0 0 0 0 0 0 0 0 0 0 0 0 0 0 0 0 36 12 12 255 119 106 255 119 106 36 12 12 0 0 0 0 0 0 0 0 0 0 0 0 0 0 0 0 0 0
0 0 0 0 0 0 0 0 0 0 0 0 0 0 0 17 42 23 70 169 93 70 169 93 70 169 93 70 169 93 17 42 23 0 0 0 0 0 0 0 0 0 0 0 0 0 0 0 0 0 0 0 0 0 0 0 0 0 0 0 0 0 0 56 49 27 227 196 110 227 196 110 227 196 110 227 196 110 56 49 27 0 0 0 0 0 0 0 0 0 0 0 0 0 0 0 0 0 0 0 0 0 0 0 0 0 0 0 0 0 0 53 46 23 214 184 95 214 184 95 214 184 95 214 184 95 53 46 23 0 0 0 0 0 0 0 0 0 0 0 0 0 0 0 0 0 0 0 0 0 0 0 0 0 0 0 0 0 0 50 41 20 202 164 80 202 164 80 202 164 80 202 164 80 50 41 20 255 240 168 255 240 168 255 240 168 0 0 0 0 0 0 0 0 0 0 0 0 0 0 0 0 0 0 0 0 0 27 38 52 109 154 208 109 154 208 109 154 208 109 154 208 27 38 52 0 0 0 0 0 0 0 0 0 0 0 0 0 0 0 0 0 0 0 0 0 0 0 0 0 0 0 0 0 0 50 20 19 200 82 77 200 82 77 200 82 77 200 82 77 50 20 19 0 0 0 0 0 0 0 0 0 0 0 0 0 0 0 0 0 0 0 0 0 0 0 0 0 0 0 0 0 0 46 17 17 185 71 69 185 71 69 185 71 69 185 71 69 46 17 17 0 0 0 0 0 0 0 0 0 0 0 0 0 0 0 0 0 0 0 0 0 0 0 0 0 0 0 0 0 0 36 12 12 147 51 51 147 51 51 147 51 51 255 92 77 36 12 12 0 0 0 0 0 0 0 0 0 0 0 0 0 0 0
0 0 0 0 0 0 0 0 0 0 0 0 0 0 0 17 42 23 70 169 93 70 169 93 70 169 93 70 169 93 17 42 23 0 0 0 0 0 0 0 0 0 0 0 0 0 0 0 0 0 0 0 0 0 0 0 0 0 0 0 0 0 0 56 49 27 227 196 110 227 196 110 227 196 110 227 196 110 56 49 27 0 0 0 0 0 0 0 0 0 0 0 0 0 0 0 0 0 0 0 0 0 0 0 0 0 0 0 0 0 0 53 46 23 214 184 95 214 184 95 214 184 95 214 184 95 53 46 23 0 0 0 0 0 0 0 0 0 0 0 0 0 0 0 0 0 0 0 0 0 0 0 0 0 0 0 0 0 0 50 41 20 202 164 80 202 164 80 202 164 80 202 164 80 50 41 20 0 0 0 0 0 0 0 0 0 0 0 0 0 0 0 0 0 0 0 0 0 0 0 0 0 0 0 0 0 0 27 38 52 109 154 208 109 154 208 109 154 208 109 154 208 27 38 52 0 0 0 0 0 0 0 0 0 0 0 0 0 0 0 0 0 0 0 0 0 0 0 0 0 0 0 0 0 0 50 20 19 200 82 77 200 82 77 200 82 77 200 82 77 50 20 19 0 0 0 0 0 0 0 0 0 0 0 0 0 0 0 0 0 0 0 0 0 0 0 0 0 0 0 0 0 0 46 17 17 185 71 69 185 71 69 185 71 69 185 71 69 46 17 17 0 0 0 0 0 0 0 0 0 0 0 0 0 0 0 0 0 0 0 0 0 0 0 0 0 0 0 0 0 0 36 12 12 147 51 51 147 51 51 147 51 51 255 92 77 36 12 12 0 0 0 0 0 0 0 0 0 0 0 0 0 0 0
0 0 0 0 0 0 0 0 0 0 0 0 0 0 0 17 42 23 70 169 93 70 169 93 70 169 93 70 169 93 17 42 23 0 0 0 0 0 0 0 0 0 0 0 0 0 0 0 0 0 0 0 0 0 0 0 0 0 0 0 0 0 0 56 49 27 227 196 110 227 196 110 227 196 110 227 196 110 56 49 27 0 0 0 0 0 0 0 0 0 0 0 0 0 0 0 0 0 0 0 0 0 0 0 0 0 0 0 0 0 0 53 46 23 214 184 95 214 184 95 214 184 95 214 184 95 53 46 23 0 0 0 0 0 0 0 0 0 0 0 0 0 0 0 0 0 0 0 0 0 0 0 0 0 0 0 0 0 0 50 41 20 202 164 80 202 164 80 202 164 80 202 164 80 50 41 20 0 0 0 0 0 0 0 0 0 0 0 0 0 0 0 0 0 0 0 0 0 0 0 0 0 0 0 0 0 0 27 38 52 109 154 208 109 154 208 109 154 208 109 154 208 27 38 52 0 0 0 0 0 0 0 0 0 0 0 0 0 0 0 0 0 0 0 0 0 0 0 0 0 0 0 0 0 0 50 20 19 200 82 77 200 82 77 200 82 77 200 82 77 50 20 19 0 0 0 0 0 0 0 0 0 0 0 0 0 0 0 0 0 0 0 0 0 0 0 0 0 0 0 0 0 0 46 17 17 185 71 69 185 71 69 185 71 69 185 71 69 46 17 17 0 0 0 0 0 0 0 0 0 0 0 0 0 0 0 0 0 0 0 0 0 0 0 0 0 0 0 0 0 0 36 12 12 147 51 51 147 51 51 147 51 51 255 92 77 36 12 12 0 0 0 0 0 0 0 0 0 0 0 0 0 0 0
0 0 0 0 0 0 0 0 0 0 0 0 0 0 0 17 42 23 70 169 93 70 169 93 70 169 93 70 169 93 17 42 23 0 0 0 0 0 0 0 0 0 0 0 0 0 0 0 0 0 0 0 0 0 0 0 0 0 0 0 0 0 0 56 49 27 227 196 110 227 196 110 227 196 110 227 196 110 56 49 27 0 0 0 0 0 0 0 0 0 0 0 0 0 0 0 0 0 0 0 0 0 0 0 0 0 0 0 0 0 0 53 46 23 214 184 95 214 184 95 214 184 95 214 184 95 53 46 23 0 0 0 0 0 0 0 0 0 0 0 0 0 0 0 0 0 0 0 0 0 0 0 0 0 0 0 0 0 0 50 41 20 202 164 80 202 164 80 202 164 80 202 164 80 50 41 20 0 0 0 0 0 0 0 0 0 0 0 0 0 0 0 0 0 0 0 0 0 0 0 0 0 0 0 0 0 0 27 38 52 109 154 208 109 154 208 109 154 208 109 154 208 27 38 52 0 0 0 0 0 0 0 0 0 0 0 0 0 0 0 0 0 0 0 0 0 0 0 0 0 0 0 0 0 0 50 20 19 200 82 77 200 82 77 200 82 77 200 82 77 50 20 19 0 0 0 0 0 0 0 0 0 0 0 0 0 0 0 0 0 0 0 0 0 0 0 0 0 0 0 0 0 0 46 17 17 185 71 69 185 71 69 185 71 69 185 71 69 46 17 17 0 0 0 0 0 0 0 0 0 0 0 0 0 0 0 0 0 0 0 0 0 0 0 0 0 0 0 0 0 0 36 12 12 147 51 51 147 51 51 147 51 51 255 92 77 36 12 12 0 0 0 0 0 0 0 0 0 0 0 0 0 0 0
0 0 0 0 0 0 0 0 0 0 0 0 0 0 0 17 42 23 17 42 23 17 42 23 17 42 23 17 42 23 17 42 23 0 0 0 0 0 0 0 0 0 0 0 0 0 0 0 0 0 0 0 0 0 0 0 0 0 0 0 0 0 0 56 49 27 56 49 27 56 49 27 56 49 27 56 49 27 56 49 27 0 0 0 0 0 0 0 0 0 0 0 0 0 0 0 0 0 0 0 0 0 0 0 0 0 0 0 0 0 0 53 46 23 53 46 23 53 46 23 53 46 23 53 46 23 53 46 23 0 0 0 0 0 0 0 0 0 0 0 0 0 0 0 0 0 0 0 0 0 0 0 0 0 0 0 0 0 0 50 41 20 50 41 20 50 41 20 50 41 20 50 41 20 50 41 20 0 0 0 0 0 0 0 0 0 0 0 0 0 0 0 0 0 0 0 0 0 0 0 0 0 0 0 0 0 0 27 38 52 27 38 52 27 38 52 27 38 52 27 38 52 27 38 52 0 0 0 0 0 0 0 0 0 0 0 0 0 0 0 0 0 0 0 0 0 0 0 0 0 0 0 0 0 0 50 20 19 50 20 19 50 20 19 50 20 19 50 20 19 50 20 19 0 0 0 0 0 0 0 0 0 0 0 0 0 0 0 0 0 0 0 0 0 0 0 0 0 0 0 0 0 0 46 17 17 46 17 17 46 17 17 46 17 17 46 17 17 46 17 17 0 0 0 0 0 0 0 0 0 0 0 0 0 0 0 0 0 0 0 0 0 0 0 0 0 0 0 0 0 0 36 12 12 36 12 12 36 12 12 36 12 12 36 12 12 36 12 12 0 0 0 0 0 0 0 0 0 0 0 0 0 0 0
0 0 0 0 0 0 0 0 0 0 0 0 17 42 23 17 42 23 17 42 23 0 0 0 0 0 0 17 42 23 17 42 23 17 42 23 0 0 0 0 0 0 0 0 0 0 0 0 0 0 0 0 0 0 0 0 0 0 0 0 0 0 0 56 49 27 56 49 27 56 49 27 56 49 27 56 49 27 56 49 27 0 0 0 0 0 0 0 0 0 0 0 0 0 0 0 0 0 0 0 0 0 0 0 0 0 0 0 0 0 0 53 46 23 53 46 23 53 46 23 53 46 23 53 46 23 53 46 23 0 0 0 0 0 0 0 0 0 0 0 0 0 0 0 0 0 0 0 0 0 0 0 0 0 0 0 0 0 0 50 41 20 50 41 20 50 41 20 50 41 20 50 41 20 50 41 20 0 0 0 0 0 0 0 0 0 0 0 0 0 0 0 0 0 0 0 0 0 0 0 0 0 0 0 0 0 0 27 38 52 27 38 52 27 38 52 27 38 52 27 38 52 27 38 52 0 0 0 0 0 0 0 0 0 0 0 0 0 0 0 0 0 0 0 0 0 0 0 0 0 0 0 0 0 0 50 20 19 50 20 19 50 20 19 50 20 19 50 20 19 50 20 19 0 0 0 0 0 0 0 0 0 0 0 0 0 0 0 0 0 0 0 0 0 0 0 0 0 0 0 0 0 0 46 17 17 46 17 17 46 17 17 46 17 17 46 17 17 46 17 17 0 0 0 0 0 0 0 0 0 0 0 0 0 0 0 0 0 0 0 0 0 0 0 0 0 0 0 0 0 0 36 12 12 36 12 12 36 12 12 36 12 12 36 12 12 36 12 12 0 0 0 0 0 0 0 0 0 0 0 0 0 0 0
0 0 0 0 0 0 0 0 0 0 0 0 17 42 23 17 42 23 17 42 23 0 0 0 0 0 0 17 42 23 17 42 23 17 42 23 0 0 0 0 0 0 0 0 0 0 0 0 0 0 0 0 0 0 0 0 0 0 0 0 0 0 0 56 49 27 56 49 27 56 49 27 56 49 27 56 49 27 56 49 27 0 0 0 0 0 0 0 0 0 0 0 0 0 0 0 0 0 0 0 0 0 0 0 0 0 0 0 0 0 0 53 46 23 53 46 23 53 46 23 53 46 23 53 46 23 53 46 23 0 0 0 0 0 0 0 0 0 0 0 0 0 0 0 0 0 0 0 0 0 0 0 0 0 0 0 0 0 0 50 41 20 50 41 20 50 41 20 50 41 20 50 41 20 50 41 20 0 0 0 0 0 0 0 0 0 0 0 0 0 0 0 0 0 0 0 0 0 0 0 0 0 0 0 0 0 0 27 38 52 27 38 52 27 38 52 27 38 52 27 38 52 27 38 52 0 0 0 0 0 0 0 0 0 0 0 0 0 0 0 0 0 0 0 0 0 0 0 0 0 0 0 0 0 0 50 20 19 50 20 19 50 20 19 50 20 19 50 20 19 50 20 19 0 0 0 0 0 0 0 0 0 0 0 0 0 0 0 0 0 0 0 0 0 0 0 0 0 0 0 0 0 0 46 17 17 46 17 17 46 17 17 46 17 17 46 17 17 46 17 17 0 0 0 0 0 0 0 0 0 0 0 0 0 0 0 0 0 0 0 0 0 0 0 0 0 0 0 0 0 0 36 12 12 36 12 12 36 12 12 36 12 12 36 12 12 36 12 12 0 0 0 0 0 0 0 0 0 0 0 0 0 0 0
0 0 0 0 0 0 0 0 0 0 0 0 21 25 21 21 25 21 21 25 21 21 25 21 21 25 21 21 25 21 21 25 21 21 25 21 0 0 0 0 0 0 0 0 0 0 0 0 0 0 0 0 0 0 0 0 0 0 0 0 21 25 21 21 25 21 21 25 21 21 25 21 21 25 21 21 25 21 21 25 21 21 25 21 0 0 0 0 0 0 0 0 0 0 0 0 0 0 0 0 0 0 0 0 0 0 0 0 21 25 21 21 25 21 21 25 21 21 25 21 21 25 21 21 25 21 21 25 21 21 25 21 0 0 0 0 0 0 0 0 0 0 0 0 0 0 0 0 0 0 0 0 0 0 0 0 21 25 21 21 25 21 21 25 21 21 25 21 21 25 21 21 25 21 21 25 21 21 25 21 0 0 0 0 0 0 0 0 0 0 0 0 0 0 0 0 0 0 0 0 0 0 0 0 21 25 21 21 25 21 21 25 21 21 25 21 21 25 21 21 25 21 21 25 21 21 25 21 0 0 0 0 0 0 0 0 0 0 0 0 0 0 0 0 0 0 0 0 0 0 0 0 21 25 21 21 25 21 21 25 21 21 25 21 21 25 21 21 25 21 21 25 21 21 25 21 0 0 0 0 0 0 0 0 0 0 0 0 0 0 0 0 0 0 0 0 0 0 0 0 21 25 21 21 25 21 21 25 21 21 25 21 21 25 21 21 25 21 21 25 21 21 25 21 0 0 0 0 0 0 0 0 0 0 0 0 0 0 0 0 0 0 0 0 0 0 0 0 21 25 21 21 25 21 21 25 21 21 25 21 21 25 21 21 25 21 21 25 21 21 25 21 0 0 0 0 0 0 0 0 0 0 0 0
0 0 0 0 0 0 0 0 0 0 0 0 21 25 21 21 25 21 21 25 21 21 25 21 21 25 21 21 25 21 21 25 21 21 25 21 0 0 0 0 0 0 0 0 0 0 0 0 0 0 0 0 0 0 0 0 0 0 0 0 21 25 21 21 25 21 21 25 21 21 25 21 21 25 21 21 25 21 21 25 21 21 25 21 0 0 0 0 0 0 0 0 0 0 0 0 0 0 0 0 0 0 0 0 0 0 0 0 21 25 21 21 25 21 21 25 21 21 25 21 21 25 21 21 25 21 21 25 21 21 25 21 0 0 0 0 0 0 0 0 0 0 0 0 0 0 0 0 0 0 0 0 0 0 0 0 21 25 21 21 25 21 21 25 21 21 25 21 21 25 21 21 25 21 21 25 21 21 25 21 0 0 0 0 0 0 0 0 0 0 0 0 0 0 0 0 0 0 0 0 0 0 0 0 21 25 21 21 25 21 21 25 21 21 25 21 21 25 21 21 25 21 21 25 21 21 25 21 0 0 0 0 0 0 0 0 0 0 0 0 0 0 0 0 0 0 0 0 0 0 0 0 21 25 21 21 25 21 21 25 21 21 25 21 21 25 21 21 25 21 21 25 21 21 25 21 0 0 0 0 0 0 0 0 0 0 0 0 0 0 0 0 0 0 0 0 0 0 0 0 21 25 21 21 25 21 21 25 21 21 25 21 21 25 21 21 25 21 21 25 21 21 25 21 0 0 0 0 0 0 0 0 0 0 0 0 0 0 0 0 0 0 0 0 0 0 0 0 21 25 21 21 25 21 21 25 21 21 25 21 21 25 21 21 25 21 21 25 21 21 25 21 0 0 0 0 0 0 0 0 0 0 0 0
0 0 0 0 0 0 0 0 0 0 0 0 0 0 0 0 0 0 0 0 0 0 0 0 0 0 0 0 0 0 0 0 0 0 0 0 0 0 0 0 0 0 0 0 0 0 0 0 0 0 0 0 0 0 0 0 0 0 0 0 0 0 0 0 0 0 0 0 0 0 0 0 0 0 0 0 0 0 0 0 0 0 0 0 0 0 0 0 0 0 0 0 0 0 0 0 0 0 0 0 0 0 0 0 0 0 0 0 0 0 0 0 0 0 0 0 0 0 0 0 0 0 0 0 0 0 0 0 0 0 0 0 0 0 0 0 0 0 0 0 0 0 0 0 0 0 0 0 0 0 0 0 0 0 0 0 0 0 0 0 0 0 0 0 0 0 0 0 0 0 0 0 0 0 0 0 0 0 0 0 0 0 0 0 0 0 0 0 0 0 0 0 0 0 0 0 0 0 0 0 0 0 0 0 0 0 0 0 0 0 0 0 0 0 0 0 0 0 0 0 0 0 0 0 0 0 0 0 0 0 0 0 0 0 0 0 0 0 0 0 0 0 0 0 0 0 0 0 0 0 0 0 0 0 0 0 0 0 0 0 0 0 0 0 0 0 0 0 0 0 0 0 0 0 0 0 0 0 0 0 0 0 0 0 0 0 0 0 0 0 0 0 0 0 0 0 0 0 0 0 0 0 0 0 0 0 0 0 0 0 0 0 0 0 0 0 0 0 0 0 0 0 0 0 0 0 0 0 0 0 0 0 0 0 0 0 0 0 0 0 0 0 0 0 0 0 0 0 0 0 0 0 0 0 0 0 0 0 0 0 0 0 0 0 0 0 0 0 0 0 0 0 0 0 0 0 0 0 0 0 0 0 0 0
0 0 0 0 0 0 0 0 0 0 0 0 0 0 0 0 0 0 0 0 0 0 0 0 0 0 0 0 0 0 0 0 0 0 0 0 0 0 0 0 0 0 0 0 0 0 0 0 0 0 0 0 0 0 0 0 0 0 0 0 0 0 0 0 0 0 0 0 0 0 0 0 0 0 0 0 0 0 0 0 0 0 0 0 0 0 0 0 0 0 0 0 0 0 0 0 0 0 0 0 0 0 0 0 0 0 0 0 0 0 0 0 0 0 0 0 0 0 0 0 0 0 0 0 0 0 0 0 0 0 0 0 0 0 0 0 0 0 0 0 0 0 0 0 0 0 0 0 0 0 0 0 0 0 0 0 0 0 0 0 0 0 0 0 0 0 0 0 0 0 0 0 0 0 0 0 0 0 0 0 0 0 0 0 0 0 0 0 0 0 0 0 0 0 0 0 0 0 0 0 0 0 0 0 0 0 0 0 0 0 0 0 0 0 0 0 0 0 0 0 0 0 0 0 0 0 0 0 0 0 0 0 0 0 0 0 0 0 0 0 0 0 0 0 0 0 0 0 0 0 0 0 0 0 0 0 0 0 0 0 0 0 0 0 0 0 0 0 0 0 0 0 0 0 0 0 0 0 0 0 0 0 0 0 0 0 0 0 0 0 0 0 0 0 0 0 0 0 0 0 0 0 0 0 0 0 0 0 0 0 0 0 0 0 0 0 0 0 0 0 0 0 0 0 0 0 0 0 0 0 0 0 0 0 0 0 0 0 0 0 0 0 0 0 0 0 0 0 0 0 0 0 0 0 0 0 0 0 0 0 0 0 0 0 0 0 0 0 0 0 0 0 0 0 0 0 0 0 0 0 0 0 0 0
0 0 0 0 0 0 0 0 0 0 0 0 255 177 153 255 177 153 255 177 153 255 177 153 255 177 153 255 177 153 255 177 153 255 177 153 0 0 0 0 0 0 0 0 0 0 0 0 0 0 0 0 0 0 0 0 0 0 0 0 0 0 0 0 0 0 0 0 0 0 0 0 0 0 0 0 0 0 0 0 0 0 0 0 0 0 0 0 0 0 0 0 0 0 0 0 0 0 0 0 0 0 0 0 0 0 0 0 0 0 0 0 0 0 0 0 0 0 0 0 0 0 0 0 0 0 0 0 0 0 0 0 0 0 0 0 0 0 0 0 0 0 0 0 0 0 0 0 0 0 0 0 0 0 0 0 0 0 0 0 0 0 0 0 0 0 0 0 0 0 0 0 0 0 0 0 0 0 0 0 0 0 0 0 0 0 0 0 0 0 0 0 0 0 0 0 0 0 0 0 0 0 0 0 0 0 0 0 0 0 0 0 0 0 0 0 0 0 0 0 0 0 0 0 0 0 0 0 0 0 0 0 0 0 0 0 0 0 0 0 0 0 0 0 0 0 0 0 0 0 0 0 0 0 0 0 0 0 0 0 0 0 0 0 0 0 0 0 0 0 0 0 0 0 0 0 0 0 0 0 0 0 0 0 0 0 0 0 0 0 0 0 0 0 0 0 0 0 0 0 0 0 0 0 0 0 0 0 0 0 0 0 0 0 0 0 0 0 0 0 0 0 0 0 0 0 0 0 0 0 0 0 0 0 0 0 0 0 0 0 0 0 0 0 0 0 0 0 0 0 0 0 0 0 0 0 0 0 0 0 0 0 0 0 0 0 0 0 0 0 0 0 0 0 0 0 0 0 0 0 0 0 0 0
0 0 0 0 0 0 0 0 0 0 0 0 0 0 0 0 0 0 31 13 13 31 13 13 31 13 13 31 13 13 0 0 0 0 0 0 0 0 0 0 0 0 0 0 0 0 0 0 0 0 0 0 0 0 0 0 0 0 0 0 0 0 0 0 0 0 0 0 0 0 0 0 0 0 0 0 0 0 0 0 0 0 0 0 0 0 0 0 0 0 0 0 0 0 0 0 0 0 0 0 0 0 0 0 0 0 0 0 0 0 0 0 0 0 0 0 0 0 0 0 0 0 0 0 0 0 0 0 0 0 0 0 0 0 0 0 0 0 0 0 0 0 0 0 0 0 0 0 0 0 0 0 0 0 0 0 0 0 0 0 0 0 196 155 101 196 155 101 196 155 101 196 155 101 0 0 0 0 0 0 0 0 0 0 0 0 0 0 0 0 0 0 0 0 0 0 0 0 0 0 0 0 0 0 0 0 0 0 0 0 0 0 0 0 0 0 0 0 0 0 0 0 0 0 0 0 0 0 0 0 0 0 0 0 0 0 0 0 0 0 0 0 0 0 0 0 0 0 0 0 0 0 0 0 0 0 0 0 0 0 0 0 0 0 0 0 0 0 0 0 0 0 0 0 0 0 0 0 0 0 0 0 0 0 0 0 0 0 0 0 0 0 0 0 0 0 0 0 0 0 0 0 0 0 0 0 0 0 0 0 0 0 0 0 0 0 0 0 0 0 0 0 0 0 0 0 0 0 0 0 0 0 0 0 0 0 0 0 0 0 0 0 0 0 0 0 0 0 0 0 0 0 0 0 0 0 0 0 0 0 0 0 0 0 0 0 0 0 0 0 0 0 0 0 0 0 0 0 0 0 0 0 0 0
0 0 0 0 0 0 0 0 0 0 0 0 0 0 0 0 0 0 31 13 13 255 190 170 255 190 170 31 13 13 0 0 0 0 0 0 0 0 0 0 0 0 0 0 0 0 0 0 0 0 0 0 0 0 0 0 0 0 0 0 52 35 22 52 35 22 52 35 22 52 35 22 52 35 22 52 35 22 52 35 22 52 35 22 0 0 0 0 0 0 0 0 0 0 0 0 0 0 0 0 0 0 0 0 0 0 0 0 0 0 0 0 0 0 0 0 0 0 0 0 0 0 0 0 0 0 0 0 0 0 0 0 0 0 0 0 0 0 0 0 0 0 0 0 0 0 0 0 0 0 0 0 0 0 0 0 0 0 0 0 0 0 196 155 101 46 34 23 46 34 23 196 155 101 0 0 0 0 0 0 0 0 0 0 0 0 0 0 0 0 0 0 0 0 0 0 0 0 0 0 0 40 29 18 40 29 18 40 29 18 40 29 18 40 29 18 40 29 18 40 29 18 40 29 18 40 29 18 40 29 18 0 0 0 0 0 0 0 0 0 0 0 0 0 0 0 0 0 0 224 129 112 224 129 112 224 129 112 224 129 112 224 129 112 224 129 112 224 129 112 224 129 112 224 129 112 224 129 112 0 0 0 0 0 0 0 0 0 0 0 0 0 0 0 0 0 0 0 0 0 0 0 0 0 0 0 0 0 0 0 0 0 0 0 0 0 0 0 0 0 0 0 0 0 0 0 0 0 0 0 0 0 0 0 0 0 0 0 0 0 0 0 0 0 0 0 0 0 0 0 0 0 0 0 0 0 0 0 0 0 0 0 0 0 0 0 0 0 0 0 0 0 0 0 0 0 0 0 0 0 0 0 0 0
0 0 0 0 0 0 0 0 0 0 0 0 0 0 0 0 0 0 31 13 13 255 190 170 255 190 170 31 13 13 0 0 0 0 0 0 0 0 0 0 0 0 0 0 0 0 0 0 0 0 0 0 0 0 0 0 0 0 0 0 52 35 22 157 107 66 157 107 66 157 107 66 157 107 66 157 107 66 157 107 66 52 35 22 0 0 0 0 0 0 0 0 0 0 0 0 0 0 0 0 0 0 0 0 0 0 0 0 0 0 0 0 0 0 0 0 0 0 0 0 0 0 0 0 0 0 0 0 0 0 0 0 0 0 0 0 0 0 0 0 0 0 0 0 0 0 0 0 0 0 0 0 0 0 0 0 0 0 0 0 0 0 196 155 101 46 34 23 46 34 23 196 155 101 0 0 0 0 0 0 0 0 0 0 0 0 0 0 0 0 0 0 0 0 0 0 0 0 0 0 0 40 29 18 216 179 106 216 179 106 216 179 106 216 179 106 216 179 106 216 179 106 216 179 106 216 179 106 40 29 18 0 0 0 0 0 0 0 0 0 0 0 0 0 0 0 0 0 0 224 129 112 224 129 112 224 129 112 224 129 112 224 129 112 224 129 112 224 129 112 224 129 112 224 129 112 224 129 112 0 0 0 0 0 0 0 0 0 0 0 0 0 0 0 0 0 0 0 0 0 0 0 0 0 0 0 0 0 0 0 0 0 0 0 0 0 0 0 0 0 0 0 0 0 0 0 0 0 0 0 0 0 0 0 0 0 0 0 0 0 0 0 0 0 0 0 0 0 0 0 0 0 0 0 0 0 0 0 0 0 0 0 0 0 0 0 0 0 0 0 0 0 0 0 0 0 0 0 0 0 0 0 0 0
0 0 0 0 0 0 0 0 0 0 0 0 0 0 0 0 0 0 31 13 13 255 190 170 255 190 170 31 13 13 0 0 0 0 0 0 0 0 0 0 0 0 0 0 0 0 0 0 0 0 0 0 0 0 0 0 0 0 0 0 52 35 22 157 107 66 157 107 66 157 107 66 157 107 66 157 107 66 157 107 66 52 35 22 0 0 0 0 0 0 0 0 0 0 0 0 0 0 0 0 0 0 0 0 0 0 0 0 0 0 0 255 224 144 255 224 144 255 224 144 255 224 144 255 224 144 255 224 144 0 0 0 0 0 0 0 0 0 0 0 0 0 0 0 0 0 0 0 0 0 0 0 0 0 0 0 0 0 0 0 0 0 0 0 0 46 34 23 46 34 23 0 0 0 0 0 0 0 0 0 0 0 0 0 0 0 0 0 0 0 0 0 0 0 0 0 0 0 0 0 0 40 29 18 216 179 106 216 179 106 216 179 106 40 29 18 40 29 18 216 179 106 216 179 106 216 179 106 40 29 18 0 0 0 0 0 0 0 0 0 0 0 0 0 0 0 0 0 0 224 129 112 224 129 112 224 129 112 224 129 112 224 129 112 224 129 112 224 129 112 224 129 112 224 129 112 224 129 112 0 0 0 0 0 0 0 0 0 0 0 0 0 0 0 205 160 110 205 160 110 205 160 110 205 160 110 205 160 110 205 160 110 205 160 110 205 160 110 205 160 110 205 160 110 205 160 110 205 160 110 0 0 0 0 0 0 0 0 0 0 0 0 155 196 230 155 196 230 155 196 230 155 196 230 155 196 230 155 196 230 155 196 230 155 196 230 155 196 230 155 196 230 155 196 230 155 196 230 0 0 0 0 0 0
0 0 0 0 0 0 0 0 0 0 0 0 0 0 0 31 13 13 125 53 53 125 53 53 125 53 53 125 53 53 31 13 13 0 0 0 0 0 0 0 0 0 0 0 0 0 0 0 0 0 0 0 0 0 0 0 0 0 0 0 52 35 22 157 107 66 157 107 66 157 107 66 157 107 66 157 107 66 157 107 66 52 35 22 0 0 0 0 0 0 0 0 0 0 0 0 0 0 0 0 0 0 0 0 0 0 0 0 0 0 0 255 224 144 255 224 144 255 224 144 255 224 144 255 224 144 255 224 144 0 0 0 0 0 0 0 0 0 0 0 0 0 0 0 0 0 0 0 0 0 0 0 0 0 0 0 138 104 70 138 104 70 138 104 70 46 34 23 46 34 23 138 104 70 138 104 70 138 104 70 0 0 0 0 0 0 0 0 0 0 0 0 0 0 0 0 0 0 0 0 0 40 29 18 40 29 18 40 29 18 40 29 18 40 29 18 40 29 18 40 29 18 40 29 18 40 29 18 40 29 18 0 0 0 0 0 0 0 0 0 0 0 0 0 0 0 0 0 0 224 129 112 224 129 112 224 129 112 0 0 0 0 0 0 0 0 0 0 0 0 224 129 112 224 129 112 224 129 112 0 0 0 0 0 0 0 0 0 0 0 0 0 0 0 205 160 110 205 160 110 205 160 110 205 160 110 205 160 110 205 160 110 205 160 110 205 160 110 205 160 110 205 160 110 205 160 110 205 160 110 0 0 0 0 0 0 0 0 0 0 0 0 155 196 230 155 196 230 155 196 230 155 196 230 155 196 230 155 196 230 155 196 230 155 196 230 155 196 230 155 196 230 155 196 230 155 196 230 0 0 0 0 0 0
0 0 0 0 0 0 0 0 0 0 0 0 0 0 0 31 13 13 125 53 53 125 53 53 125 53 53 125 53 53 31 13 13 0 0 0 0 0 0 0 0 0 0 0 0 0 0 0 0 0 0 0 0 0 0 0 0 0 0 0 52 35 22 157 107 66 157 107 66 157 107 66 157 107 66 157 107 66 157 107 66 52 35 22 0 0 0 0 0 0 0 0 0 0 0 0 0 0 0 0 0 0 0 0 0 69 55 21 69 55 21 69 55 21 69 55 21 69 55 21 69 55 21 69 55 21 69 55 21 69 55 21 69 55 21 0 0 0 0 0 0 0 0 0 0 0 0 0 0 0 0 0 0 0 0 0 138 104 70 138 104 70 138 104 70 46 34 23 46 34 23 138 104 70 138 104 70 138 104 70 0 0 0 0 0 0 0 0 0 0 0 0 0 0 0 0 0 0 0 0 0 0 0 0 0 0 0 0 0 0 0 0 0 40 29 18 40 29 18 0 0 0 0 0 0 0 0 0 0 0 0 0 0 0 0 0 0 0 0 0 0 0 0 0 0 0 0 0 0 224 129 112 224 129 112 224 129 112 0 0 0 0 0 0 0 0 0 0 0 0 224 129 112 224 129 112 224 129 112 0 0 0 0 0 0 0 0 0 0 0 0 0 0 0 205 160 110 205 160 110 205 160 110 205 160 110 205 160 110 205 160 110 205 160 110 205 160 110 205 160 110 205 160 110 205 160 110 205 160 110 0 0 0 0 0 0 0 0 0 0 0 0 155 196 230 155 196 230 155 196 230 155 196 230 155 196 230 155 196 230 155 196 230 155 196 230 155 196 230 155 196 230 155 196 230 155 196 230 0 0 0 0 0 0
0 0 0 0 0 0 0 0 0 0 0 0 0 0 0 31 13 13 125 53 53 125 53 53 125 53 53 125 53 53 31 13 13 0 0 0 0 0 0 0 0 0 0 0 0 0 0 0 0 0 0 0 0 0 0 0 0 0 0 0 52 35 22 157 107 66 157 107 66 157 107 66 157 107 66 157 107 66 157 107 66 52 35 22 0 0 0 0 0 0 0 0 0 0 0 0 0 0 0 0 0 0 0 0 0 69 55 21 255 214 107 255 214 107 255 214 107 255 214 107 255 214 107 255 214 107 255 214 107 255 214 107 69 55 21 0 0 0 0 0 0 0 0 0 0 0 0 0 0 0 0 0 0 0 0 0 0 0 0 0 0 0 0 0 0 46 34 23 46 34 23 0 0 0 0 0 0 0 0 0 0 0 0 0 0 0 0 0 0 0 0 0 0 0 0 0 0 0 0 0 0 0 0 0 0 0 0 0 0 0 0 0 0 40 29 18 40 29 18 0 0 0 0 0 0 0 0 0 0 0 0 0 0 0 0 0 0 0 0 0 0 0 0 0 0 0 0 0 0 224 129 112 224 129 112 224 129 112 0 0 0 0 0 0 0 0 0 0 0 0 224 129 112 224 129 112 224 129 112 0 0 0 0 0 0 0 0 0 0 0 0 0 0 0 205 160 110 205 160 110 205 160 110 205 160 110 205 160 110 205 160 110 205 160 110 205 160 110 205 160 110 205 160 110 205 160 110 205 160 110 0 0 0 0 0 0 0 0 0 0 0 0 155 196 230 155 196 230 155 196 230 155 196 230 155 196 230 155 196 230 155 196 230 155 196 230 155 196 230 155 196 230 155 196 230 155 196 230 0 0 0 0 0 0
0 0 0 0 0 0 0 0 0 0 0 0 0 0 0 31 13 13 125 53 53 125 53 53 125 53 53 125 53 53 31 13 13 0 0 0 0 0 0 0 0 0 0 0 0 0 0 0 0 0 0 0 0 0 0 0 0 0 0 0 52 35 22 157 107 66 157 107 66 157 107 66 157 107 66 210 154 90 157 107 66 52 35 22 0 0 0 0 0 0 0 0 0 0 0 0 0 0 0 0 0 0 0 0 0 69 55 21 255 214 107 255 214 107 255 214 107 255 214 107 255 214 107 255 214 107 255 214 107 255 214 107 69 55 21 0 0 0 0 0 0 0 0 0 0 0 0 0 0 0 0 0 0 0 0 0 0 0 0 0 0 0 0 0 0 46 34 23 46 34 23 0 0 0 0 0 0 0 0 0 0 0 0 0 0 0 0 0 0 0 0 0 0 0 0 0 0 0 0 0 0 0 0 0 0 0 0 0 0 0 0 0 0 40 29 18 40 29 18 0 0 0 0 0 0 0 0 0 0 0 0 0 0 0 0 0 0 0 0 0 0 0 0 0 0 0 0 0 0 224 129 112 224 129 112 224 129 112 0 0 0 0 0 0 0 0 0 0 0 0 224 129 112 224 129 112 224 129 112 0 0 0 0 0 0 0 0 0 0 0 0 0 0 0 0 0 0 35 27 20 35 27 20 0 0 0 0 0 0 0 0 0 0 0 0 0 0 0 0 0 0 35 27 20 35 27 20 0 0 0 0 0 0 0 0 0 0 0 0 0 0 0 0 0 0 24 34 46 24 34 46 0 0 0 0 0 0 0 0 0 0 0 0 0 0 0 0 0 0 24 34 46 24 34 46 0 0 0 0 0 0 0 0 0
0 0 0 0 0 0 0 0 0 0 0 0 0 0 0 31 13 13 31 13 13 31 13 13 31 13 13 31 13 13 31 13 13 0 0 0 0 0 0 0 0 0 0 0 0 0 0 0 0 0 0 0 0 0 0 0 0 0 0 0 52 35 22 157 107 66 157 107 66 157 107 66 157 107 66 157 107 66 157 107 66 52 35 22 0 0 0 0 0 0 0 0 0 0 0 0 0 0 0 0 0 0 0 0 0 69 55 21 255 214 107 255 214 107 255 214 107 255 214 107 255 214 107 255 214 107 255 214 107 255 214 107 69 55 21 0 0 0 0 0 0 0 0 0 0 0 0 0 0 0 0 0 0 0 0 0 0 0 0 0 0 0 0 0 0 46 34 23 46 34 23 0 0 0 0 0 0 0 0 0 0 0 0 0 0 0 0 0 0 0 0 0 0 0 0 0 0 0 0 0 0 0 0 0 0 0 0 0 0 0 0 0 0 40 29 18 40 29 18 0 0 0 0 0 0 0 0 0 0 0 0 0 0 0 0 0 0 0 0 0 0 0 0 0 0 0 0 0 0 224 129 112 224 129 112 224 129 112 0 0 0 0 0 0 0 0 0 0 0 0 224 129 112 224 129 112 224 129 112 0 0 0 0 0 0 0 0 0 0 0 0 0 0 0 0 0 0 35 27 20 35 27 20 0 0 0 0 0 0 0 0 0 0 0 0 0 0 0 0 0 0 35 27 20 35 27 20 0 0 0 0 0 0 0 0 0 0 0 0 0 0 0 0 0 0 24 34 46 24 34 46 0 0 0 0 0 0 0 0 0 0 0 0 0 0 0 0 0 0 24 34 46 24 34 46 0 0 0 0 0 0 0 0 0
0 0 0 0 0 0 0 0 0 0 0 0 0 0 0 31 13 13 31 13 13 31 13 13 31 13 13 31 13 13 31 13 13 0 0 0 0 0 0 0 0 0 0 0 0 0 0 0 0 0 0 0 0 0 0 0 0 0 0 0 52 35 22 157 107 66 157 107 66 157 107 66 157 107 66 157 107 66 157 107 66 52 35 22 0 0 0 0 0 0 0 0 0 0 0 0 0 0 0 0 0 0 0 0 0 69 55 21 255 214 107 255 214 107 255 214 107 255 214 107 255 214 107 255 214 107 255 214 107 255 214 107 69 55 21 0 0 0 0 0 0 0 0 0 0 0 0 0 0 0 0 0 0 0 0 0 0 0 0 0 0 0 0 0 0 46 34 23 46 34 23 0 0 0 0 0 0 0 0 0 0 0 0 0 0 0 0 0 0 0 0 0 0 0 0 0 0 0 0 0 0 0 0 0 0 0 0 0 0 0 0 0 0 40 29 18 40 29 18 0 0 0 0 0 0 0 0 0 0 0 0 0 0 0 0 0 0 0 0 0 0 0 0 0 0 0 0 0 0 224 129 112 224 129 112 224 129 112 0 0 0 0 0 0 0 0 0 0 0 0 224 129 112 224 129 112 224 129 112 0 0 0 0 0 0 0 0 0 0 0 0 0 0 0 0 0 0 35 27 20 35 27 20 0 0 0 0 0 0 0 0 0 0 0 0 0 0 0 0 0 0 35 27 20 35 27 20 0 0 0 0 0 0 0 0 0 0 0 0 0 0 0 0 0 0 24 34 46 24 34 46 0 0 0 0 0 0 0 0 0 0 0 0 0 0 0 0 0 0 24 34 46 24 34 46 0 0 0 0 0 0 0 0 0
0 0 0 0 0 0 0 0 0 0 0 0 0 0 0 31 13 13 31 13 13 31 13 13 31 13 13 31 13 13 31 13 13 0 0 0 0 0 0 0 0 0 0 0 0 0 0 0 0 0 0 0 0 0 0 0 0 0 0 0 52 35 22 157 107 66 157 107 66 157 107 66 157 107 66 157 107 66 157 107 66 52 35 22 0 0 0 0 0 0 0 0 0 0 0 0 0 0 0 0 0 0 0 0 0 69 55 21 255 214 107 255 214 107 255 214 107 255 214 107 255 214 107 255 214 107 255 214 107 255 214 107 69 55 21 0 0 0 0 0 0 0 0 0 0 0 0 0 0 0 0 0 0 0 0 0 0 0 0 0 0 0 0 0 0 46 34 23 46 34 23 0 0 0 0 0 0 0 0 0 0 0 0 0 0 0 0 0 0 0 0 0 0 0 0 0 0 0 0 0 0 0 0 0 0 0 0 0 0 0 0 0 0 40 29 18 40 29 18 0 0 0 0 0 0 0 0 0 0 0 0 0 0 0 0 0 0 0 0 0 0 0 0 0 0 0 0 0 0 224 129 112 224 129 112 224 129 112 0 0 0 0 0 0 0 0 0 0 0 0 224 129 112 224 129 112 224 129 112 0 0 0 0 0 0 0 0 0 0 0 0 0 0 0 0 0 0 35 27 20 35 27 20 0 0 0 0 0 0 0 0 0 0 0 0 0 0 0 0 0 0 35 27 20 35 27 20 0 0 0 0 0 0 0 0 0 0 0 0 0 0 0 0 0 0 24 34 46 24 34 46 0 0 0 0 0 0 0 0 0 0 0 0 0 0 0 0 0 0 24 34 46 24 34 46 0 0 0 0 0 0 0 0 0
0 0 0 0 0 0 0 0 0 0 0 0 21 25 21 21 25 21 21 25 21 21 25 21 21 25 21 21 25 21 21 25 21 21 25 21 0 0 0 0 0 0 0 0 0 0 0 0 0 0 0 0 0 0 0 0 0 0 0 0 52 35 22 157 107 66 157 107 66 157 107 66 157 107 66 157 107 66 157 107 66 52 35 22 0 0 0 0 0 0 0 0 0 0 0 0 0 0 0 0 0 0 0 0 0 0 0 0 0 0 0 0 0 0 0 0 0 0 0 0 0 0 0 0 0 0 0 0 0 0 0 0 0 0 0 0 0 0 0 0 0 0 0 0 0 0 0 0 0 0 0 0 0 0 0 0 0 0 0 0 0 0 0 0 0 46 34 23 46 34 23 0 0 0 0 0 0 0 0 0 0 0 0 0 0 0 0 0 0 0 0 0 0 0 0 0 0 0 0 0 0 0 0 0 0 0 0 0 0 0 0 0 0 40 29 18 40 29 18 0 0 0 0 0 0 0 0 0 0 0 0 0 0 0 0 0 0 0 0 0 0 0 0 0 0 0 0 0 0 224 129 112 224 129 112 224 129 112 0 0 0 0 0 0 0 0 0 0 0 0 224 129 112 224 129 112 224 129 112 0 0 0 0 0 0 0 0 0 0 0 0 0 0 0 0 0 0 35 27 20 35 27 20 0 0 0 0 0 0 0 0 0 0 0 0 0 0 0 0 0 0 35 27 20 35 27 20 0 0 0 0 0 0 0 0 0 0 0 0 0 0 0 0 0 0 24 34 46 24 34 46 0 0 0 0 0 0 0 0 0 0 0 0 0 0 0 0 0 0 24 34 46 24 34 46 0 0 0 0 0 0 0 0 0
0 0 0 0 0 0 0 0 0 0 0 0 21 25 21 21 25 21 21 25 21 21 25 21 21 25 21 21 25 21 21 25 21 21 25 21 0 0 0 0 0 0 0 0 0 0 0 0 0 0 0 0 0 0 0 0 0 0 0 0 52 35 22 157 107 66 157 107 66 157 107 66 157 107 66 157 107 66 157 107 66 52 35 22 0 0 0 0 0 0 0 0 0 0 0 0 0 0 0 0 0 0 0 0 0 0 0 0 0 0 0 0 0 0 0 0 0 0 0 0 0 0 0 0 0 0 0 0 0 0 0 0 0 0 0 0 0 0 0 0 0 0 0 0 0 0 0 0 0 0 0 0 0 0 0 0 0 0 0 0 0 0 0 0 0 46 34 23 46 34 23 0 0 0 0 0 0 0 0 0 0 0 0 0 0 0 0 0 0 0 0 0 0 0 0 0 0 0 0 0 0 0 0 0 0 0 0 0 0 0 0 0 0 40 29 18 40 29 18 0 0 0 0 0 0 0 0 0 0 0 0 0 0 0 0 0 0 0 0 0 0 0 0 0 0 0 0 0 0 224 129 112 224 129 112 224 129 112 0 0 0 0 0 0 0 0 0 0 0 0 224 129 112 224 129 112 224 129 112 0 0 0 0 0 0 0 0 0 0 0 0 0 0 0 0 0 0 35 27 20 35 27 20 0 0 0 0 0 0 0 0 0 0 0 0 0 0 0 0 0 0 35 27 20 35 27 20 0 0 0 0 0 0 0 0 0 0 0 0 0 0 0 0 0 0 24 34 46 24 34 46 0 0 0 0 0 0 0 0 0 0 0 0 0 0 0 0 0 0 24 34 46 24 34 46 0 0 0 0 0 0 0 0 0
0 0 0 0 0 0 0 0 0 0 0 0 0 0 0 0 0 0 0 0 0 0 0 0 0 0 0 0 0 0 0 0 0 0 0 0 0 0 0 0 0 0 0 0 0 0 0 0 0 0 0 0 0 0 0 0 0 0 0 0 0 0 0 0 0 0 0 0 0 0 0 0 0 0 0 0 0 0 0 0 0 0 0 0 0 0 0 0 0 0 0 0 0 0 0 0 0 0 0 0 0 0 0 0 0 0 0 0 0 0 0 0 0 0 0 0 0 0 0 0 0 0 0 0 0 0 0 0 0 0 0 0 0 0 0 0 0 0 0 0 0 0 0 0 0 0 0 0 0 0 0 0 0 0 0 0 0 0 0 0 0 0 0 0 0 0 0 0 0 0 0 0 0 0 0 0 0 0 0 0 0 0 0 0 0 0 0 0 0 0 0 0 0 0 0 0 0 0 0 0 0 0 0 0 0 0 0 0 0 0 0 0 0 0 0 0 0 0 0 0 0 0 0 0 0 0 0 0 0 0 0 0 0 0 0 0 0 0 0 0 0 0 0 0 0 0 0 0 0 0 0 0 0 0 0 0 0 0 0 0 0 0 0 0 0 0 0 0 0 0 0 0 0 0 0 0 0 0 0 0 0 0 0 0 0 0 0 0 0 0 0 0 0 0 0 0 0 0 0 0 0 0 0 0 0 0 0 0 0 0 0 0 0 0 0 0 0 0 0 0 0 0 0 0 0 0 0 0 0 0 0 0 0 0 0 0 0 0 0 0 0 0 0 0 0 0 0 0 0 0 0 0 0 0 0 0 0 0 0 0 0 0 0 0 0 0 0 0 0 0 0 0 0 0 0 0 0 0 0 0 0 0 0 0
0 0 0 0 0 0 0 0 0 0 0 0 0 0 0 0 0 0 0 0 0 0 0 0 0 0 0 0 0 0 0 0 0 0 0 0 0 0 0 0 0 0 0 0 0 0 0 0 0 0 0 0 0 0 0 0 0 0 0 0 0 0 0 0 0 0 0 0 0 0 0 0 0 0 0 0 0 0 0 0 0 0 0 0 0 0 0 0 0 0 0 0 0 0 0 0 0 0 0 0 0 0 0 0 0 0 0 0 0 0 0 0 0 0 0 0 0 0 0 0 0 0 0 0 0 0 0 0 0 0 0 0 0 0 0 0 0 0 0 0 0 0 0 0 0 0 0 0 0 0 0 0 0 0 0 0 0 0 0 0 0 0 0 0 0 0 0 0 0 0 0 0 0 0 0 0 0 0 0 0 0 0 0 0 0 0 0 0 0 0 0 0 0 0 0 0 0 0 0 0 0 0 0 0 0 0 0 0 0 0 0 0 0 0 0 0 0 0 0 0 0 0 0 0 0 0 0 0 0 0 0 0 0 0 0 0 0 0 0 0 0 0 0 0 0 0 0 0 0 0 0 0 0 0 0 0 0 0 0 0 0 0 0 0 0 0 0 0 0 0 0 0 0 0 0 0 0 0 0 0 0 0 0 0 0 0 0 0 0 0 0 0 0 0 0 0 0 0 0 0 0 0 0 0 0 0 0 0 0 0 0 0 0 0 0 0 0 0 0 0 0 0 0 0 0 0 0 0 0 0 0 0 0 0 0 0 0 0 0 0 0 0 0 0 0 0 0 0 0 0 0 0 0 0 0 0 0 0 0 0 0 0 0 0 0 0 0 0 0 0 0 0 0 0 0 0 0 0 0 0 0 0 0 0
0 0 0 0 0 0 0 0 0 0 0 0 0 0 0 0 0 0 0 0 0 0 0 0 0 0 0 0 0 0 0 0 0 0 0 0 0 0 0 0 0 0 0 0 0 0 0 0 0 0 0 0 0 0 0 0 0 0 0 0 0 0 0 0 0 0 0 0 0 0 0 0 104 166 216 0 0 0 0 0 0 0 0 0 0 0 0 0 0 0 0 0 0 0 0 0 0 0 0 0 0 0 0 0 0 0 0 0 0 0 0 0 0 0 0 0 0 0 0 0 183 217 104 0 0 0 0 0 0 0 0 0 0 0 0 0 0 0 0 0 0 0 0 0 0 0 0 0 0 0 0 0 0 0 0 0 0 0 0 0 0 0 0 0 0 0 0 0 0 0 0 0 0 0 0 0 0 0 0 0 0 0 0 0 0 0 0 0 0 0 0 0 0 0 0 0 0 0 0 0 0 0 0 0 0 0 0 0 0 0 0 0 0 0 0 0 0 0 0 0 0 0 0 0 0 0 0 0 0 0 0 0 0 0 0 0 0 0 0 0 0 0 0 0 0 0 0 0 0 0 0 0 0 0 0 0 0 0 0 0 0 0 0 0 0 0 0 0 0 0 0 0 0 0 0 0 0 0 0 0 0 0 0 0 0 0 0 0 0 0 0 0 0 0 0 0 0 0 0 0 0 0 0 0 0 0 0 0 0 0 0 0 0 0 0 0 0 0 0 0 0 0 0 0 0 0 0 0 0 0 0 0 0 0 0 0 0 0 0 0 0 0 0 0 0 0 0 0 0 0 0 0 0 0 0 0 0 0 0 0 0 0 0 0 0 0 0 0 0 0 0 0 0 0 0 0 0 0 0 0 0 0 0 0
0 0 0 0 0 0 0 0 0 0 0 0 47 21 26 0 0 0 0 0 0 0 0 0 0 0 0 0 0 0 0 0 0 0 0 0 0 0 0 0 0 0 0 0 0 0 0 0 0 0 0 0 0 0 0 0 0 0 0 0 0 0 0 0 0 0 0 0 0 104 166 216 157 213 255 104 166 216 0 0 0 0 0 0 0 0 0 0 0 0 0 0 0 0 0 0 0 0 0 0 0 0 0 0 0 0 0 0 0 0 0 0 0 0 0 0 0 183 217 104 240 255 157 183 217 104 0 0 0 0 0 0 0 0 0 0 0 0 0 0 0 0 0 0 0 0 0 0 0 0 0 0 0 0 0 0 0 0 0 0 0 0 0 0 0 0 0 0 0 0 0 0 0 0 0 0 0 0 0 0 0 0 0 0 0 0 0 0 0 0 0 0 0 0 0 0 0 0 0 0 0 0 0 0 0 0 0 0 0 0 0 0 0 0 0 0 0 0 0 0 0 0 0 0 0 0 0 0 0 0 0 0 0 0 0 0 0 0 0 0 0 0 0 0 0 0 0 0 0 0 0 0 0 0 0 0 0 0 0 0 0 0 0 0 0 0 0 0 0 0 0 0 0 0 0 0 0 0 0 0 0 0 0 0 0 0 0 0 0 0 0 0 0 0 0 0 0 0 0 0 0 0 0 0 0 0 0 0 0 0 0 0 0 0 0 0 0 0 0 0 0 0 0 0 0 0 0 0 0 0 0 0 0 0 0 0 0 0 0 0 0 0 0 0 0 0 0 0 0 0 0 0 0 0 0 0 0 0 0 0 0 0 0 0 0 0 0 0 0 0 0 0 0 0 0 0 0 0 0 0 0 0 0 0
0 0 0 0 0 0 0 0 0 0 0 0 47 21 26 228 123 138 228 123 138 228 123 138 228 123 138 228 123 138 228 123 138 228 123 138 228 123 138 0 0 0 0 0 0 0 0 0 0 0 0 0 0 0 0 0 0 0 0 0 0 0 0 0 0 0 104 166 216 157 213 255 157 213 255 157 213 255 104 166 216 0 0 0 0 0 0 0 0 0 0 0 0 0 0 0 0 0 0 0 0 0 0 0 0 0 0 0 0 0 0 0 0 0 183 217 104 240 255 157 240 255 157 240 255 157 183 217 104 0 0 0 0 0 0 0 0 0 0 0 0 0 0 0 0 0 0 0 0 0 0 0 0 0 0 0 0 0 0 0 0 0 0 0 0 0 0 0 0 0 0 0 0 0 0 0 0 0 0 0 0 0 0 0 0 0 0 0 0 0 0 0 0 0 0 0 0 0 0 0 0 0 0 0 0 0 0 0 0 0 0 0 0 0 0 0 0 0 0 0 0 0 0 0 0 0 0 0 0 0 0 0 0 0 0 0 0 0 0 0 0 0 0 0 0 0 0 0 0 0 0 0 0 0 0 0 0 0 0 0 0 0 0 0 0 0 0 0 0 0 0 0 0 0 0 0 0 0 0 0 0 0 0 0 0 0 0 0 0 0 0 0 0 0 0 0 0 0 0 0 0 0 0 0 0 0 0 0 0 0 0 0 0 0 0 0 0 0 0 0 0 0 0 0 0 0 0 0 0 0 0 0 0 0 0 0 0 0 0 0 0 0 0 0 0 0 0 0 0 0 0 0 0 0 0 0 0 0 0 0 0 0 0 0 0 0 0 0 0 0 0 0 0 0 0 0 0 0 0 0 0 0 0 0
0 0 0 0 0 0 0 0 0 0 0 0 47 21 26 228 123 138 228 123 138 228 123 138 228 123 138 228 123 138 228 123 138 228 123 138 228 123 138 0 0 0 0 0 0 0 0 0 0 0 0 0 0 0 0 0 0 0 0 0 0 0 0 104 166 216 157 213 255 157 213 255 157 213 255 157 213 255 157 213 255 104 166 216 0 0 0 0 0 0 0 0 0 0 0 0 0 0 0 0 0 0 0 0 0 0 0 0 0 0 0 183 217 104 240 255 157 240 255 157 240 255 157 240 255 157 240 255 157 183 217 104 0 0 0 0 0 0 0 0 0 0 0 0 0 0 0 0 0 0 0 0 0 0 0 0 0 0 0 0 0 0 0 0 0 0 0 0 0 0 0 0 0 0 0 0 0 0 0 0 0 0 0 0 0 0 0 0 0 0 0 0 0 0 0 0 0 0 0 0 0 0 0 0 0 0 0 0 0 0 0 0 0 0 0 0 0 0 0 0 0 0 0 0 0 0 0 0 0 0 0 0 0 0 0 0 0 0 0 0 0 0 0 0 0 0 0 0 0 0 0 0 0 0 0 0 0 0 0 0 0 0 0 0 0 0 0 0 0 0 0 0 0 0 0 0 0 0 0 0 0 0 0 0 0 0 0 0 0 0 0 0 0 0 0 0 0 0 0 0 0 0 0 0 0 0 0 0 0 0 0 0 0 0 0 0 0 0 0 0 0 0 0 0 0 0 0 0 0 0 0 0 0 0 0 0 0 0 0 0 0 0 0 0 0 0 0 0 0 0 0 0 0 0 0 0 0 0 0 0 0 0 0 0 0 0 0 0 0 0 0 0 0 0 0 0 0 0 0 0 0 0 0 0
0 0 0 0 0 0 0 0 0 0 0 0 47 21 26 228 123 138 228 123 138 228 123 138 228 123 138 228 123 138 228 123 138 228 123 138 228 123 138 0 0 0 0 0 0 0 0 0 0 0 0 0 0 0 0 0 0 0 0 0 104 166 216 157 213 255 157 213 255 157 213 255 157 213 255 157 213 255 157 213 255 157 213 255 104 166 216 0 0 0 0 0 0 0 0 0 0 0 0 0 0 0 0 0 0 0 0 0 183 217 104 240 255 157 240 255 157 240 255 157 240 255 157 240 255 157 240 255 157 240 255 157 183 217 104 0 0 0 0 0 0 0 0 0 0 0 0 0 0 0 0 0 0 0 0 0 0 0 0 0 0 0 0 0 0 0 0 0 0 0 0 0 0 0 0 0 0 0 0 0 0 0 0 0 0 0 0 0 0 0 0 0 0 0 0 0 0 0 0 0 0 0 0 0 0 0 0 0 0 0 0 0 0 0 0 0 0 0 0 0 0 0 0 0 0 0 0 0 0 0 0 0 0 0 0 0 0 0 0 0 0 0 0 0 0 0 0 0 0 0 0 0 0 0 0 0 0 0 0 0 0 0 0 0 0 0 0 0 0 0 0 0 0 0 0 0 0 0 0 0 0 0 0 0 0 0 0 0 0 0 0 0 0 0 0 0 0 0 0 0 0 0 0 0 0 0 0 0 0 0 0 0 0 0 0 0 0 0 0 0 0 0 0 0 0 0 0 0 0 0 0 0 0 0 0 0 0 0 0 0 0 0 0 0 0 0 0 0 0 0 0 0 0 0 0 0 0 0 0 0 0 0 0 0 0 0 0 0 0 0 0 0 0 0 0 0 0 0 0 0 0 0 0 0
0 0 0 0 0 0 0 0 0 0 0 0 47 21 26 228 123 138 228 123 138 228 123 138 228 123 138 228 123 138 228 123 138 228 123 138 228 123 138 0 0 0 0 0 0 0 0 0 0 0 0 0 0 0 0 0 0 104 166 216 157 213 255 157 213 255 157 213 255 157 213 255 181 223 255 157 213 255 157 213 255 157 213 255 157 213 255 104 166 216 0 0 0 0 0 0 0 0 0 0 0 0 0 0 0 183 217 104 240 255 157 240 255 157 240 255 157 240 255 157 243 255 181 240 255 157 240 255 157 240 255 157 240 255 157 183 217 104 0 0 0 0 0 0 0 0 0 0 0 0 0 0 0 0 0 0 0 0 0 0 0 0 0 0 0 0 0 0 0 0 0 0 0 0 0 0 0 0 0 0 0 0 0 0 0 0 0 0 0 0 0 0 0 0 0 0 0 0 0 0 0 0 0 0 0 0 0 0 0 0 0 0 0 0 0 0 0 0 0 0 0 0 0 0 0 0 0 0 0 0 0 0 0 0 0 0 0 0 0 0 0 0 0 0 0 0 0 0 0 0 0 0 0 0 0 0 0 0 0 0 0 0 0 0 0 0 0 0 0 0 0 0 0 0 0 0 0 0 0 0 0 0 0 0 0 0 0 0 0 0 0 0 0 0 0 0 0 0 0 0 0 0 0 0 0 0 0 0 0 0 0 0 0 0 0 0 0 0 0 0 0 0 0 0 0 0 0 0 0 0 0 0 0 0 0 0 0 0 0 0 0 0 0 0 0 0 0 0 0 0 0 0 0 0 0 0 0 0 0 0 0 0 0 0 0 0 0 0 0 0 0 0 0 0 0 0 0 0 0 0 0 0 0 0
0 0 0 0 0 0 0 0 0 0 0 0 47 21 26 228 123 138 228 123 138 228 123 138 228 123 138 228 123 138 228 123 138 228 123 138 228 123 138 0 0 0 0 0 0 0 0 0 0 0 0 0 0 0 104 166 216 157 213 255 157 213 255 157 213 255 157 213 255 181 223 255 181 223 255 181 223 255 157 213 255 157 213 255 157 213 255 157 213 255 104 166 216 0 0 0 0 0 0 0 0 0 183 217 104 240 255 157 240 255 157 240 255 157 240 255 157 243 255 181 243 255 181 243 255 181 240 255 157 240 255 157 240 255 157 240 255 157 183 217 104 0 0 0 0 0 0 0 0 0 0 0 0 0 0 0 0 0 0 0 0 0 0 0 0 0 0 0 0 0 0 0 0 0 0 0 0 0 0 0 0 0 0 0 0 0 0 0 0 0 0 0 0 0 0 0 0 0 0 0 0 0 0 0 0 0 0 0 0 0 0 0 0 0 0 0 0 0 0 0 0 0 0 0 0 0 0 0 0 0 0 0 0 0 0 0 0 0 0 0 0 0 0 0 0 0 0 0 0 0 0 0 0 0 0 0 0 0 0 0 0 0 0 0 0 0 0 0 0 0 0 0 0 0 0 0 0 0 0 0 0 0 0 0 0 0 0 0 0 0 0 0 0 0 0 0 0 0 0 0 0 0 0 0 0 0 0 0 0 0 0 0 0 0 0 0 0 0 0 0 0 0 0 0 0 0 0 0 0 0 0 0 0 0 0 0 0 0 0 0 0 0 0 0 0 0 0 0 0 0 0 0 0 0 0 0 0 0 0 0 0 0 0 0 0 0 0 0 0 0 0 0 0 0 0 0 0 0 0 0 0 0 0 0
0 0 0 0 0 0 0 0 0 0 0 0 47 21 26 228 123 138 228 123 138 228 123 138 228 123 138 228 123 138 228 123 138 228 123 138 228 123 138 0 0 0 0 0 0 0 0 0 0 0 0 104 166 216 157 213 255 157 213 255 157 213 255 157 213 255 181 223 255 181 223 255 181 223 255 181 223 255 181 223 255 157 213 255 157 213 255 157 213 255 157 213 255 104 166 216 0 0 0 183 217 104 240 255 157 240 255 157 240 255 157 240 255 157 243 255 181 243 255 181 243 255 181 243 255 181 243 255 181 240 255 157 240 255 157 240 255 157 240 255 157 183 217 104 0 0 0 0 0 0 0 0 0 0 0 0 0 0 0 0 0 0 0 0 0 0 0 0 0 0 0 0 0 0 0 0 0 0 0 0 0 0 0 0 0 0 0 0 0 0 0 0 0 0 0 0 0 0 0 0 0 0 0 0 0 0 0 0 0 0 0 0 0 0 0 0 0 0 0 0 0 0 0 0 0 0 0 0 0 0 0 0 0 0 0 0 0 0 0 0 0 0 0 0 0 0 0 0 0 0 0 0 0 0 0 0 0 0 0 0 0 0 0 0 0 0 0 0 0 0 0 0 0 0 0 0 0 0 0 0 0 0 0 0 0 0 0 0 0 0 0 0 0 0 0 0 0 0 0 0 0 0 0 0 0 0 0 0 0 0 0 0 0 0 0 0 0 0 0 0 0 0 0 0 0 0 0 0 0 0 0 0 0 0 0 0 0 0 0 0 0 0 0 0 0 0 0 0 0 0 0 0 0 0 0 0 0 0 0 0 0 0 0 0 0 0 0 0 0 0 0 0 0 0 0 0 0 0 0 0 0 0 0 0
0 0 0 0 0 0 0 0 0 0 0 0 47 21 26 0 0 0 0 0 0 0 0 0 0 0 0 0 0 0 0 0 0 0 0 0 0 0 0 0 0 0 0 0 0 0 0 0 0 0 0 0 0 0 104 166 216 157 213 255 157 213 255 157 213 255 157 213 255 181 223 255 181 223 255 181 223 255 157 213 255 157 213 255 157 213 255 157 213 255 104 166 216 0 0 0 0 0 0 0 0 0 183 217 104 240 255 157 240 255 157 240 255 157 240 255 157 243 255 181 243 255 181 243 255 181 240 255 157 240 255 157 240 255 157 240 255 157 183 217 104 0 0 0 0 0 0 0 0 0 0 0 0 0 0 0 0 0 0 0 0 0 0 0 0 0 0 0 0 0 0 0 0 0 0 0 0 0 0 0 0 0 0 0 0 0 0 0 0 0 0 0 0 0 0 0 0 0 0 0 0 0 0 0 0 0 0 0 0 0 0 0 0 0 0 0 0 0 0 0 0 0 0 0 0 0 0 0 0 0 0 0 0 0 0 0 0 0 0 0 0 0 0 0 0 0 0 0 0 0 0 0 0 0 0 0 0 0 0 0 0 0 0 0 0 0 0 0 0 0 0 0 0 0 0 0 0 0 0 0 0 0 0 0 0 0 0 0 0 0 0 0 0 0 0 0 0 0 0 0 0 0 0 0 0 0 0 0 0 0 0 0 0 0 0 0 0 0 0 0 0 0 0 0 0 0 0 0 0 0 0 0 0 0 0 0 0 0 0 0 0 0 0 0 0 0 0 0 0 0 0 0 0 0 0 0 0 0 0 0 0 0 0 0 0 0 0 0 0 0 0 0 0 0 0 0 0 0 0 0 0 0 0 0
0 0 0 0 0 0 0 0 0 0 0 0 47 21 26 0 0 0 0 0 0 0 0 0 0 0 0 0 0 0 0 0 0 0 0 0 0 0 0 0 0 0 0 0 0 0 0 0 0 0 0 0 0 0 0 0 0 104 166 216 157 213 255 157 213 255 157 213 255 157 213 255 181 223 255 157 213 255 157 213 255 157 213 255 157 213 255 104 166 216 0 0 0 0 0 0 0 0 0 0 0 0 0 0 0 183 217 104 240 255 157 240 255 157 240 255 157 240 255 157 243 255 181 240 255 157 240 255 157 240 255 157 240 255 157 183 217 104 0 0 0 0 0 0 0 0 0 0 0 0 0 0 0 0 0 0 0 0 0 0 0 0 0 0 0 0 0 0 0 0 0 0 0 0 0 0 0 0 0 0 0 0 0 0 0 0 0 0 0 0 0 0 0 0 0 0 0 0 0 0 0 0 0 0 0 0 0 0 0 0 0 0 0 0 0 0 0 0 0 0 0 0 0 0 0 0 0 0 0 0 0 0 0 0 0 0 0 0 0 0 0 0 0 0 0 0 0 0 0 0 0 0 0 0 0 0 0 0 0 0 0 0 0 0 0 0 0 0 0 0 0 0 0 0 0 0 0 0 0 0 0 0 0 0 0 0 0 0 0 0 0 0 0 0 0 0 0 0 0 0 0 0 0 0 0 0 0 0 0 0 0 0 0 0 0 0 0 0 0 0 0 0 0 0 0 0 0 0 0 0 0 0 0 0 0 0 0 0 0 0 0 0 0 0 0 0 0 0 0 0 0 0 0 0 0 0 0 0 0 0 0 0 0 0 0 0 0 0 0 0 0 0 0 0 0 0 0 0 0 0 0 0 0 0
0 0 0 0 0 0 0 0 0 0 0 0 47 21 26 0 0 0 0 0 0 0 0 0 0 0 0 0 0 0 0 0 0 0 0 0 0 0 0 0 0 0 0 0 0 0 0 0 0 0 0 0 0 0 0 0 0 0 0 0 104 166 216 157 213 255 157 213 255 157 213 255 157 213 255 157 213 255 157 213 255 157 213 255 104 166 216 0 0 0 0 0 0 0 0 0 0 0 0 0 0 0 0 0 0 0 0 0 183 217 104 240 255 157 240 255 157 240 255 157 240 255 157 240 255 157 240 255 157 240 255 157 183 217 104 0 0 0 0 0 0 0 0 0 0 0 0 0 0 0 0 0 0 0 0 0 0 0 0 0 0 0 0 0 0 0 0 0 0 0 0 0 0 0 0 0 0 0 0 0 0 0 0 0 0 0 0 0 0 0 0 0 0 0 0 0 0 0 0 0 0 0 0 0 0 0 0 0 0 0 0 0 0 0 0 0 0 0 0 0 0 0 0 0 0 0 0 0 0 0 0 0 0 0 0 0 0 0 0 0 0 0 0 0 0 0 0 0 0 0 0 0 0 0 0 0 0 0 0 0 0 0 0 0 0 0 0 0 0 0 0 0 0 0 0 0 0 0 0 0 0 0 0 0 0 0 0 0 0 0 0 0 0 0 0 0 0 0 0 0 0 0 0 0 0 0 0 0 0 0 0 0 0 0 0 0 0 0 0 0 0 0 0 0 0 0 0 0 0 0 0 0 0 0 0 0 0 0 0 0 0 0 0 0 0 0 0 0 0 0 0 0 0 0 0 0 0 0 0 0 0 0 0 0 0 0 0 0 0 0 0 0 0 0 0 0 0 0 0 0 0 0 0 0
0 0 0 0 0 0 0 0 0 0 0 0 47 21 26 0 0 0 0 0 0 0 0 0 0 0 0 0 0 0 0 0 0 0 0 0 0 0 0 0 0 0 0 0 0 0 0 0 0 0 0 0 0 0 0 0 0 0 0 0 0 0 0 104 166 216 157 213 255 157 213 255 157 213 255 157 213 255 157 213 255 104 166 216 0 0 0 0 0 0 0 0 0 0 0 0 0 0 0 0 0 0 0 0 0 0 0 0 0 0 0 183 217 104 240 255 157 240 255 157 240 255 157 240 255 157 240 255 157 183 217 104 0 0 0 0 0 0 0 0 0 0 0 0 0 0 0 0 0 0 0 0 0 0 0 0 0 0 0 0 0 0 0 0 0 0 0 0 0 0 0 0 0 0 0 0 0 0 0 0 0 0 0 0 0 0 0 0 0 0 0 0 0 0 0 0 0 0 0 0 0 0 0 0 0 0 0 0 0 0 0 0 0 0 0 0 0 0 0 0 0 0 0 0 0 0 0 0 0 0 0 0 0 0 0 0 0 0 0 0 0 0 0 0 0 0 0 0 0 0 0 0 0 0 0 0 0 0 0 0 0 0 0 0 0 0 0 0 0 0 0 0 0 0 0 0 0 0 0 0 0 0 0 0 0 0 0 0 0 0 0 0 0 0 0 0 0 0 0 0 0 0 0 0 0 0 0 0 0 0 0 0 0 0 0 0 0 0 0 0 0 0 0 0 0 0 0 0 0 0 0 0 0 0 0 0 0 0 0 0 0 0 0 0 0 0 0 0 0 0 0 0 0 0 0 0 0 0 0 0 0 0 0 0 0 0 0 0 0 0 0 0 0 0 0 0 0 0 0 0 0 0 0 0
0 0 0 0 0 0 0 0 0 0 0 0 47 21 26 0 0 0 0 0 0 0 0 0 0 0 0 0 0 0 0 0 0 0 0 0 0 0 0 0 0 0 0 0 0 0 0 0 0 0 0 0 0 0 0 0 0 0 0 0 0 0 0 0 0 0 104 166 216 157 213 255 157 213 255 157 213 255 104 166 216 0 0 0 0 0 0 0 0 0 0 0 0 0 0 0 0 0 0 0 0 0 0 0 0 0 0 0 0 0 0 0 0 0 183 217 104 240 255 157 240 255 157 240 255 157 183 217 104 0 0 0 0 0 0 0 0 0 0 0 0 0 0 0 0 0 0 0 0 0 0 0 0 0 0 0 0 0 0 0 0 0 0 0 0 0 0 0 0 0 0 0 0 0 0 0 0 0 0 0 0 0 0 0 0 0 0 0 0 0 0 0 0 0 0 0 0 0 0 0 0 0 0 0 0 0 0 0 0 0 0 0 0 0 0 0 0 0 0 0 0 0 0 0 0 0 0 0 0 0 0 0 0 0 0 0 0 0 0 0 0 0 0 0 0 0 0 0 0 0 0 0 0 0 0 0 0 0 0 0 0 0 0 0 0 0 0 0 0 0 0 0 0 0 0 0 0 0 0 0 0 0 0 0 0 0 0 0 0 0 0 0 0 0 0 0 0 0 0 0 0 0 0 0 0 0 0 0 0 0 0 0 0 0 0 0 0 0 0 0 0 0 0 0 0 0 0 0 0 0 0 0 0 0 0 0 0 0 0 0 0 0 0 0 0 0 0 0 0 0 0 0 0 0 0 0 0 0 0 0 0 0 0 0 0 0 0 0 0 0 0 0 0 0 0 0 0 0 0 0 0 0 0 0
0 0 0 0 0 0 0 0 0 0 0 0 47 21 26 0 0 0 0 0 0 0 0 0 0 0 0 0 0 0 0 0 0 0 0 0 0 0 0 0 0 0 0 0 0 0 0 0 0 0 0 0 0 0 0 0 0 0 0 0 0 0 0 0 0 0 0 0 0 104 166 216 157 213 255 104 166 216 0 0 0 0 0 0 0 0 0 0 0 0 0 0 0 0 0 0 0 0 0 0 0 0 0 0 0 0 0 0 0 0 0 0 0 0 0 0 0 183 217 104 240 255 157 183 217 104 0 0 0 0 0 0 0 0 0 0 0 0 0 0 0 0 0 0 0 0 0 0 0 0 0 0 0 0 0 0 0 0 0 0 0 0 0 0 0 0 0 0 0 0 0 0 0 0 0 0 0 0 0 0 0 0 0 0 0 0 0 0 0 0 0 0 0 0 0 0 0 0 0 0 0 0 0 0 0 0 0 0 0 0 0 0 0 0 0 0 0 0 0 0 0 0 0 0 0 0 0 0 0 0 0 0 0 0 0 0 0 0 0 0 0 0 0 0 0 0 0 0 0 0 0 0 0 0 0 0 0 0 0 0 0 0 0 0 0 0 0 0 0 0 0 0 0 0 0 0 0 0 0 0 0 0 0 0 0 0 0 0 0 0 0 0 0 0 0 0 0 0 0 0 0 0 0 0 0 0 0 0 0 0 0 0 0 0 0 0 0 0 0 0 0 0 0 0 0 0 0 0 0 0 0 0 0 0 0 0 0 0 0 0 0 0 0 0 0 0 0 0 0 0 0 0 0 0 0 0 0 0 0 0 0 0 0 0 0 0 0 0 0 0 0 0 0 0 0 0 0 0 0 0 0 0 0 0
0 0 0 0 0 0 0 0 0 0 0 0 0 0 0 0 0 0 0 0 0 0 0 0 0 0 0 0 0 0 0 0 0 0 0 0 0 0 0 0 0 0 0 0 0 0 0 0 0 0 0 0 0 0 0 0 0 0 0 0 0 0 0 0 0 0 0 0 0 0 0 0 104 166 216 0 0 0 0 0 0 0 0 0 0 0 0 0 0 0 0 0 0 0 0 0 0 0 0 0 0 0 0 0 0 0 0 0 0 0 0 0 0 0 0 0 0 0 0 0 183 217 104 0 0 0 0 0 0 0 0 0 0 0 0 0 0 0 0 0 0 0 0 0 0 0 0 0 0 0 0 0 0 0 0 0 0 0 0 0 0 0 0 0 0 0 0 0 0 0 0 0 0 0 0 0 0 0 0 0 0 0 0 0 0 0 0 0 0 0 0 0 0 0 0 0 0 0 0 0 0 0 0 0 0 0 0 0 0 0 0 0 0 0 0 0 0 0 0 0 0 0 0 0 0 0 0 0 0 0 0 0 0 0 0 0 0 0 0 0 0 0 0 0 0 0 0 0 0 0 0 0 0 0 0 0 0 0 0 0 0 0 0 0 0 0 0 0 0 0 0 0 0 0 0 0 0 0 0 0 0 0 0 0 0 0 0 0 0 0 0 0 0 0 0 0 0 0 0 0 0 0 0 0 0 0 0 0 0 0 0 0 0 0 0 0 0 0 0 0 0 0 0 0 0 0 0 0 0 0 0 0 0 0 0 0 0 0 0 0 0 0 0 0 0 0 0 0 0 0 0 0 0 0 0 0 0 0 0 0 0 0 0 0 0 0 0 0 0 0 0 0 0 0 0 0 0 0 0 0 0 0 0 0
