P3
16 16
255
0 0 0 0 0 0 0 0 0 0 0 0 0 0 0 0 0 0 0 0 0 0 0 0 0 0 0 0 0 0 0 0 0 0 0 0 0 0 0 0 0 0 0 0 0 0 0 0
0 0 0 0 0 0 0 0 0 0 0 0 0 0 0 17 23 17 17 23 17 17 23 17 17 23 17 17 23 17 17 23 17 0 0 0 0 0 0 0 0 0 0 0 0 0 0 0
0 0 0 0 0 0 0 0 0 0 0 0 0 0 0 17 23 17 216 240 160 216 240 160 216 240 160 216 240 160 17 23 17 0 0 0 0 0 0 0 0 0 0 0 0 0 0 0
0 0 0 0 0 0 0 0 0 0 0 0 0 0 0 17 23 17 216 240 160 255 240 168 255 240 168 216 240 160 17 23 17 0 0 0 0 0 0 0 0 0 0 0 0 0 0 0
0 0 0 0 0 0 0 0 0 0 0 0 17 23 17 17 23 17 216 240 160 216 240 160 216 240 160 216 240 160 17 23 17 17 23 17 0 0 0 0 0 0 0 0 0 0 0 0
0 0 0 0 0 0 0 0 0 0 0 0 17 23 17 63 155 88 63 155 88 63 155 88 63 155 88 63 155 88 63 155 88 17 23 17 0 0 0 0 0 0 0 0 0 0 0 0
0 0 0 0 0 0 0 0 0 0 0 0 17 23 17 63 155 88 216 240 160 216 240 160 216 240 160 216 240 160 63 155 88 17 23 17 0 0 0 0 0 0 0 0 0 0 0 0
0 0 0 0 0 0 0 0 0 0 0 0 255 240 168 255 240 168 63 155 88 63 155 88 63 155 88 63 155 88 255 240 168 255 240 168 0 0 0 0 0 0 0 0 0 0 0 0
0 0 0 0 0 0 0 0 0 0 0 0 255 240 168 255 240 168 63 155 88 63 155 88 63 155 88 63 155 88 255 240 168 255 240 168 0 0 0 0 0 0 0 0 0 0 0 0
0 0 0 0 0 0 0 0 0 0 0 0 255 240 168 255 240 168 63 155 88 63 155 88 63 155 88 63 155 88 255 240 168 255 240 168 0 0 0 0 0 0 0 0 0 0 0 0
0 0 0 0 0 0 0 0 0 0 0 0 255 240 168 255 240 168 63 155 88 63 155 88 63 155 88 63 155 88 255 240 168 255 240 168 0 0 0 0 0 0 0 0 0 0 0 0
0 0 0 0 0 0 0 0 0 0 0 0 17 23 17 38 56 46 38 56 46 17 23 17 17 23 17 38 56 46 38 56 46 17 23 17 0 0 0 0 0 0 0 0 0 0 0 0
0 0 0 0 0 0 0 0 0 242 220 115 242 220 115 242 220 115 38 56 46 0 0 0 0 0 0 38 56 46 38 56 46 0 0 0 0 0 0 0 0 0 0 0 0 0 0 0
0 0 0 0 0 0 0 0 0 242 220 115 242 220 115 242 220 115 38 56 46 0 0 0 0 0 0 38 56 46 38 56 46 0 0 0 0 0 0 0 0 0 0 0 0 0 0 0
0 0 0 0 0 0 0 0 0 0 0 0 0 0 0 38 56 46 38 56 46 0 0 0 0 0 0 38 56 46 38 56 46 0 0 0 0 0 0 0 0 0 0 0 0 0 0 0
0 0 0 0 0 0 0 0 0 8 11 9 8 11 9 8 11 9 8 11 9 8 11 9 8 11 9 8 11 9 8 11 9 8 11 9 8 11 9 0 0 0 0 0 0 0 0 0
