P3
16 16
255
0 0 0 0 0 0 0 0 0 0 0 0 0 0 0 0 0 0 0 0 0 0 0 0 0 0 0 0 0 0 0 0 0 0 0 0 0 0 0 0 0 0 0 0 0 0 0 0
0 0 0 0 0 0 0 0 0 0 0 0 0 0 0 0 0 0 0 0 0 0 0 0 0 0 0 0 0 0 0 0 0 0 0 0 0 0 0 0 0 0 0 0 0 0 0 0
0 0 0 0 0 0 255 177 153 255 177 153 255 177 153 255 177 153 17 23 17 17 23 17 17 23 17 17 23 17 17 23 17 17 23 17 0 0 0 0 0 0 0 0 0 0 0 0
0 0 0 0 0 0 255 177 153 255 177 153 255 177 153 255 177 153 255 140 115 255 140 115 255 140 115 255 140 115 255 140 115 17 23 17 0 0 0 0 0 0 0 0 0 0 0 0
0 0 0 0 0 0 0 0 0 0 0 0 17 23 17 255 140 115 255 240 168 255 140 115 255 140 115 255 240 168 255 140 115 17 23 17 0 0 0 0 0 0 0 0 0 0 0 0
0 0 0 0 0 0 0 0 0 0 0 0 17 23 17 255 140 115 255 140 115 255 140 115 255 140 115 255 140 115 255 140 115 17 23 17 0 0 0 0 0 0 0 0 0 0 0 0
0 0 0 0 0 0 0 0 0 17 23 17 17 23 17 255 140 115 255 140 115 255 140 115 255 140 115 255 140 115 255 140 115 17 23 17 17 23 17 0 0 0 0 0 0 0 0 0
0 0 0 0 0 0 0 0 0 17 23 17 143 58 58 143 58 58 143 58 58 143 58 58 143 58 58 143 58 58 143 58 58 143 58 58 17 23 17 0 0 0 0 0 0 0 0 0
0 0 0 0 0 0 0 0 0 58 32 32 58 32 32 255 140 115 255 140 115 255 140 115 255 140 115 255 140 115 255 140 115 58 32 32 58 32 32 0 0 0 0 0 0 0 0 0
0 0 0 0 0 0 0 0 0 58 32 32 58 32 32 143 58 58 143 58 58 143 58 58 143 58 58 143 58 58 143 58 58 58 32 32 58 32 32 0 0 0 0 0 0 0 0 0
0 0 0 0 0 0 0 0 0 58 32 32 58 32 32 143 58 58 143 58 58 143 58 58 143 58 58 143 58 58 143 58 58 58 32 32 58 32 32 0 0 0 0 0 0 0 0 0
0 0 0 0 0 0 0 0 0 58 32 32 58 32 32 143 58 58 143 58 58 143 58 58 143 58 58 143 58 58 143 58 58 58 32 32 58 32 32 0 0 0 0 0 0 0 0 0
0 0 0 0 0 0 0 0 0 17 23 17 143 58 58 143 58 58 143 58 58 143 58 58 143 58 58 143 58 58 143 58 58 143 58 58 17 23 17 0 0 0 0 0 0 0 0 0
0 0 0 0 0 0 0 0 0 17 23 17 17 23 17 43 23 23 43 23 23 17 23 17 17 23 17 43 23 23 43 23 23 17 23 17 17 23 17 0 0 0 0 0 0 0 0 0
0 0 0 0 0 0 0 0 0 0 0 0 0 0 0 43 23 23 43 23 23 0 0 0 0 0 0 43 23 23 43 23 23 0 0 0 0 0 0 0 0 0 0 0 0 0 0 0
0 0 0 0 0 0 0 0 0 8 11 9 8 11 9 8 11 9 8 11 9 8 11 9 8 11 9 8 11 9 8 11 9 8 11 9 8 11 9 0 0 0 0 0 0 0 0 0
