P3
16 16
255
0 0 0 0 0 0 0 0 0 0 0 0 0 0 0 0 0 0 0 0 0 0 0 0 0 0 0 0 0 0 0 0 0 0 0 0 0 0 0 0 0 0 0 0 0 0 0 0
0 0 0 0 0 0 0 0 0 0 0 0 0 0 0 17 23 17 17 23 17 17 23 17 17 23 17 17 23 17 17 23 17 0 0 0 0 0 0 0 0 0 0 0 0 0 0 0
0 0 0 0 0 0 0 0 0 0 0 0 0 0 0 17 23 17 216 240 160 216 240 160 216 240 160 216 240 160 17 23 17 0 0 0 0 0 0 0 0 0 0 0 0 0 0 0
0 0 0 0 0 0 0 0 0 0 0 0 0 0 0 17 23 17 216 240 160 131 199 157 131 199 157 216 240 160 17 23 17 0 0 0 0 0 0 0 0 0 0 0 0 0 0 0
0 0 0 0 0 0 0 0 0 0 0 0 17 23 17 17 23 17 216 240 160 216 240 160 216 240 160 216 240 160 17 23 17 17 23 17 0 0 0 0 0 0 0 0 0 0 0 0
0 0 0 0 0 0 0 0 0 0 0 0 17 23 17 63 155 88 63 155 88 63 155 88 63 155 88 63 155 88 63 155 88 17 23 17 0 0 0 0 0 0 0 0 0 0 0 0
0 0 0 0 0 0 0 0 0 0 0 0 17 23 17 63 155 88 216 240 160 216 240 160 216 240 160 216 240 160 63 155 88 17 23 17 0 0 0 0 0 0 0 0 0 0 0 0
0 0 0 0 0 0 0 0 0 0 0 0 131 199 157 131 199 157 63 155 88 63 155 88 63 155 88 63 155 88 131 199 157 131 199 157 0 0 0 0 0 0 0 0 0 0 0 0
0 0 0 0 0 0 0 0 0 0 0 0 131 199 157 131 199 157 63 155 88 63 155 88 63 155 88 63 155 88 131 199 157 131 199 157 0 0 0 0 0 0 0 0 0 0 0 0
0 0 0 0 0 0 0 0 0 0 0 0 131 199 157 131 199 157 63 155 88 63 155 88 63 155 88 63 155 88 131 199 157 131 199 157 0 0 0 0 0 0 0 0 0 0 0 0
0 0 0 0 0 0 0 0 0 0 0 0 131 199 157 131 199 157 63 155 88 63 155 88 63 155 88 63 155 88 131 199 157 131 199 157 0 0 0 0 0 0 0 0 0 0 0 0
0 0 0 0 0 0 0 0 0 0 0 0 17 23 17 38 56 46 38 56 46 17 23 17 17 23 17 38 56 46 38 56 46 17 23 17 0 0 0 0 0 0 0 0 0 0 0 0
0 0 0 0 0 0 0 0 0 0 0 0 0 0 0 38 56 46 38 56 46 0 0 0 0 0 0 38 56 46 38 56 46 0 0 0 0 0 0 0 0 0 0 0 0 0 0 0
0 0 0 0 0 0 0 0 0 0 0 0 0 0 0 38 56 46 38 56 46 0 0 0 0 0 0 38 56 46 38 56 46 0 0 0 0 0 0 0 0 0 0 0 0 0 0 0
0 0 0 0 0 0 0 0 0 0 0 0 0 0 0 38 56 46 38 56 46 0 0 0 0 0 0 38 56 46 38 56 46 0 0 0 0 0 0 0 0 0 0 0 0 0 0 0
0 0 0 0 0 0 0 0 0 8 11 9 8 11 9 8 11 9 8 11 9 8 11 9 8 11 9 8 11 9 8 11 9 8 11 9 8 11 9 0 0 0 0 0 0 0 0 0
