P3
16 16
255
0 0 0 0 0 0 0 0 0 0 0 0 0 0 0 0 0 0 0 0 0 0 0 0 0 0 0 0 0 0 0 0 0 0 0 0 0 0 0 0 0 0 0 0 0 0 0 0
0 0 0 0 0 0 0 0 0 0 0 0 0 0 0 0 0 0 0 0 0 0 0 0 0 0 0 0 0 0 0 0 0 0 0 0 0 0 0 0 0 0 0 0 0 0 0 0
0 0 0 0 0 0 0 0 0 0 0 0 0 0 0 0 0 0 216 240 160 216 240 160 216 240 160 216 240 160 0 0 0 0 0 0 0 0 0 0 0 0 0 0 0 0 0 0
0 0 0 0 0 0 0 0 0 0 0 0 0 0 0 0 0 0 216 240 160 216 240 160 216 240 160 216 240 160 0 0 0 0 0 0 0 0 0 0 0 0 0 0 0 0 0 0
0 0 0 0 0 0 0 0 0 0 0 0 0 0 0 0 0 0 216 240 160 216 240 160 216 240 160 216 240 160 0 0 0 0 0 0 0 0 0 0 0 0 0 0 0 0 0 0
0 0 0 0 0 0 0 0 0 0 0 0 0 0 0 63 155 88 63 155 88 63 155 88 63 155 88 63 155 88 63 155 88 0 0 0 0 0 0 0 0 0 0 0 0 0 0 0
0 0 0 0 0 0 0 0 0 0 0 0 0 0 0 63 155 88 63 155 88 63 155 88 63 155 88 63 155 88 63 155 88 0 0 0 0 0 0 0 0 0 0 0 0 0 0 0
0 0 0 0 0 0 0 0 0 0 0 0 127 216 232 127 216 232 63 155 88 63 155 88 63 155 88 63 155 88 127 216 232 127 216 232 0 0 0 0 0 0 0 0 0 0 0 0
0 0 0 0 0 0 0 0 0 0 0 0 127 216 232 127 216 232 63 155 88 63 155 88 63 155 88 63 155 88 127 216 232 127 216 232 0 0 0 0 0 0 0 0 0 0 0 0
0 0 0 0 0 0 0 0 0 0 0 0 127 216 232 127 216 232 63 155 88 63 155 88 63 155 88 63 155 88 127 216 232 127 216 232 0 0 0 0 0 0 0 0 0 0 0 0
0 0 0 0 0 0 0 0 0 0 0 0 127 216 232 127 216 232 63 155 88 63 155 88 63 155 88 63 155 88 127 216 232 127 216 232 0 0 0 0 0 0 0 0 0 0 0 0
0 0 0 0 0 0 0 0 0 0 0 0 0 0 0 38 56 46 38 56 46 0 0 0 0 0 0 38 56 46 38 56 46 0 0 0 0 0 0 0 0 0 0 0 0 0 0 0
0 0 0 0 0 0 0 0 0 242 220 115 242 220 115 242 220 115 38 56 46 0 0 0 0 0 0 38 56 46 38 56 46 0 0 0 0 0 0 0 0 0 0 0 0 0 0 0
0 0 0 0 0 0 0 0 0 242 220 115 242 220 115 242 220 115 38 56 46 0 0 0 0 0 0 38 56 46 38 56 46 0 0 0 0 0 0 0 0 0 0 0 0 0 0 0
0 0 0 0 0 0 0 0 0 0 0 0 0 0 0 38 56 46 38 56 46 0 0 0 0 0 0 38 56 46 38 56 46 0 0 0 0 0 0 0 0 0 0 0 0 0 0 0
0 0 0 0 0 0 0 0 0 0 0 0 0 0 0 0 0 0 0 0 0 0 0 0 0 0 0 0 0 0 0 0 0 0 0 0 0 0 0 0 0 0 0 0 0 0 0 0
