P3
32 48
255
0 0 0 0 0 0 0 0 0 0 0 0 0 0 0 0 0 0 0 0 0 0 0 0 0 0 0 0 0 0 0 0 0 0 0 0 0 0 0 0 0 0 0 0 0 0 0 0 0 0 0 0 0 0 0 0 0 0 0 0 0 0 0 0 0 0 0 0 0 0 0 0 0 0 0 0 0 0 0 0 0 0 0 0 0 0 0 0 0 0 0 0 0 0 0 0
0 0 0 0 0 0 0 0 0 0 0 0 0 0 0 0 0 0 0 0 0 0 0 0 0 0 0 0 0 0 0 0 0 0 0 0 0 0 0 0 0 0 0 0 0 0 0 0 0 0 0 0 0 0 0 0 0 0 0 0 0 0 0 0 0 0 0 0 0 0 0 0 0 0 0 0 0 0 0 0 0 0 0 0 0 0 0 0 0 0 0 0 0 0 0 0
0 0 0 0 0 0 0 0 0 0 0 0 0 0 0 0 0 0 0 0 0 0 0 0 0 0 0 0 0 0 0 0 0 0 0 0 0 0 0 0 0 0 0 0 0 0 0 0 0 0 0 0 0 0 0 0 0 0 0 0 0 0 0 0 0 0 0 0 0 0 0 0 0 0 0 0 0 0 0 0 0 0 0 0 0 0 0 0 0 0 0 0 0 0 0 0
0 0 0 0 0 0 0 0 0 0 0 0 0 0 0 0 0 0 0 0 0 0 0 0 0 0 0 0 0 0 0 0 0 0 0 0 0 0 0 0 0 0 0 0 0 0 0 0 0 0 0 0 0 0 0 0 0 0 0 0 0 0 0 0 0 0 0 0 0 0 0 0 0 0 0 0 0 0 0 0 0 0 0 0 0 0 0 0 0 0 0 0 0 0 0 0
0 0 0 0 0 0 0 0 0 0 0 0 0 0 0 0 0 0 0 0 0 0 0 0 0 0 0 0 0 0 0 0 0 0 0 0 0 0 0 0 0 0 0 0 0 0 0 0 0 0 0 0 0 0 0 0 0 0 0 0 0 0 0 0 0 0 0 0 0 0 0 0 0 0 0 0 0 0 0 0 0 0 0 0 0 0 0 0 0 0 0 0 0 0 0 0
0 0 0 0 0 0 0 0 0 0 0 0 0 0 0 0 0 0 0 0 0 0 0 0 0 0 0 0 0 0 0 0 0 0 0 0 0 0 0 0 0 0 0 0 0 0 0 0 0 0 0 0 0 0 0 0 0 0 0 0 0 0 0 0 0 0 0 0 0 0 0 0 0 0 0 0 0 0 0 0 0 0 0 0 0 0 0 0 0 0 0 0 0 0 0 0
0 0 0 0 0 0 0 0 0 0 0 0 0 0 0 0 0 0 0 0 0 0 0 0 0 0 0 0 0 0 0 0 0 0 0 0 0 0 0 0 0 0 0 0 0 0 0 0 0 0 0 0 0 0 0 0 0 0 0 0 0 0 0 0 0 0 0 0 0 0 0 0 0 0 0 0 0 0 0 0 0 0 0 0 0 0 0 0 0 0 0 0 0 0 0 0
0 0 0 0 0 0 0 0 0 0 0 0 0 0 0 0 0 0 0 0 0 0 0 0 0 0 0 0 0 0 0 0 0 0 0 0 0 0 0 0 0 0 0 0 0 0 0 0 0 0 0 0 0 0 0 0 0 0 0 0 0 0 0 0 0 0 0 0 0 0 0 0 0 0 0 0 0 0 0 0 0 0 0 0 0 0 0 0 0 0 0 0 0 0 0 0
0 0 0 0 0 0 0 0 0 0 0 0 0 0 0 0 0 0 0 0 0 0 0 0 0 0 0 0 0 0 0 0 0 0 0 0 0 0 0 0 0 0 0 0 0 0 0 0 0 0 0 0 0 0 0 0 0 0 0 0 0 0 0 0 0 0 0 0 0 0 0 0 0 0 0 0 0 0 0 0 0 0 0 0 0 0 0 0 0 0 0 0 0 0 0 0
0 0 0 0 0 0 0 0 0 0 0 0 0 0 0 0 0 0 0 0 0 0 0 0 0 0 0 0 0 0 17 23 17 17 23 17 17 23 17 17 23 17 17 23 17 17 23 17 17 23 17 17 23 17 17 23 17 17 23 17 17 23 17 17 23 17 0 0 0 0 0 0 0 0 0 0 0 0 0 0 0 0 0 0 0 0 0 0 0 0 0 0 0 0 0 0
0 0 0 0 0 0 0 0 0 0 0 0 0 0 0 0 0 0 0 0 0 0 0 0 0 0 0 0 0 0 17 23 17 17 23 17 198 146 95 198 146 95 198 146 95 198 146 95 198 146 95 198 146 95 198 146 95 198 146 95 17 23 17 17 23 17 0 0 0 0 0 0 0 0 0 0 0 0 0 0 0 0 0 0 0 0 0 0 0 0 0 0 0 0 0 0
0 0 0 0 0 0 0 0 0 0 0 0 0 0 0 0 0 0 0 0 0 0 0 0 0 0 0 0 0 0 17 23 17 17 23 17 198 146 95 198 146 95 198 146 95 198 146 95 198 146 95 198 146 95 198 146 95 198 146 95 17 23 17 17 23 17 0 0 0 0 0 0 0 0 0 0 0 0 0 0 0 0 0 0 0 0 0 0 0 0 0 0 0 0 0 0
0 0 0 17 23 17 17 23 17 17 23 17 17 23 17 17 23 17 17 23 17 17 23 17 17 23 17 17 23 17 17 23 17 17 23 17 198 146 95 198 146 95 198 146 95 198 146 95 198 146 95 198 146 95 198 146 95 198 146 95 17 23 17 17 23 17 0 0 0 0 0 0 0 0 0 0 0 0 0 0 0 0 0 0 0 0 0 0 0 0 0 0 0 0 0 0
0 0 0 17 23 17 17 23 17 17 23 17 17 23 17 17 23 17 17 23 17 17 23 17 17 23 17 17 23 17 17 23 17 17 23 17 198 146 95 198 146 95 198 146 95 198 146 95 198 146 95 198 146 95 198 146 95 198 146 95 17 23 17 17 23 17 0 0 0 0 0 0 0 0 0 0 0 0 0 0 0 0 0 0 0 0 0 0 0 0 0 0 0 0 0 0
0 0 0 17 23 17 17 23 17 17 23 17 17 23 17 17 23 17 17 23 17 17 23 17 17 23 17 17 23 17 17 23 17 17 23 17 198 146 95 198 146 95 198 146 95 198 146 95 198 146 95 198 146 95 198 146 95 198 146 95 17 23 17 17 23 17 0 0 0 0 0 0 0 0 0 0 0 0 0 0 0 0 0 0 0 0 0 0 0 0 0 0 0 0 0 0
0 0 0 0 0 0 0 0 0 255 226 166 255 226 166 255 226 166 255 226 166 255 226 166 0 0 0 243 224 141 243 224 141 243 224 141 243 224 141 243 224 141 243 224 141 243 224 141 243 224 141 243 224 141 243 224 141 243 224 141 243 224 141 243 224 141 243 224 141 0 0 0 0 0 0 0 0 0 0 0 0 0 0 0 0 0 0 0 0 0 0 0 0 0 0 0
0 0 0 0 0 0 0 0 0 255 226 166 255 226 166 255 226 166 255 226 166 255 226 166 0 0 0 243 224 141 243 224 141 243 224 141 243 224 141 243 224 141 243 224 141 243 224 141 243 224 141 243 224 141 243 224 141 243 224 141 243 224 141 243 224 141 243 224 141 0 0 0 0 0 0 0 0 0 0 0 0 0 0 0 0 0 0 0 0 0 0 0 0 0 0 0
0 0 0 0 0 0 0 0 0 255 226 166 255 226 166 255 226 166 255 226 166 255 226 166 17 23 17 17 23 17 17 23 17 181 122 66 181 122 66 181 122 66 181 122 66 181 122 66 181 122 66 181 122 66 181 122 66 181 122 66 181 122 66 17 23 17 17 23 17 17 23 17 0 0 0 0 0 0 0 0 0 0 0 0 0 0 0 0 0 0 0 0 0 0 0 0
0 0 0 0 0 0 0 0 0 255 226 166 255 226 166 255 226 166 255 226 166 255 226 166 17 23 17 17 23 17 17 23 17 181 122 66 181 122 66 181 122 66 181 122 66 181 122 66 181 122 66 181 122 66 181 122 66 181 122 66 181 122 66 17 23 17 17 23 17 17 23 17 17 23 17 17 23 17 17 23 17 17 23 17 17 23 17 0 0 0 0 0 0 0 0 0
0 0 0 0 0 0 0 0 0 255 226 166 255 226 166 255 226 166 255 226 166 255 226 166 240 190 112 240 190 112 240 190 112 240 190 112 240 190 112 240 190 112 240 190 112 240 190 112 240 190 112 240 190 112 240 190 112 240 190 112 240 190 112 17 23 17 17 23 17 17 23 17 17 23 17 17 23 17 17 23 17 17 23 17 17 23 17 0 0 0 0 0 0 0 0 0
0 0 0 0 0 0 0 0 0 255 226 166 255 226 166 255 226 166 255 226 166 255 226 166 240 190 112 240 190 112 240 190 112 240 190 112 240 190 112 240 190 112 240 190 112 240 190 112 240 190 112 240 190 112 240 190 112 240 190 112 240 190 112 17 23 17 17 23 17 17 23 17 17 23 17 17 23 17 17 23 17 17 23 17 17 23 17 0 0 0 0 0 0 0 0 0
0 0 0 0 0 0 0 0 0 255 226 166 255 226 166 255 226 166 255 226 166 255 226 166 79 55 38 79 55 38 240 190 112 240 190 112 240 190 112 240 190 112 240 190 112 240 190 112 240 190 112 240 190 112 240 190 112 240 190 112 240 190 112 240 190 112 240 190 112 255 226 166 255 226 166 255 226 166 0 0 0 0 0 0 0 0 0 0 0 0 0 0 0 0 0 0
0 0 0 0 0 0 0 0 0 255 226 166 255 226 166 255 226 166 255 226 166 255 226 166 79 55 38 79 55 38 240 190 112 240 190 112 240 190 112 240 190 112 240 190 112 240 190 112 240 190 112 240 190 112 240 190 112 240 190 112 240 190 112 240 190 112 240 190 112 255 226 166 255 226 166 255 226 166 0 0 0 0 0 0 0 0 0 0 0 0 0 0 0 0 0 0
0 0 0 0 0 0 0 0 0 255 226 166 255 226 166 255 226 166 255 226 166 255 226 166 79 55 38 79 55 38 17 23 17 181 122 66 181 122 66 181 122 66 181 122 66 181 122 66 181 122 66 181 122 66 181 122 66 181 122 66 181 122 66 17 23 17 17 23 17 255 226 166 255 226 166 255 226 166 0 0 0 0 0 0 0 0 0 0 0 0 0 0 0 0 0 0
0 0 0 0 0 0 0 0 0 255 226 166 255 226 166 255 226 166 255 226 166 255 226 166 79 55 38 79 55 38 12 17 14 12 17 14 12 17 14 12 17 14 12 17 14 12 17 14 12 17 14 12 17 14 12 17 14 12 17 14 12 17 14 12 17 14 12 17 14 255 226 166 255 226 166 255 226 166 0 0 0 0 0 0 0 0 0 0 0 0 0 0 0 0 0 0
0 0 0 0 0 0 0 0 0 255 226 166 255 226 166 255 226 166 255 226 166 255 226 166 79 55 38 79 55 38 12 17 14 12 17 14 12 17 14 12 17 14 12 17 14 12 17 14 12 17 14 12 17 14 12 17 14 12 17 14 12 17 14 12 17 14 12 17 14 255 226 166 255 226 166 255 226 166 0 0 0 0 0 0 0 0 0 0 0 0 0 0 0 0 0 0
0 0 0 0 0 0 0 0 0 255 226 166 255 226 166 255 226 166 255 226 166 255 226 166 79 55 38 79 55 38 17 23 17 181 122 66 181 122 66 181 122 66 181 122 66 181 122 66 181 122 66 181 122 66 181 122 66 181 122 66 181 122 66 17 23 17 17 23 17 255 226 166 255 226 166 255 226 166 0 0 0 0 0 0 0 0 0 0 0 0 0 0 0 0 0 0
0 0 0 0 0 0 0 0 0 255 226 166 255 226 166 255 226 166 255 226 166 255 226 166 79 55 38 79 55 38 17 23 17 181 122 66 181 122 66 181 122 66 181 122 66 181 122 66 181 122 66 181 122 66 181 122 66 181 122 66 181 122 66 17 23 17 17 23 17 255 226 166 255 226 166 255 226 166 106 125 141 106 125 141 0 0 0 0 0 0 0 0 0 0 0 0
0 0 0 0 0 0 0 0 0 255 226 166 255 226 166 255 226 166 255 226 166 255 226 166 79 55 38 79 55 38 17 23 17 181 122 66 181 122 66 181 122 66 181 122 66 181 122 66 181 122 66 181 122 66 181 122 66 181 122 66 181 122 66 17 23 17 17 23 17 255 226 166 255 226 166 255 226 166 106 125 141 106 125 141 0 0 0 0 0 0 0 0 0 0 0 0
0 0 0 0 0 0 0 0 0 255 226 166 255 226 166 255 226 166 255 226 166 255 226 166 79 55 38 79 55 38 17 23 17 181 122 66 181 122 66 181 122 66 181 122 66 181 122 66 181 122 66 181 122 66 181 122 66 181 122 66 181 122 66 17 23 17 17 23 17 255 226 166 255 226 166 255 226 166 106 125 141 106 125 141 0 0 0 0 0 0 0 0 0 0 0 0
0 0 0 0 0 0 0 0 0 255 226 166 255 226 166 255 226 166 255 226 166 255 226 166 79 55 38 79 55 38 17 23 17 181 122 66 181 122 66 181 122 66 181 122 66 181 122 66 181 122 66 181 122 66 181 122 66 181 122 66 181 122 66 17 23 17 17 23 17 255 226 166 255 226 166 255 226 166 106 125 141 106 125 141 0 0 0 0 0 0 0 0 0 0 0 0
0 0 0 0 0 0 0 0 0 255 226 166 255 226 166 255 226 166 255 226 166 255 226 166 79 55 38 79 55 38 17 23 17 181 122 66 181 122 66 181 122 66 181 122 66 181 122 66 181 122 66 181 122 66 181 122 66 181 122 66 181 122 66 17 23 17 17 23 17 255 226 166 255 226 166 255 226 166 106 125 141 106 125 141 0 0 0 0 0 0 0 0 0 0 0 0
0 0 0 0 0 0 0 0 0 0 0 0 106 125 141 79 55 38 79 55 38 79 55 38 79 55 38 79 55 38 17 23 17 181 122 66 181 122 66 181 122 66 181 122 66 181 122 66 181 122 66 181 122 66 181 122 66 181 122 66 181 122 66 17 23 17 17 23 17 255 226 166 255 226 166 255 226 166 106 125 141 106 125 141 0 0 0 0 0 0 0 0 0 0 0 0
0 0 0 0 0 0 0 0 0 0 0 0 0 0 0 79 55 38 79 55 38 79 55 38 79 55 38 79 55 38 79 55 38 79 55 38 79 55 38 79 55 38 17 23 17 17 23 17 17 23 17 17 23 17 79 55 38 79 55 38 79 55 38 79 55 38 17 23 17 255 226 166 255 226 166 255 226 166 0 0 0 0 0 0 0 0 0 0 0 0 0 0 0 0 0 0
0 0 0 0 0 0 0 0 0 0 0 0 0 0 0 0 0 0 0 0 0 0 0 0 17 23 17 17 23 17 79 55 38 79 55 38 79 55 38 79 55 38 17 23 17 17 23 17 17 23 17 17 23 17 79 55 38 79 55 38 79 55 38 79 55 38 17 23 17 255 226 166 255 226 166 255 226 166 0 0 0 0 0 0 0 0 0 0 0 0 0 0 0 0 0 0
0 0 0 0 0 0 0 0 0 0 0 0 0 0 0 0 0 0 0 0 0 0 0 0 17 23 17 17 23 17 79 55 38 79 55 38 79 55 38 79 55 38 17 23 17 17 23 17 17 23 17 17 23 17 79 55 38 79 55 38 79 55 38 79 55 38 17 23 17 255 226 166 255 226 166 255 226 166 0 0 0 0 0 0 0 0 0 0 0 0 0 0 0 0 0 0
0 0 0 0 0 0 0 0 0 0 0 0 0 0 0 0 0 0 0 0 0 0 0 0 17 23 17 17 23 17 79 55 38 79 55 38 79 55 38 79 55 38 17 23 17 17 23 17 17 23 17 17 23 17 79 55 38 79 55 38 79 55 38 79 55 38 17 23 17 255 226 166 255 226 166 255 226 166 0 0 0 0 0 0 0 0 0 0 0 0 0 0 0 0 0 0
0 0 0 0 0 0 0 0 0 0 0 0 0 0 0 0 0 0 0 0 0 0 0 0 17 23 17 17 23 17 79 55 38 79 55 38 79 55 38 79 55 38 17 23 17 17 23 17 17 23 17 17 23 17 79 55 38 79 55 38 79 55 38 79 55 38 17 23 17 255 226 166 255 226 166 255 226 166 0 0 0 0 0 0 0 0 0 0 0 0 0 0 0 0 0 0
0 0 0 0 0 0 0 0 0 0 0 0 0 0 0 0 0 0 0 0 0 0 0 0 0 0 0 0 0 0 79 55 38 79 55 38 79 55 38 79 55 38 0 0 0 0 0 0 241 210 116 0 0 0 79 55 38 79 55 38 79 55 38 79 55 38 0 0 0 255 226 166 255 226 166 255 226 166 0 0 0 0 0 0 0 0 0 0 0 0 0 0 0 0 0 0
0 0 0 0 0 0 0 0 0 0 0 0 0 0 0 0 0 0 0 0 0 0 0 0 0 0 0 241 210 116 79 55 38 79 55 38 79 55 38 79 55 38 241 210 116 241 210 116 241 210 116 241 210 116 79 55 38 79 55 38 79 55 38 79 55 38 241 210 116 241 210 116 0 0 0 0 0 0 0 0 0 0 0 0 0 0 0 0 0 0 0 0 0 0 0 0
0 0 0 0 0 0 0 0 0 0 0 0 0 0 0 0 0 0 241 210 116 241 210 116 241 210 116 241 210 116 241 210 116 241 210 116 241 210 116 241 210 116 241 210 116 241 210 116 32 38 31 241 210 116 241 210 116 241 210 116 241 210 116 241 210 116 241 210 116 241 210 116 241 210 116 241 210 116 241 210 116 0 0 0 0 0 0 0 0 0 0 0 0 0 0 0
0 0 0 0 0 0 8 11 9 8 11 9 8 11 9 241 210 116 241 210 116 241 210 116 241 210 116 241 210 116 241 210 116 32 38 31 32 38 31 32 38 31 32 38 31 32 38 31 32 38 31 32 38 31 32 38 31 32 38 31 32 38 31 32 38 31 241 210 116 241 210 116 241 210 116 241 210 116 241 210 116 241 210 116 8 11 9 8 11 9 8 11 9 0 0 0
8 11 9 8 11 9 8 11 9 8 11 9 241 210 116 241 210 116 241 210 116 241 210 116 241 210 116 32 38 31 32 38 31 32 38 31 32 38 31 32 38 31 32 38 31 32 38 31 32 38 31 32 38 31 32 38 31 32 38 31 32 38 31 32 38 31 32 38 31 32 38 31 241 210 116 241 210 116 241 210 116 241 210 116 241 210 116 8 11 9 8 11 9 8 11 9
8 11 9 8 11 9 8 11 9 241 210 116 241 210 116 241 210 116 241 210 116 241 210 116 32 38 31 32 38 31 32 38 31 32 38 31 32 38 31 32 38 31 32 38 31 32 38 31 32 38 31 32 38 31 32 38 31 32 38 31 32 38 31 32 38 31 32 38 31 32 38 31 32 38 31 241 210 116 241 210 116 241 210 116 241 210 116 241 210 116 8 11 9 8 11 9
8 11 9 8 11 9 8 11 9 8 11 9 241 210 116 241 210 116 241 210 116 241 210 116 241 210 116 32 38 31 32 38 31 32 38 31 32 38 31 32 38 31 32 38 31 32 38 31 32 38 31 32 38 31 32 38 31 32 38 31 32 38 31 32 38 31 32 38 31 32 38 31 241 210 116 241 210 116 241 210 116 241 210 116 241 210 116 8 11 9 8 11 9 8 11 9
8 11 9 8 11 9 8 11 9 8 11 9 8 11 9 241 210 116 241 210 116 241 210 116 241 210 116 241 210 116 241 210 116 32 38 31 32 38 31 32 38 31 32 38 31 32 38 31 32 38 31 32 38 31 32 38 31 32 38 31 32 38 31 32 38 31 241 210 116 241 210 116 241 210 116 241 210 116 241 210 116 241 210 116 8 11 9 8 11 9 8 11 9 8 11 9
8 11 9 8 11 9 8 11 9 8 11 9 8 11 9 8 11 9 241 210 116 241 210 116 241 210 116 241 210 116 241 210 116 241 210 116 241 210 116 241 210 116 241 210 116 241 210 116 32 38 31 241 210 116 241 210 116 241 210 116 241 210 116 241 210 116 241 210 116 241 210 116 241 210 116 241 210 116 241 210 116 8 11 9 8 11 9 8 11 9 8 11 9 8 11 9
0 0 0 0 0 0 8 11 9 8 11 9 8 11 9 8 11 9 8 11 9 8 11 9 8 11 9 241 210 116 241 210 116 241 210 116 241 210 116 241 210 116 241 210 116 241 210 116 241 210 116 241 210 116 241 210 116 241 210 116 241 210 116 241 210 116 241 210 116 241 210 116 8 11 9 8 11 9 8 11 9 8 11 9 8 11 9 8 11 9 8 11 9 0 0 0
