P3
36 48
255
0 0 0 0 0 0 0 0 0 0 0 0 0 0 0 0 0 0 0 0 0 0 0 0 0 0 0 0 0 0 0 0 0 0 0 0 0 0 0 0 0 0 0 0 0 0 0 0 0 0 0 0 0 0 0 0 0 0 0 0 0 0 0 0 0 0 0 0 0 0 0 0 0 0 0 0 0 0 0 0 0 0 0 0 0 0 0 0 0 0 0 0 0 0 0 0 0 0 0 0 0 0 0 0 0 0 0 0
0 0 0 0 0 0 0 0 0 0 0 0 0 0 0 0 0 0 0 0 0 0 0 0 0 0 0 0 0 0 0 0 0 0 0 0 0 0 0 0 0 0 0 0 0 0 0 0 0 0 0 0 0 0 0 0 0 0 0 0 0 0 0 0 0 0 0 0 0 0 0 0 0 0 0 0 0 0 0 0 0 0 0 0 0 0 0 0 0 0 0 0 0 0 0 0 0 0 0 0 0 0 0 0 0 0 0 0
0 0 0 0 0 0 0 0 0 0 0 0 0 0 0 0 0 0 0 0 0 0 0 0 0 0 0 0 0 0 0 0 0 0 0 0 0 0 0 0 0 0 0 0 0 0 0 0 0 0 0 0 0 0 0 0 0 0 0 0 0 0 0 0 0 0 0 0 0 0 0 0 0 0 0 0 0 0 0 0 0 0 0 0 0 0 0 0 0 0 0 0 0 0 0 0 0 0 0 0 0 0 0 0 0 0 0 0
0 0 0 0 0 0 0 0 0 0 0 0 0 0 0 0 0 0 0 0 0 0 0 0 0 0 0 0 0 0 0 0 0 0 0 0 0 0 0 0 0 0 0 0 0 0 0 0 0 0 0 0 0 0 0 0 0 0 0 0 0 0 0 0 0 0 0 0 0 0 0 0 0 0 0 0 0 0 0 0 0 0 0 0 0 0 0 0 0 0 0 0 0 0 0 0 0 0 0 0 0 0 0 0 0 0 0 0
0 0 0 0 0 0 0 0 0 0 0 0 0 0 0 0 0 0 0 0 0 0 0 0 0 0 0 0 0 0 0 0 0 0 0 0 0 0 0 0 0 0 0 0 0 0 0 0 0 0 0 0 0 0 0 0 0 0 0 0 0 0 0 0 0 0 0 0 0 0 0 0 0 0 0 0 0 0 0 0 0 0 0 0 0 0 0 0 0 0 0 0 0 0 0 0 0 0 0 0 0 0 0 0 0 0 0 0
0 0 0 0 0 0 0 0 0 0 0 0 0 0 0 0 0 0 0 0 0 0 0 0 0 0 0 0 0 0 0 0 0 0 0 0 0 0 0 0 0 0 0 0 0 0 0 0 0 0 0 0 0 0 0 0 0 0 0 0 0 0 0 0 0 0 0 0 0 0 0 0 0 0 0 0 0 0 0 0 0 0 0 0 0 0 0 0 0 0 0 0 0 0 0 0 0 0 0 0 0 0 0 0 0 0 0 0
0 0 0 0 0 0 0 0 0 0 0 0 0 0 0 0 0 0 0 0 0 0 0 0 0 0 0 0 0 0 208 162 255 208 162 255 208 162 255 208 162 255 208 162 255 0 0 0 0 0 0 0 0 0 0 0 0 0 0 0 0 0 0 208 162 255 208 162 255 208 162 255 208 162 255 208 162 255 0 0 0 0 0 0 0 0 0 0 0 0 0 0 0 0 0 0 0 0 0 0 0 0 0 0 0 0 0 0
0 0 0 0 0 0 0 0 0 0 0 0 0 0 0 0 0 0 0 0 0 0 0 0 0 0 0 0 0 0 208 162 255 208 162 255 208 162 255 208 162 255 208 162 255 0 0 0 0 0 0 0 0 0 0 0 0 0 0 0 0 0 0 208 162 255 208 162 255 208 162 255 208 162 255 208 162 255 0 0 0 0 0 0 0 0 0 0 0 0 0 0 0 0 0 0 0 0 0 0 0 0 0 0 0 0 0 0
0 0 0 0 0 0 0 0 0 0 0 0 0 0 0 0 0 0 0 0 0 0 0 0 0 0 0 0 0 0 208 162 255 208 162 255 208 162 255 208 162 255 208 162 255 0 0 0 0 0 0 0 0 0 0 0 0 0 0 0 0 0 0 208 162 255 208 162 255 208 162 255 208 162 255 208 162 255 0 0 0 0 0 0 0 0 0 0 0 0 0 0 0 0 0 0 0 0 0 0 0 0 0 0 0 0 0 0
0 0 0 0 0 0 0 0 0 0 0 0 0 0 0 0 0 0 0 0 0 0 0 0 0 0 0 0 0 0 208 162 255 208 162 255 208 162 255 208 162 255 208 162 255 17 23 17 17 23 17 17 23 17 17 23 17 17 23 17 17 23 17 208 162 255 208 162 255 208 162 255 208 162 255 208 162 255 0 0 0 0 0 0 0 0 0 0 0 0 0 0 0 0 0 0 0 0 0 0 0 0 0 0 0 0 0 0
0 0 0 0 0 0 0 0 0 0 0 0 0 0 0 0 0 0 0 0 0 0 0 0 0 0 0 0 0 0 208 162 255 208 162 255 208 162 255 208 162 255 208 162 255 154 121 189 154 121 189 154 121 189 154 121 189 154 121 189 154 121 189 208 162 255 208 162 255 208 162 255 208 162 255 208 162 255 0 0 0 0 0 0 0 0 0 0 0 0 0 0 0 0 0 0 0 0 0 0 0 0 0 0 0 0 0 0
0 0 0 0 0 0 0 0 0 0 0 0 0 0 0 0 0 0 0 0 0 0 0 0 0 0 0 0 0 0 0 0 0 0 0 0 17 23 17 17 23 17 154 121 189 154 121 189 154 121 189 154 121 189 154 121 189 154 121 189 154 121 189 154 121 189 17 23 17 17 23 17 0 0 0 0 0 0 0 0 0 0 0 0 0 0 0 0 0 0 0 0 0 0 0 0 0 0 0 0 0 0 0 0 0 0 0 0
0 0 0 0 0 0 0 0 0 0 0 0 0 0 0 0 0 0 0 0 0 0 0 0 0 0 0 0 0 0 0 0 0 0 0 0 17 23 17 17 23 17 154 121 189 154 121 189 154 121 189 154 121 189 154 121 189 154 121 189 154 121 189 154 121 189 17 23 17 17 23 17 0 0 0 0 0 0 0 0 0 0 0 0 0 0 0 0 0 0 0 0 0 0 0 0 0 0 0 0 0 0 0 0 0 0 0 0
0 0 0 0 0 0 0 0 0 0 0 0 0 0 0 0 0 0 0 0 0 0 0 0 0 0 0 0 0 0 0 0 0 0 0 0 17 23 17 17 23 17 154 121 189 255 226 166 255 226 166 154 121 189 154 121 189 154 121 189 154 121 189 255 226 166 255 226 166 17 23 17 0 0 0 0 0 0 0 0 0 0 0 0 0 0 0 0 0 0 0 0 0 0 0 0 0 0 0 0 0 0 0 0 0 0 0 0
0 0 0 0 0 0 0 0 0 0 0 0 0 0 0 0 0 0 0 0 0 0 0 0 0 0 0 0 0 0 0 0 0 0 0 0 17 23 17 17 23 17 154 121 189 255 226 166 255 226 166 154 121 189 154 121 189 154 121 189 154 121 189 255 226 166 255 226 166 17 23 17 0 0 0 0 0 0 0 0 0 0 0 0 0 0 0 0 0 0 0 0 0 0 0 0 0 0 0 0 0 0 0 0 0 0 0 0
0 0 0 0 0 0 0 0 0 0 0 0 0 0 0 0 0 0 0 0 0 0 0 0 0 0 0 0 0 0 0 0 0 243 224 141 243 224 141 243 224 141 243 224 141 243 224 141 243 224 141 243 224 141 243 224 141 243 224 141 243 224 141 243 224 141 243 224 141 243 224 141 243 224 141 0 0 0 0 0 0 0 0 0 0 0 0 0 0 0 0 0 0 0 0 0 0 0 0 0 0 0 0 0 0 0 0 0
0 0 0 0 0 0 0 0 0 0 0 0 0 0 0 0 0 0 0 0 0 0 0 0 0 0 0 0 0 0 0 0 0 243 224 141 243 224 141 243 224 141 243 224 141 243 224 141 243 224 141 243 224 141 243 224 141 243 224 141 243 224 141 243 224 141 243 224 141 243 224 141 243 224 141 0 0 0 0 0 0 0 0 0 0 0 0 0 0 0 0 0 0 0 0 0 0 0 0 0 0 0 0 0 0 0 0 0
0 0 0 0 0 0 0 0 0 0 0 0 0 0 0 0 0 0 0 0 0 0 0 0 0 0 0 0 0 0 17 23 17 17 23 17 17 23 17 122 82 163 122 82 163 122 82 163 122 82 163 122 82 163 122 82 163 122 82 163 122 82 163 122 82 163 122 82 163 17 23 17 17 23 17 17 23 17 0 0 0 0 0 0 0 0 0 0 0 0 0 0 0 0 0 0 0 0 0 0 0 0 0 0 0 0 0 0
0 0 0 0 0 0 0 0 0 0 0 0 0 0 0 0 0 0 0 0 0 0 0 0 0 0 0 0 0 0 17 23 17 17 23 17 17 23 17 122 82 163 122 82 163 122 82 163 122 82 163 122 82 163 122 82 163 122 82 163 122 82 163 122 82 163 122 82 163 17 23 17 17 23 17 17 23 17 0 0 0 0 0 0 0 0 0 0 0 0 0 0 0 0 0 0 0 0 0 0 0 0 0 0 0 0 0 0
0 0 0 0 0 0 0 0 0 0 0 0 0 0 0 0 0 0 0 0 0 0 0 0 0 0 0 0 0 0 208 162 255 208 162 255 208 162 255 208 162 255 208 162 255 208 162 255 208 162 255 208 162 255 208 162 255 208 162 255 208 162 255 208 162 255 208 162 255 208 162 255 208 162 255 208 162 255 0 0 0 0 0 0 0 0 0 0 0 0 0 0 0 0 0 0 0 0 0 0 0 0 0 0 0 0 0 0
0 0 0 0 0 0 0 0 0 0 0 0 0 0 0 0 0 0 0 0 0 0 0 0 58 36 72 58 36 72 58 36 72 58 36 72 58 36 72 208 162 255 208 162 255 208 162 255 208 162 255 208 162 255 208 162 255 208 162 255 208 162 255 208 162 255 208 162 255 58 36 72 58 36 72 58 36 72 58 36 72 58 36 72 0 0 0 0 0 0 0 0 0 0 0 0 0 0 0 0 0 0 0 0 0 0 0 0
0 0 0 0 0 0 0 0 0 0 0 0 0 0 0 0 0 0 0 0 0 0 0 0 58 36 72 58 36 72 58 36 72 58 36 72 58 36 72 208 162 255 208 162 255 208 162 255 208 162 255 208 162 255 208 162 255 208 162 255 208 162 255 208 162 255 208 162 255 58 36 72 58 36 72 58 36 72 58 36 72 58 36 72 0 0 0 0 0 0 0 0 0 0 0 0 0 0 0 0 0 0 0 0 0 0 0 0
0 0 0 0 0 0 0 0 0 0 0 0 0 0 0 0 0 0 0 0 0 0 0 0 58 36 72 58 36 72 58 36 72 58 36 72 58 36 72 208 162 255 208 162 255 208 162 255 208 162 255 208 162 255 208 162 255 208 162 255 208 162 255 208 162 255 208 162 255 58 36 72 58 36 72 58 36 72 58 36 72 58 36 72 0 0 0 0 0 0 0 0 0 0 0 0 0 0 0 0 0 0 0 0 0 0 0 0
0 0 0 0 0 0 0 0 0 0 0 0 0 0 0 0 0 0 0 0 0 0 0 0 58 36 72 58 36 72 58 36 72 58 36 72 58 36 72 122 82 163 122 82 163 122 82 163 122 82 163 122 82 163 122 82 163 122 82 163 122 82 163 122 82 163 122 82 163 58 36 72 58 36 72 58 36 72 58 36 72 58 36 72 0 0 0 0 0 0 0 0 0 0 0 0 0 0 0 0 0 0 0 0 0 0 0 0
0 0 0 0 0 0 0 0 0 0 0 0 0 0 0 0 0 0 0 0 0 0 0 0 58 36 72 58 36 72 58 36 72 58 36 72 58 36 72 12 17 14 12 17 14 12 17 14 12 17 14 12 17 14 12 17 14 12 17 14 12 17 14 12 17 14 12 17 14 58 36 72 58 36 72 58 36 72 58 36 72 58 36 72 0 0 0 0 0 0 0 0 0 0 0 0 0 0 0 0 0 0 0 0 0 0 0 0
0 0 0 0 0 0 0 0 0 0 0 0 0 0 0 0 0 0 0 0 0 0 0 0 58 36 72 58 36 72 58 36 72 58 36 72 58 36 72 12 17 14 12 17 14 12 17 14 12 17 14 12 17 14 12 17 14 12 17 14 12 17 14 12 17 14 12 17 14 58 36 72 58 36 72 58 36 72 58 36 72 58 36 72 0 0 0 0 0 0 0 0 0 0 0 0 0 0 0 0 0 0 0 0 0 0 0 0
0 0 0 0 0 0 0 0 0 0 0 0 0 0 0 0 0 0 0 0 0 0 0 0 58 36 72 58 36 72 58 36 72 58 36 72 58 36 72 122 82 163 122 82 163 122 82 163 122 82 163 122 82 163 122 82 163 122 82 163 122 82 163 122 82 163 122 82 163 58 36 72 58 36 72 58 36 72 58 36 72 58 36 72 0 0 0 0 0 0 0 0 0 0 0 0 0 0 0 0 0 0 0 0 0 0 0 0
0 0 0 0 0 0 0 0 0 0 0 0 0 0 0 0 0 0 106 125 141 106 125 141 58 36 72 58 36 72 58 36 72 58 36 72 58 36 72 122 82 163 122 82 163 122 82 163 122 82 163 122 82 163 122 82 163 122 82 163 122 82 163 122 82 163 122 82 163 58 36 72 58 36 72 58 36 72 58 36 72 58 36 72 106 125 141 106 125 141 0 0 0 0 0 0 0 0 0 0 0 0 0 0 0 0 0 0
0 0 0 0 0 0 0 0 0 0 0 0 0 0 0 0 0 0 106 125 141 106 125 141 58 36 72 58 36 72 58 36 72 58 36 72 58 36 72 122 82 163 122 82 163 122 82 163 122 82 163 122 82 163 122 82 163 122 82 163 122 82 163 122 82 163 122 82 163 58 36 72 58 36 72 58 36 72 58 36 72 58 36 72 106 125 141 106 125 141 0 0 0 0 0 0 0 0 0 0 0 0 0 0 0 0 0 0
0 0 0 0 0 0 0 0 0 0 0 0 0 0 0 0 0 0 106 125 141 106 125 141 58 36 72 58 36 72 58 36 72 58 36 72 58 36 72 122 82 163 122 82 163 122 82 163 122 82 163 122 82 163 122 82 163 122 82 163 122 82 163 122 82 163 122 82 163 58 36 72 58 36 72 58 36 72 58 36 72 58 36 72 106 125 141 106 125 141 0 0 0 0 0 0 0 0 0 0 0 0 0 0 0 0 0 0
0 0 0 0 0 0 0 0 0 0 0 0 0 0 0 0 0 0 106 125 141 106 125 141 58 36 72 58 36 72 58 36 72 58 36 72 58 36 72 122 82 163 122 82 163 122 82 163 122 82 163 122 82 163 122 82 163 122 82 163 122 82 163 122 82 163 122 82 163 58 36 72 58 36 72 58 36 72 58 36 72 58 36 72 106 125 141 106 125 141 0 0 0 0 0 0 0 0 0 0 0 0 0 0 0 0 0 0
0 0 0 0 0 0 0 0 0 0 0 0 0 0 0 0 0 0 106 125 141 106 125 141 58 36 72 58 36 72 58 36 72 58 36 72 58 36 72 122 82 163 122 82 163 122 82 163 122 82 163 122 82 163 122 82 163 122 82 163 122 82 163 122 82 163 122 82 163 58 36 72 58 36 72 58 36 72 58 36 72 58 36 72 106 125 141 106 125 141 0 0 0 0 0 0 0 0 0 0 0 0 0 0 0 0 0 0
0 0 0 0 0 0 0 0 0 0 0 0 0 0 0 0 0 0 106 125 141 106 125 141 106 125 141 106 125 141 17 23 17 17 23 17 17 23 17 122 82 163 122 82 163 122 82 163 122 82 163 122 82 163 122 82 163 122 82 163 122 82 163 122 82 163 122 82 163 17 23 17 17 23 17 17 23 17 106 125 141 106 125 141 106 125 141 106 125 141 0 0 0 0 0 0 0 0 0 0 0 0 0 0 0 0 0 0
0 0 0 0 0 0 0 0 0 0 0 0 0 0 0 0 0 0 0 0 0 0 0 0 0 0 0 0 0 0 17 23 17 17 23 17 58 36 72 58 36 72 58 36 72 58 36 72 17 23 17 17 23 17 17 23 17 17 23 17 58 36 72 58 36 72 58 36 72 58 36 72 17 23 17 17 23 17 0 0 0 0 0 0 0 0 0 0 0 0 0 0 0 0 0 0 0 0 0 0 0 0 0 0 0 0 0 0
0 0 0 0 0 0 0 0 0 0 0 0 0 0 0 0 0 0 0 0 0 0 0 0 0 0 0 0 0 0 17 23 17 17 23 17 58 36 72 58 36 72 58 36 72 58 36 72 17 23 17 17 23 17 17 23 17 17 23 17 58 36 72 58 36 72 58 36 72 58 36 72 17 23 17 17 23 17 0 0 0 0 0 0 0 0 0 0 0 0 0 0 0 0 0 0 0 0 0 0 0 0 0 0 0 0 0 0
0 0 0 0 0 0 0 0 0 0 0 0 0 0 0 0 0 0 0 0 0 0 0 0 0 0 0 0 0 0 17 23 17 17 23 17 58 36 72 58 36 72 58 36 72 58 36 72 17 23 17 17 23 17 17 23 17 17 23 17 58 36 72 58 36 72 58 36 72 58 36 72 17 23 17 17 23 17 0 0 0 0 0 0 0 0 0 0 0 0 0 0 0 0 0 0 0 0 0 0 0 0 0 0 0 0 0 0
0 0 0 0 0 0 0 0 0 0 0 0 0 0 0 0 0 0 0 0 0 0 0 0 0 0 0 0 0 0 17 23 17 17 23 17 58 36 72 58 36 72 58 36 72 58 36 72 17 23 17 17 23 17 17 23 17 17 23 17 58 36 72 58 36 72 58 36 72 58 36 72 17 23 17 17 23 17 0 0 0 0 0 0 0 0 0 0 0 0 0 0 0 0 0 0 0 0 0 0 0 0 0 0 0 0 0 0
0 0 0 0 0 0 0 0 0 0 0 0 0 0 0 0 0 0 0 0 0 0 0 0 0 0 0 0 0 0 17 23 17 17 23 17 58 36 72 58 36 72 58 36 72 58 36 72 17 23 17 17 23 17 17 23 17 17 23 17 58 36 72 58 36 72 58 36 72 58 36 72 17 23 17 17 23 17 0 0 0 0 0 0 0 0 0 0 0 0 0 0 0 0 0 0 0 0 0 0 0 0 0 0 0 0 0 0
0 0 0 0 0 0 0 0 0 0 0 0 0 0 0 0 0 0 0 0 0 0 0 0 0 0 0 0 0 0 0 0 0 0 0 0 58 36 72 58 36 72 58 36 72 58 36 72 0 0 0 0 0 0 241 210 116 0 0 0 58 36 72 58 36 72 58 36 72 58 36 72 0 0 0 0 0 0 0 0 0 0 0 0 0 0 0 0 0 0 0 0 0 0 0 0 0 0 0 0 0 0 0 0 0 0 0 0
0 0 0 0 0 0 0 0 0 0 0 0 0 0 0 0 0 0 0 0 0 0 0 0 0 0 0 0 0 0 0 0 0 241 210 116 58 36 72 58 36 72 58 36 72 58 36 72 241 210 116 241 210 116 241 210 116 241 210 116 58 36 72 58 36 72 58 36 72 58 36 72 241 210 116 241 210 116 0 0 0 0 0 0 0 0 0 0 0 0 0 0 0 0 0 0 0 0 0 0 0 0 0 0 0 0 0 0
0 0 0 0 0 0 0 0 0 0 0 0 0 0 0 0 0 0 0 0 0 0 0 0 241 210 116 241 210 116 241 210 116 241 210 116 241 210 116 241 210 116 241 210 116 241 210 116 241 210 116 241 210 116 32 38 31 241 210 116 241 210 116 241 210 116 241 210 116 241 210 116 241 210 116 241 210 116 241 210 116 241 210 116 241 210 116 0 0 0 0 0 0 0 0 0 0 0 0 0 0 0 0 0 0 0 0 0
0 0 0 0 0 0 0 0 0 0 0 0 8 11 9 8 11 9 8 11 9 241 210 116 241 210 116 241 210 116 241 210 116 241 210 116 241 210 116 32 38 31 32 38 31 32 38 31 32 38 31 32 38 31 32 38 31 32 38 31 32 38 31 32 38 31 32 38 31 32 38 31 241 210 116 241 210 116 241 210 116 241 210 116 241 210 116 241 210 116 8 11 9 8 11 9 8 11 9 0 0 0 0 0 0 0 0 0
0 0 0 0 0 0 8 11 9 8 11 9 8 11 9 8 11 9 241 210 116 241 210 116 241 210 116 241 210 116 241 210 116 32 38 31 32 38 31 32 38 31 32 38 31 32 38 31 32 38 31 32 38 31 32 38 31 32 38 31 32 38 31 32 38 31 32 38 31 32 38 31 32 38 31 32 38 31 241 210 116 241 210 116 241 210 116 241 210 116 241 210 116 8 11 9 8 11 9 8 11 9 8 11 9 0 0 0
0 0 0 8 11 9 8 11 9 8 11 9 8 11 9 241 210 116 241 210 116 241 210 116 241 210 116 241 210 116 32 38 31 32 38 31 32 38 31 32 38 31 32 38 31 32 38 31 32 38 31 32 38 31 32 38 31 32 38 31 32 38 31 32 38 31 32 38 31 32 38 31 32 38 31 32 38 31 32 38 31 241 210 116 241 210 116 241 210 116 241 210 116 241 210 116 8 11 9 8 11 9 8 11 9 8 11 9
8 11 9 8 11 9 8 11 9 8 11 9 8 11 9 8 11 9 241 210 116 241 210 116 241 210 116 241 210 116 241 210 116 32 38 31 32 38 31 32 38 31 32 38 31 32 38 31 32 38 31 32 38 31 32 38 31 32 38 31 32 38 31 32 38 31 32 38 31 32 38 31 32 38 31 32 38 31 241 210 116 241 210 116 241 210 116 241 210 116 241 210 116 8 11 9 8 11 9 8 11 9 8 11 9 8 11 9
0 0 0 8 11 9 8 11 9 8 11 9 8 11 9 8 11 9 8 11 9 241 210 116 241 210 116 241 210 116 241 210 116 241 210 116 241 210 116 32 38 31 32 38 31 32 38 31 32 38 31 32 38 31 32 38 31 32 38 31 32 38 31 32 38 31 32 38 31 32 38 31 241 210 116 241 210 116 241 210 116 241 210 116 241 210 116 241 210 116 8 11 9 8 11 9 8 11 9 8 11 9 8 11 9 8 11 9
0 0 0 0 0 0 8 11 9 8 11 9 8 11 9 8 11 9 8 11 9 8 11 9 241 210 116 241 210 116 241 210 116 241 210 116 241 210 116 241 210 116 241 210 116 241 210 116 241 210 116 241 210 116 32 38 31 241 210 116 241 210 116 241 210 116 241 210 116 241 210 116 241 210 116 241 210 116 241 210 116 241 210 116 241 210 116 8 11 9 8 11 9 8 11 9 8 11 9 8 11 9 8 11 9 0 0 0
0 0 0 0 0 0 0 0 0 0 0 0 8 11 9 8 11 9 8 11 9 8 11 9 8 11 9 8 11 9 8 11 9 241 210 116 241 210 116 241 210 116 241 210 116 241 210 116 241 210 116 241 210 116 241 210 116 241 210 116 241 210 116 241 210 116 241 210 116 241 210 116 241 210 116 241 210 116 8 11 9 8 11 9 8 11 9 8 11 9 8 11 9 8 11 9 8 11 9 0 0 0 0 0 0 0 0 0
