P3
32 48
255
0 0 0 0 0 0 0 0 0 0 0 0 0 0 0 0 0 0 0 0 0 0 0 0 0 0 0 0 0 0 0 0 0 0 0 0 0 0 0 0 0 0 0 0 0 0 0 0 0 0 0 0 0 0 0 0 0 0 0 0 0 0 0 0 0 0 0 0 0 0 0 0 0 0 0 0 0 0 0 0 0 0 0 0 0 0 0 0 0 0 0 0 0 0 0 0
0 0 0 0 0 0 0 0 0 0 0 0 0 0 0 0 0 0 0 0 0 0 0 0 0 0 0 0 0 0 0 0 0 0 0 0 0 0 0 0 0 0 0 0 0 0 0 0 0 0 0 0 0 0 0 0 0 0 0 0 0 0 0 0 0 0 0 0 0 0 0 0 0 0 0 0 0 0 0 0 0 0 0 0 0 0 0 0 0 0 0 0 0 0 0 0
0 0 0 0 0 0 0 0 0 0 0 0 0 0 0 0 0 0 0 0 0 0 0 0 0 0 0 0 0 0 0 0 0 0 0 0 0 0 0 0 0 0 0 0 0 0 0 0 0 0 0 0 0 0 0 0 0 0 0 0 0 0 0 0 0 0 0 0 0 0 0 0 0 0 0 0 0 0 0 0 0 0 0 0 0 0 0 0 0 0 0 0 0 0 0 0
0 0 0 0 0 0 0 0 0 0 0 0 0 0 0 0 0 0 0 0 0 0 0 0 0 0 0 0 0 0 0 0 0 0 0 0 0 0 0 0 0 0 0 0 0 0 0 0 0 0 0 0 0 0 0 0 0 0 0 0 0 0 0 0 0 0 0 0 0 0 0 0 0 0 0 0 0 0 0 0 0 0 0 0 0 0 0 0 0 0 0 0 0 0 0 0
0 0 0 0 0 0 0 0 0 0 0 0 0 0 0 0 0 0 0 0 0 0 0 0 0 0 0 0 0 0 0 0 0 0 0 0 0 0 0 0 0 0 0 0 0 0 0 0 0 0 0 0 0 0 0 0 0 0 0 0 0 0 0 0 0 0 0 0 0 0 0 0 0 0 0 0 0 0 0 0 0 0 0 0 0 0 0 0 0 0 0 0 0 0 0 0
0 0 0 0 0 0 0 0 0 0 0 0 0 0 0 0 0 0 0 0 0 0 0 0 0 0 0 0 0 0 0 0 0 0 0 0 0 0 0 0 0 0 0 0 0 0 0 0 0 0 0 0 0 0 0 0 0 0 0 0 0 0 0 0 0 0 0 0 0 0 0 0 0 0 0 0 0 0 0 0 0 0 0 0 0 0 0 0 0 0 0 0 0 0 0 0
0 0 0 0 0 0 0 0 0 0 0 0 0 0 0 0 0 0 0 0 0 0 0 0 0 0 0 0 0 0 0 0 0 232 224 189 232 224 189 232 224 189 232 224 189 232 224 189 232 224 189 232 224 189 232 224 189 232 224 189 232 224 189 0 0 0 0 0 0 0 0 0 0 0 0 0 0 0 0 0 0 0 0 0 0 0 0 0 0 0 0 0 0 0 0 0
0 0 0 0 0 0 0 0 0 0 0 0 0 0 0 0 0 0 0 0 0 0 0 0 0 0 0 0 0 0 0 0 0 232 224 189 232 224 189 232 224 189 232 224 189 232 224 189 232 224 189 232 224 189 232 224 189 232 224 189 232 224 189 0 0 0 0 0 0 0 0 0 0 0 0 0 0 0 0 0 0 0 0 0 0 0 0 0 0 0 0 0 0 0 0 0
0 0 0 0 0 0 0 0 0 0 0 0 0 0 0 0 0 0 0 0 0 0 0 0 0 0 0 0 0 0 0 0 0 232 224 189 232 224 189 232 224 189 232 224 189 232 224 189 232 224 189 232 224 189 232 224 189 232 224 189 232 224 189 0 0 0 0 0 0 0 0 0 0 0 0 0 0 0 0 0 0 0 0 0 0 0 0 0 0 0 0 0 0 0 0 0
0 0 0 0 0 0 0 0 0 0 0 0 0 0 0 0 0 0 0 0 0 0 0 0 0 0 0 0 0 0 17 23 17 17 23 17 17 23 17 17 23 17 17 23 17 17 23 17 17 23 17 17 23 17 17 23 17 17 23 17 17 23 17 17 23 17 0 0 0 0 0 0 0 0 0 0 0 0 0 0 0 0 0 0 0 0 0 0 0 0 0 0 0 0 0 0
0 0 0 0 0 0 0 0 0 0 0 0 0 0 0 0 0 0 0 0 0 0 0 0 0 0 0 0 0 0 17 23 17 17 23 17 202 168 120 202 168 120 202 168 120 202 168 120 202 168 120 202 168 120 202 168 120 202 168 120 17 23 17 17 23 17 0 0 0 0 0 0 0 0 0 0 0 0 0 0 0 0 0 0 0 0 0 0 0 0 0 0 0 0 0 0
0 0 0 0 0 0 0 0 0 0 0 0 0 0 0 0 0 0 0 0 0 0 0 0 0 0 0 0 0 0 17 23 17 17 23 17 202 168 120 202 168 120 202 168 120 202 168 120 202 168 120 202 168 120 202 168 120 202 168 120 17 23 17 17 23 17 0 0 0 0 0 0 0 0 0 0 0 0 0 0 0 0 0 0 0 0 0 0 0 0 0 0 0 0 0 0
0 0 0 0 0 0 0 0 0 0 0 0 0 0 0 0 0 0 0 0 0 0 0 0 0 0 0 0 0 0 17 23 17 17 23 17 202 168 120 202 168 120 202 168 120 202 168 120 202 168 120 202 168 120 202 168 120 202 168 120 17 23 17 17 23 17 0 0 0 0 0 0 0 0 0 0 0 0 0 0 0 0 0 0 0 0 0 0 0 0 0 0 0 0 0 0
0 0 0 0 0 0 0 0 0 0 0 0 0 0 0 0 0 0 155 238 166 155 238 166 155 238 166 155 238 166 17 23 17 17 23 17 202 168 120 202 168 120 202 168 120 202 168 120 202 168 120 202 168 120 155 238 166 155 238 166 155 238 166 155 238 166 0 0 0 0 0 0 0 0 0 0 0 0 0 0 0 0 0 0 0 0 0 0 0 0 0 0 0 0 0 0
0 0 0 0 0 0 0 0 0 0 0 0 0 0 0 0 0 0 155 238 166 155 238 166 155 238 166 155 238 166 17 23 17 17 23 17 155 238 166 155 238 166 155 238 166 155 238 166 202 168 120 202 168 120 155 238 166 155 238 166 155 238 166 155 238 166 0 0 0 0 0 0 155 238 166 155 238 166 155 238 166 155 238 166 0 0 0 0 0 0 0 0 0 0 0 0
0 0 0 0 0 0 0 0 0 0 0 0 0 0 0 0 0 0 0 0 0 0 0 0 0 0 0 243 224 141 243 224 141 243 224 141 155 238 166 155 238 166 155 238 166 155 238 166 243 224 141 243 224 141 243 224 141 243 224 141 243 224 141 243 224 141 243 224 141 0 0 0 155 238 166 155 238 166 155 238 166 155 238 166 0 0 0 0 0 0 0 0 0 0 0 0
0 0 0 0 0 0 0 0 0 0 0 0 0 0 0 0 0 0 0 0 0 0 0 0 0 0 0 243 224 141 243 224 141 243 224 141 243 224 141 243 224 141 243 224 141 243 224 141 243 224 141 243 224 141 243 224 141 243 224 141 243 224 141 243 224 141 243 224 141 0 0 0 0 0 0 0 0 0 0 0 0 0 0 0 0 0 0 0 0 0 0 0 0 0 0 0
0 0 0 0 0 0 0 0 0 0 0 0 0 0 0 0 0 0 0 0 0 0 0 0 17 23 17 17 23 17 17 23 17 95 127 180 95 127 180 95 127 180 95 127 180 95 127 180 95 127 180 95 127 180 95 127 180 95 127 180 95 127 180 17 23 17 17 23 17 17 23 17 0 0 0 0 0 0 0 0 0 0 0 0 0 0 0 0 0 0 0 0 0 0 0 0
0 0 0 0 0 0 0 0 0 0 0 0 0 0 0 0 0 0 0 0 0 0 0 0 17 23 17 17 23 17 17 23 17 95 127 180 95 127 180 95 127 180 95 127 180 95 127 180 95 127 180 95 127 180 95 127 180 95 127 180 95 127 180 17 23 17 17 23 17 17 23 17 0 0 0 0 0 0 0 0 0 0 0 0 0 0 0 0 0 0 0 0 0 0 0 0
0 0 0 0 0 0 0 0 0 0 0 0 168 216 255 168 216 255 168 216 255 168 216 255 168 216 255 168 216 255 168 216 255 168 216 255 168 216 255 168 216 255 168 216 255 168 216 255 168 216 255 168 216 255 168 216 255 168 216 255 168 216 255 168 216 255 168 216 255 168 216 255 0 0 0 0 0 0 0 0 0 0 0 0 0 0 0 0 0 0 0 0 0 0 0 0
0 0 0 0 0 0 0 0 0 0 0 0 168 216 255 168 216 255 168 216 255 168 216 255 168 216 255 168 216 255 168 216 255 168 216 255 168 216 255 168 216 255 168 216 255 168 216 255 168 216 255 168 216 255 168 216 255 168 216 255 168 216 255 168 216 255 168 216 255 168 216 255 232 224 189 232 224 189 232 224 189 0 0 0 0 0 0 0 0 0 0 0 0 0 0 0
0 0 0 0 0 0 0 0 0 0 0 0 168 216 255 168 216 255 168 216 255 168 216 255 168 216 255 168 216 255 168 216 255 168 216 255 168 216 255 168 216 255 168 216 255 168 216 255 168 216 255 168 216 255 168 216 255 168 216 255 168 216 255 168 216 255 168 216 255 168 216 255 232 224 189 232 224 189 232 224 189 0 0 0 0 0 0 0 0 0 0 0 0 0 0 0
0 0 0 0 0 0 0 0 0 0 0 0 168 216 255 95 127 180 95 127 180 95 127 180 168 216 255 168 216 255 168 216 255 168 216 255 168 216 255 168 216 255 168 216 255 168 216 255 168 216 255 168 216 255 168 216 255 168 216 255 168 216 255 168 216 255 168 216 255 168 216 255 232 224 189 232 224 189 232 224 189 0 0 0 0 0 0 0 0 0 0 0 0 0 0 0
0 0 0 0 0 0 0 0 0 0 0 0 168 216 255 95 127 180 95 127 180 95 127 180 168 216 255 17 23 17 17 23 17 95 127 180 95 127 180 95 127 180 95 127 180 95 127 180 95 127 180 95 127 180 95 127 180 95 127 180 95 127 180 17 23 17 17 23 17 17 23 17 232 224 189 232 224 189 232 224 189 0 0 0 0 0 0 0 0 0 0 0 0 0 0 0
0 0 0 0 0 0 0 0 0 0 0 0 168 216 255 95 127 180 95 127 180 95 127 180 168 216 255 12 17 14 12 17 14 12 17 14 12 17 14 12 17 14 12 17 14 12 17 14 12 17 14 12 17 14 12 17 14 12 17 14 12 17 14 12 17 14 12 17 14 12 17 14 232 224 189 232 224 189 232 224 189 0 0 0 0 0 0 0 0 0 0 0 0 0 0 0
0 0 0 0 0 0 0 0 0 0 0 0 168 216 255 95 127 180 95 127 180 95 127 180 168 216 255 12 17 14 12 17 14 12 17 14 12 17 14 12 17 14 12 17 14 12 17 14 12 17 14 12 17 14 12 17 14 12 17 14 12 17 14 12 17 14 12 17 14 12 17 14 232 224 189 232 224 189 232 224 189 0 0 0 0 0 0 0 0 0 0 0 0 0 0 0
0 0 0 0 0 0 0 0 0 0 0 0 168 216 255 95 127 180 95 127 180 95 127 180 168 216 255 17 23 17 17 23 17 95 127 180 95 127 180 95 127 180 95 127 180 95 127 180 95 127 180 95 127 180 95 127 180 95 127 180 95 127 180 17 23 17 17 23 17 17 23 17 232 224 189 232 224 189 232 224 189 0 0 0 0 0 0 0 0 0 0 0 0 0 0 0
0 0 0 0 0 0 0 0 0 0 0 0 168 216 255 95 127 180 95 127 180 95 127 180 168 216 255 17 23 17 17 23 17 95 127 180 95 127 180 95 127 180 95 127 180 95 127 180 95 127 180 95 127 180 95 127 180 95 127 180 95 127 180 17 23 17 17 23 17 17 23 17 232 224 189 232 224 189 232 224 189 106 125 141 0 0 0 0 0 0 0 0 0 0 0 0
0 0 0 0 0 0 0 0 0 0 0 0 168 216 255 95 127 180 95 127 180 95 127 180 168 216 255 17 23 17 17 23 17 95 127 180 95 127 180 95 127 180 95 127 180 95 127 180 95 127 180 95 127 180 95 127 180 95 127 180 95 127 180 17 23 17 17 23 17 17 23 17 232 224 189 232 224 189 232 224 189 106 125 141 0 0 0 0 0 0 0 0 0 0 0 0
0 0 0 0 0 0 0 0 0 0 0 0 168 216 255 168 216 255 168 216 255 168 216 255 168 216 255 17 23 17 17 23 17 95 127 180 95 127 180 95 127 180 95 127 180 95 127 180 95 127 180 95 127 180 95 127 180 95 127 180 95 127 180 17 23 17 17 23 17 17 23 17 232 224 189 232 224 189 232 224 189 106 125 141 0 0 0 0 0 0 0 0 0 0 0 0
0 0 0 0 0 0 0 0 0 0 0 0 168 216 255 168 216 255 168 216 255 168 216 255 168 216 255 17 23 17 17 23 17 95 127 180 95 127 180 95 127 180 95 127 180 95 127 180 95 127 180 95 127 180 95 127 180 95 127 180 95 127 180 17 23 17 17 23 17 17 23 17 232 224 189 232 224 189 232 224 189 106 125 141 0 0 0 0 0 0 0 0 0 0 0 0
0 0 0 0 0 0 0 0 0 0 0 0 168 216 255 168 216 255 168 216 255 168 216 255 168 216 255 17 23 17 17 23 17 95 127 180 95 127 180 95 127 180 95 127 180 95 127 180 95 127 180 95 127 180 95 127 180 95 127 180 95 127 180 17 23 17 17 23 17 17 23 17 232 224 189 232 224 189 232 224 189 106 125 141 0 0 0 0 0 0 0 0 0 0 0 0
0 0 0 0 0 0 0 0 0 0 0 0 106 125 141 106 125 141 106 125 141 106 125 141 17 23 17 17 23 17 17 23 17 95 127 180 95 127 180 95 127 180 95 127 180 95 127 180 95 127 180 95 127 180 95 127 180 95 127 180 95 127 180 17 23 17 17 23 17 17 23 17 232 224 189 232 224 189 232 224 189 106 125 141 0 0 0 0 0 0 0 0 0 0 0 0
0 0 0 0 0 0 0 0 0 0 0 0 0 0 0 0 0 0 0 0 0 0 0 0 17 23 17 17 23 17 47 57 80 47 57 80 47 57 80 47 57 80 17 23 17 17 23 17 17 23 17 17 23 17 47 57 80 47 57 80 47 57 80 47 57 80 17 23 17 17 23 17 232 224 189 232 224 189 232 224 189 0 0 0 0 0 0 0 0 0 0 0 0 0 0 0
0 0 0 0 0 0 0 0 0 0 0 0 0 0 0 0 0 0 0 0 0 0 0 0 17 23 17 17 23 17 47 57 80 47 57 80 47 57 80 47 57 80 17 23 17 17 23 17 17 23 17 17 23 17 47 57 80 47 57 80 47 57 80 47 57 80 17 23 17 17 23 17 232 224 189 232 224 189 232 224 189 0 0 0 0 0 0 0 0 0 0 0 0 0 0 0
0 0 0 0 0 0 0 0 0 0 0 0 0 0 0 0 0 0 0 0 0 0 0 0 17 23 17 17 23 17 47 57 80 47 57 80 47 57 80 47 57 80 17 23 17 17 23 17 17 23 17 17 23 17 47 57 80 47 57 80 47 57 80 47 57 80 17 23 17 17 23 17 232 224 189 232 224 189 232 224 189 0 0 0 0 0 0 0 0 0 0 0 0 0 0 0
0 0 0 0 0 0 0 0 0 0 0 0 0 0 0 0 0 0 0 0 0 0 0 0 17 23 17 17 23 17 47 57 80 47 57 80 47 57 80 47 57 80 17 23 17 17 23 17 17 23 17 17 23 17 47 57 80 47 57 80 47 57 80 47 57 80 17 23 17 17 23 17 232 224 189 232 224 189 232 224 189 0 0 0 0 0 0 0 0 0 0 0 0 0 0 0
0 0 0 0 0 0 0 0 0 0 0 0 0 0 0 0 0 0 0 0 0 0 0 0 17 23 17 17 23 17 47 57 80 47 57 80 47 57 80 47 57 80 17 23 17 17 23 17 17 23 17 17 23 17 47 57 80 47 57 80 47 57 80 47 57 80 17 23 17 17 23 17 0 0 0 0 0 0 0 0 0 0 0 0 0 0 0 0 0 0 0 0 0 0 0 0
0 0 0 0 0 0 0 0 0 0 0 0 0 0 0 0 0 0 0 0 0 0 0 0 0 0 0 0 0 0 47 57 80 47 57 80 47 57 80 47 57 80 0 0 0 0 0 0 241 210 116 0 0 0 47 57 80 47 57 80 47 57 80 47 57 80 0 0 0 0 0 0 0 0 0 0 0 0 0 0 0 0 0 0 0 0 0 0 0 0 0 0 0 0 0 0
0 0 0 0 0 0 0 0 0 0 0 0 0 0 0 0 0 0 0 0 0 0 0 0 0 0 0 241 210 116 47 57 80 47 57 80 47 57 80 47 57 80 241 210 116 241 210 116 241 210 116 241 210 116 47 57 80 47 57 80 47 57 80 47 57 80 241 210 116 241 210 116 0 0 0 0 0 0 0 0 0 0 0 0 0 0 0 0 0 0 0 0 0 0 0 0
0 0 0 0 0 0 0 0 0 0 0 0 0 0 0 0 0 0 241 210 116 241 210 116 241 210 116 241 210 116 241 210 116 241 210 116 241 210 116 241 210 116 241 210 116 241 210 116 32 38 31 241 210 116 241 210 116 241 210 116 241 210 116 241 210 116 241 210 116 241 210 116 241 210 116 241 210 116 241 210 116 0 0 0 0 0 0 0 0 0 0 0 0 0 0 0
0 0 0 0 0 0 8 11 9 8 11 9 8 11 9 241 210 116 241 210 116 241 210 116 241 210 116 241 210 116 241 210 116 32 38 31 32 38 31 32 38 31 32 38 31 32 38 31 32 38 31 32 38 31 32 38 31 32 38 31 32 38 31 32 38 31 241 210 116 241 210 116 241 210 116 241 210 116 241 210 116 241 210 116 8 11 9 8 11 9 8 11 9 0 0 0
8 11 9 8 11 9 8 11 9 8 11 9 241 210 116 241 210 116 241 210 116 241 210 116 241 210 116 32 38 31 32 38 31 32 38 31 32 38 31 32 38 31 32 38 31 32 38 31 32 38 31 32 38 31 32 38 31 32 38 31 32 38 31 32 38 31 32 38 31 32 38 31 241 210 116 241 210 116 241 210 116 241 210 116 241 210 116 8 11 9 8 11 9 8 11 9
8 11 9 8 11 9 8 11 9 241 210 116 241 210 116 241 210 116 241 210 116 241 210 116 32 38 31 32 38 31 32 38 31 32 38 31 32 38 31 32 38 31 32 38 31 32 38 31 32 38 31 32 38 31 32 38 31 32 38 31 32 38 31 32 38 31 32 38 31 32 38 31 32 38 31 241 210 116 241 210 116 241 210 116 241 210 116 241 210 116 8 11 9 8 11 9
8 11 9 8 11 9 8 11 9 8 11 9 241 210 116 241 210 116 241 210 116 241 210 116 241 210 116 32 38 31 32 38 31 32 38 31 32 38 31 32 38 31 32 38 31 32 38 31 32 38 31 32 38 31 32 38 31 32 38 31 32 38 31 32 38 31 32 38 31 32 38 31 241 210 116 241 210 116 241 210 116 241 210 116 241 210 116 8 11 9 8 11 9 8 11 9
8 11 9 8 11 9 8 11 9 8 11 9 8 11 9 241 210 116 241 210 116 241 210 116 241 210 116 241 210 116 241 210 116 32 38 31 32 38 31 32 38 31 32 38 31 32 38 31 32 38 31 32 38 31 32 38 31 32 38 31 32 38 31 32 38 31 241 210 116 241 210 116 241 210 116 241 210 116 241 210 116 241 210 116 8 11 9 8 11 9 8 11 9 8 11 9
8 11 9 8 11 9 8 11 9 8 11 9 8 11 9 8 11 9 241 210 116 241 210 116 241 210 116 241 210 116 241 210 116 241 210 116 241 210 116 241 210 116 241 210 116 241 210 116 32 38 31 241 210 116 241 210 116 241 210 116 241 210 116 241 210 116 241 210 116 241 210 116 241 210 116 241 210 116 241 210 116 8 11 9 8 11 9 8 11 9 8 11 9 8 11 9
0 0 0 0 0 0 8 11 9 8 11 9 8 11 9 8 11 9 8 11 9 8 11 9 8 11 9 241 210 116 241 210 116 241 210 116 241 210 116 241 210 116 241 210 116 241 210 116 241 210 116 241 210 116 241 210 116 241 210 116 241 210 116 241 210 116 241 210 116 241 210 116 8 11 9 8 11 9 8 11 9 8 11 9 8 11 9 8 11 9 8 11 9 0 0 0
