P3
16 16
255
0 0 0 0 0 0 0 0 0 0 0 0 0 0 0 0 0 0 0 0 0 0 0 0 0 0 0 0 0 0 0 0 0 0 0 0 0 0 0 0 0 0 0 0 0 0 0 0
0 0 0 0 0 0 0 0 0 0 0 0 0 0 0 0 0 0 0 0 0 0 0 0 0 0 0 0 0 0 0 0 0 0 0 0 0 0 0 0 0 0 0 0 0 0 0 0
0 0 0 0 0 0 0 0 0 0 0 0 0 0 0 0 0 0 0 0 0 0 0 0 0 0 0 0 0 0 0 0 0 0 0 0 0 0 0 0 0 0 0 0 0 0 0 0
0 0 0 0 0 0 0 0 0 0 0 0 0 0 0 255 140 115 255 140 115 255 140 115 255 140 115 255 140 115 255 140 115 0 0 0 0 0 0 0 0 0 0 0 0 0 0 0
0 0 0 0 0 0 0 0 0 0 0 0 0 0 0 255 140 115 255 140 115 255 140 115 255 140 115 255 140 115 255 140 115 0 0 0 0 0 0 0 0 0 0 0 0 0 0 0
0 0 0 0 0 0 0 0 0 0 0 0 0 0 0 255 140 115 255 140 115 255 140 115 255 140 115 255 140 115 255 140 115 0 0 0 255 92 77 255 92 77 255 92 77 0 0 0
0 0 0 0 0 0 0 0 0 0 0 0 0 0 0 255 140 115 255 140 115 255 140 115 255 140 115 255 140 115 255 140 115 0 0 0 255 92 77 255 92 77 255 92 77 0 0 0
0 0 0 0 0 0 0 0 0 0 0 0 185 71 69 185 71 69 185 71 69 185 71 69 185 71 69 185 71 69 185 71 69 185 71 69 0 0 0 255 92 77 255 92 77 0 0 0
0 0 0 0 0 0 0 0 0 58 32 32 58 32 32 185 71 69 185 71 69 185 71 69 185 71 69 185 71 69 185 71 69 58 32 32 58 32 32 255 92 77 255 92 77 0 0 0
0 0 0 0 0 0 0 0 0 58 32 32 58 32 32 185 71 69 185 71 69 185 71 69 185 71 69 185 71 69 185 71 69 58 32 32 58 32 32 255 92 77 255 92 77 0 0 0
0 0 0 0 0 0 0 0 0 58 32 32 58 32 32 185 71 69 185 71 69 185 71 69 185 71 69 185 71 69 185 71 69 58 32 32 58 32 32 255 92 77 255 92 77 0 0 0
0 0 0 0 0 0 0 0 0 58 32 32 58 32 32 185 71 69 185 71 69 185 71 69 185 71 69 185 71 69 185 71 69 58 32 32 58 32 32 0 0 0 0 0 0 0 0 0
0 0 0 0 0 0 0 0 0 0 0 0 185 71 69 185 71 69 185 71 69 185 71 69 185 71 69 185 71 69 185 71 69 185 71 69 0 0 0 0 0 0 0 0 0 0 0 0
0 0 0 0 0 0 0 0 0 0 0 0 0 0 0 43 23 23 43 23 23 0 0 0 0 0 0 43 23 23 43 23 23 0 0 0 0 0 0 0 0 0 0 0 0 0 0 0
0 0 0 0 0 0 0 0 0 0 0 0 0 0 0 43 23 23 43 23 23 0 0 0 0 0 0 43 23 23 43 23 23 0 0 0 0 0 0 0 0 0 0 0 0 0 0 0
0 0 0 0 0 0 0 0 0 0 0 0 0 0 0 0 0 0 0 0 0 0 0 0 0 0 0 0 0 0 0 0 0 0 0 0 0 0 0 0 0 0 0 0 0 0 0 0
