P3
40 48
255
0 0 0 0 0 0 0 0 0 0 0 0 0 0 0 0 0 0 0 0 0 0 0 0 0 0 0 0 0 0 0 0 0 0 0 0 0 0 0 0 0 0 0 0 0 0 0 0 0 0 0 0 0 0 0 0 0 0 0 0 0 0 0 0 0 0 0 0 0 0 0 0 0 0 0 0 0 0 0 0 0 0 0 0 0 0 0 0 0 0 0 0 0 0 0 0 0 0 0 0 0 0 0 0 0 0 0 0 0 0 0 0 0 0 0 0 0 0 0 0
0 0 0 0 0 0 0 0 0 0 0 0 0 0 0 0 0 0 0 0 0 0 0 0 0 0 0 0 0 0 0 0 0 0 0 0 0 0 0 0 0 0 0 0 0 0 0 0 0 0 0 0 0 0 0 0 0 0 0 0 0 0 0 0 0 0 0 0 0 0 0 0 0 0 0 0 0 0 0 0 0 0 0 0 0 0 0 0 0 0 0 0 0 0 0 0 0 0 0 0 0 0 0 0 0 0 0 0 0 0 0 0 0 0 0 0 0 0 0 0
0 0 0 0 0 0 0 0 0 0 0 0 0 0 0 0 0 0 0 0 0 0 0 0 0 0 0 0 0 0 0 0 0 0 0 0 0 0 0 0 0 0 0 0 0 0 0 0 0 0 0 0 0 0 0 0 0 0 0 0 0 0 0 0 0 0 0 0 0 0 0 0 0 0 0 0 0 0 0 0 0 0 0 0 0 0 0 0 0 0 0 0 0 0 0 0 0 0 0 0 0 0 0 0 0 0 0 0 0 0 0 0 0 0 0 0 0 0 0 0
0 0 0 0 0 0 0 0 0 0 0 0 0 0 0 0 0 0 0 0 0 0 0 0 0 0 0 0 0 0 0 0 0 0 0 0 0 0 0 0 0 0 0 0 0 0 0 0 0 0 0 0 0 0 0 0 0 0 0 0 0 0 0 0 0 0 0 0 0 0 0 0 0 0 0 0 0 0 0 0 0 0 0 0 0 0 0 0 0 0 0 0 0 0 0 0 0 0 0 0 0 0 0 0 0 0 0 0 0 0 0 0 0 0 0 0 0 0 0 0
0 0 0 0 0 0 0 0 0 0 0 0 0 0 0 0 0 0 0 0 0 0 0 0 0 0 0 0 0 0 0 0 0 0 0 0 0 0 0 0 0 0 0 0 0 0 0 0 0 0 0 0 0 0 0 0 0 0 0 0 0 0 0 0 0 0 0 0 0 0 0 0 0 0 0 0 0 0 0 0 0 0 0 0 0 0 0 0 0 0 0 0 0 0 0 0 0 0 0 0 0 0 0 0 0 0 0 0 0 0 0 0 0 0 0 0 0 0 0 0
0 0 0 0 0 0 0 0 0 0 0 0 0 0 0 0 0 0 0 0 0 0 0 0 0 0 0 0 0 0 0 0 0 0 0 0 0 0 0 0 0 0 0 0 0 0 0 0 0 0 0 0 0 0 0 0 0 0 0 0 0 0 0 0 0 0 0 0 0 0 0 0 0 0 0 0 0 0 0 0 0 0 0 0 0 0 0 0 0 0 0 0 0 0 0 0 0 0 0 0 0 0 0 0 0 0 0 0 0 0 0 0 0 0 0 0 0 0 0 0
0 0 0 0 0 0 0 0 0 0 0 0 0 0 0 0 0 0 0 0 0 0 0 0 0 0 0 0 0 0 0 0 0 0 0 0 0 0 0 0 0 0 0 0 0 0 0 0 0 0 0 0 0 0 0 0 0 0 0 0 0 0 0 0 0 0 0 0 0 0 0 0 0 0 0 0 0 0 0 0 0 0 0 0 0 0 0 0 0 0 0 0 0 0 0 0 0 0 0 0 0 0 0 0 0 0 0 0 0 0 0 0 0 0 0 0 0 0 0 0
0 0 0 0 0 0 0 0 0 0 0 0 0 0 0 0 0 0 0 0 0 0 0 0 0 0 0 0 0 0 0 0 0 0 0 0 0 0 0 0 0 0 0 0 0 0 0 0 0 0 0 0 0 0 0 0 0 0 0 0 0 0 0 0 0 0 0 0 0 0 0 0 0 0 0 0 0 0 0 0 0 0 0 0 0 0 0 0 0 0 0 0 0 0 0 0 0 0 0 0 0 0 0 0 0 0 0 0 0 0 0 0 0 0 0 0 0 0 0 0
0 0 0 0 0 0 0 0 0 0 0 0 0 0 0 0 0 0 0 0 0 0 0 0 0 0 0 0 0 0 0 0 0 0 0 0 0 0 0 0 0 0 0 0 0 0 0 0 0 0 0 0 0 0 0 0 0 0 0 0 0 0 0 0 0 0 0 0 0 0 0 0 0 0 0 0 0 0 0 0 0 0 0 0 0 0 0 0 0 0 0 0 0 0 0 0 0 0 0 0 0 0 0 0 0 0 0 0 0 0 0 0 0 0 0 0 0 0 0 0
0 0 0 0 0 0 0 0 0 0 0 0 0 0 0 0 0 0 0 0 0 0 0 0 0 0 0 0 0 0 0 0 0 0 0 0 0 0 0 0 0 0 17 23 17 17 23 17 17 23 17 17 23 17 17 23 17 17 23 17 17 23 17 17 23 17 17 23 17 17 23 17 17 23 17 17 23 17 0 0 0 0 0 0 0 0 0 0 0 0 0 0 0 0 0 0 0 0 0 0 0 0 0 0 0 0 0 0 224 209 104 224 209 104 224 209 104 224 209 104
0 0 0 0 0 0 0 0 0 0 0 0 0 0 0 0 0 0 0 0 0 0 0 0 0 0 0 0 0 0 0 0 0 0 0 0 0 0 0 0 0 0 17 23 17 17 23 17 198 146 95 198 146 95 198 146 95 198 146 95 198 146 95 198 146 95 198 146 95 198 146 95 17 23 17 17 23 17 0 0 0 0 0 0 0 0 0 0 0 0 0 0 0 0 0 0 0 0 0 0 0 0 224 209 104 224 209 104 224 209 104 224 209 104 224 209 104 224 209 104
0 0 0 0 0 0 0 0 0 0 0 0 0 0 0 0 0 0 0 0 0 0 0 0 0 0 0 0 0 0 0 0 0 0 0 0 0 0 0 0 0 0 17 23 17 17 23 17 198 146 95 198 146 95 198 146 95 198 146 95 198 146 95 198 146 95 198 146 95 198 146 95 17 23 17 17 23 17 0 0 0 0 0 0 0 0 0 0 0 0 0 0 0 0 0 0 0 0 0 0 0 0 224 209 104 224 209 104 224 209 104 224 209 104 224 209 104 224 209 104
0 0 0 0 0 0 0 0 0 0 0 0 0 0 0 0 0 0 0 0 0 0 0 0 0 0 0 0 0 0 0 0 0 0 0 0 0 0 0 0 0 0 17 23 17 17 23 17 198 146 95 123 79 53 123 79 53 123 79 53 123 79 53 123 79 53 123 79 53 198 146 95 17 23 17 17 23 17 0 0 0 0 0 0 0 0 0 0 0 0 0 0 0 0 0 0 0 0 0 0 0 0 224 209 104 224 209 104 224 209 104 224 209 104 224 209 104 224 209 104
0 0 0 0 0 0 0 0 0 0 0 0 0 0 0 0 0 0 0 0 0 0 0 0 0 0 0 0 0 0 0 0 0 0 0 0 0 0 0 0 0 0 17 23 17 17 23 17 198 146 95 123 79 53 123 79 53 123 79 53 123 79 53 123 79 53 123 79 53 198 146 95 17 23 17 17 23 17 0 0 0 0 0 0 0 0 0 0 0 0 0 0 0 0 0 0 0 0 0 0 0 0 224 209 104 224 209 104 224 209 104 224 209 104 224 209 104 224 209 104
0 0 0 0 0 0 0 0 0 0 0 0 0 0 0 0 0 0 0 0 0 0 0 0 0 0 0 0 0 0 0 0 0 184 247 255 184 247 255 0 0 0 17 23 17 17 23 17 198 146 95 198 146 95 198 146 95 198 146 95 198 146 95 198 146 95 198 146 95 198 146 95 17 23 17 17 23 17 0 0 0 184 247 255 184 247 255 17 23 17 17 23 17 17 23 17 17 23 17 17 23 17 224 209 104 224 209 104 224 209 104 224 209 104 224 209 104 224 209 104
0 0 0 0 0 0 0 0 0 0 0 0 0 0 0 0 0 0 0 0 0 0 0 0 0 0 0 0 0 0 0 0 0 184 247 255 184 247 255 243 224 141 243 224 141 243 224 141 243 224 141 243 224 141 243 224 141 243 224 141 243 224 141 243 224 141 243 224 141 243 224 141 243 224 141 243 224 141 243 224 141 184 247 255 184 247 255 17 23 17 212 168 75 212 168 75 212 168 75 212 168 75 224 209 104 224 209 104 224 209 104 224 209 104 224 209 104 224 209 104
0 0 0 0 0 0 0 0 0 0 0 0 0 0 0 0 0 0 0 0 0 0 0 0 0 0 0 0 0 0 0 0 0 184 247 255 184 247 255 243 224 141 243 224 141 243 224 141 243 224 141 243 224 141 243 224 141 243 224 141 243 224 141 243 224 141 243 224 141 243 224 141 243 224 141 243 224 141 243 224 141 184 247 255 184 247 255 17 23 17 212 168 75 212 168 75 212 168 75 212 168 75 212 168 75 212 168 75 212 168 75 212 168 75 212 168 75 212 168 75
0 0 0 0 0 0 0 0 0 0 0 0 0 0 0 0 0 0 0 0 0 0 0 0 0 0 0 0 0 0 0 0 0 184 247 255 184 247 255 17 23 17 17 23 17 181 122 66 181 122 66 181 122 66 181 122 66 181 122 66 181 122 66 181 122 66 181 122 66 181 122 66 181 122 66 17 23 17 17 23 17 184 247 255 184 247 255 17 23 17 212 168 75 212 168 75 255 226 166 255 226 166 255 226 166 255 226 166 255 226 166 255 226 166 255 226 166 255 226 166
0 0 0 0 0 0 0 0 0 0 0 0 0 0 0 255 207 115 255 207 115 255 207 115 255 207 115 255 207 115 0 0 0 184 247 255 184 247 255 17 23 17 17 23 17 181 122 66 181 122 66 181 122 66 181 122 66 181 122 66 181 122 66 181 122 66 181 122 66 181 122 66 181 122 66 17 23 17 17 23 17 184 247 255 184 247 255 17 23 17 212 168 75 212 168 75 255 226 166 255 226 166 255 226 166 255 226 166 255 226 166 255 226 166 255 226 166 255 226 166
0 0 0 0 0 0 0 0 0 0 0 0 0 0 0 255 207 115 255 207 115 255 207 115 255 207 115 255 207 115 0 0 0 184 247 255 184 247 255 240 190 112 240 190 112 240 190 112 240 190 112 240 190 112 240 190 112 240 190 112 240 190 112 240 190 112 240 190 112 240 190 112 240 190 112 17 23 17 17 23 17 184 247 255 184 247 255 207 215 232 207 215 232 207 215 232 207 215 232 207 215 232 243 224 141 243 224 141 243 224 141 243 224 141 243 224 141 243 224 141
0 0 0 0 0 0 0 0 0 0 0 0 0 0 0 255 207 115 255 207 115 255 207 115 255 207 115 255 207 115 0 0 0 184 247 255 184 247 255 240 190 112 240 190 112 240 190 112 240 190 112 240 190 112 240 190 112 240 190 112 240 190 112 240 190 112 240 190 112 240 190 112 240 190 112 17 23 17 17 23 17 184 247 255 184 247 255 207 215 232 207 215 232 207 215 232 207 215 232 207 215 232 243 224 141 243 224 141 243 224 141 243 224 141 243 224 141 243 224 141
0 0 0 0 0 0 0 0 0 0 0 0 0 0 0 255 207 115 255 207 115 255 207 115 255 207 115 255 207 115 79 55 38 184 247 255 184 247 255 79 55 38 240 190 112 26 32 38 26 32 38 26 32 38 26 32 38 26 32 38 26 32 38 26 32 38 26 32 38 26 32 38 26 32 38 240 190 112 240 190 112 184 247 255 184 247 255 207 215 232 207 215 232 207 215 232 207 215 232 207 215 232 212 168 75 212 168 75 212 168 75 212 168 75 212 168 75 212 168 75
0 0 0 0 0 0 0 0 0 0 0 0 0 0 0 255 207 115 255 207 115 255 207 115 255 207 115 255 207 115 79 55 38 184 247 255 184 247 255 79 55 38 240 190 112 26 32 38 26 32 38 26 32 38 26 32 38 26 32 38 26 32 38 26 32 38 26 32 38 26 32 38 26 32 38 240 190 112 240 190 112 184 247 255 184 247 255 207 215 232 207 215 232 207 215 232 207 215 232 207 215 232 212 168 75 212 168 75 212 168 75 212 168 75 212 168 75 212 168 75
0 0 0 0 0 0 0 0 0 0 0 0 0 0 0 255 207 115 255 207 115 255 207 115 255 207 115 255 207 115 79 55 38 184 247 255 184 247 255 79 55 38 17 23 17 26 32 38 26 32 38 26 32 38 26 32 38 26 32 38 26 32 38 26 32 38 26 32 38 26 32 38 26 32 38 17 23 17 17 23 17 184 247 255 184 247 255 207 215 232 207 215 232 207 215 232 207 215 232 207 215 232 212 168 75 212 168 75 212 168 75 212 168 75 212 168 75 212 168 75
0 0 0 0 0 0 0 0 0 0 0 0 0 0 0 255 207 115 255 207 115 255 207 115 255 207 115 255 207 115 79 55 38 184 247 255 184 247 255 79 55 38 12 17 14 12 17 14 12 17 14 12 17 14 12 17 14 12 17 14 12 17 14 12 17 14 12 17 14 12 17 14 12 17 14 12 17 14 12 17 14 184 247 255 184 247 255 207 215 232 207 215 232 207 215 232 207 215 232 207 215 232 17 23 17 17 23 17 17 23 17 17 23 17 17 23 17 17 23 17
0 0 0 0 0 0 0 0 0 0 0 0 0 0 0 255 207 115 255 207 115 255 207 115 255 207 115 255 207 115 79 55 38 184 247 255 184 247 255 79 55 38 12 17 14 12 17 14 12 17 14 12 17 14 12 17 14 12 17 14 12 17 14 12 17 14 12 17 14 12 17 14 12 17 14 12 17 14 12 17 14 184 247 255 184 247 255 207 215 232 207 215 232 207 215 232 207 215 232 207 215 232 0 0 0 0 0 0 0 0 0 0 0 0 0 0 0 0 0 0
0 0 0 0 0 0 0 0 0 0 0 0 0 0 0 255 207 115 255 207 115 255 207 115 255 207 115 255 207 115 79 55 38 184 247 255 184 247 255 79 55 38 17 23 17 181 122 66 181 122 66 181 122 66 181 122 66 181 122 66 181 122 66 181 122 66 181 122 66 181 122 66 181 122 66 17 23 17 17 23 17 184 247 255 184 247 255 207 215 232 207 215 232 207 215 232 207 215 232 207 215 232 0 0 0 0 0 0 0 0 0 0 0 0 0 0 0 0 0 0
0 0 0 0 0 0 0 0 0 0 0 0 0 0 0 255 207 115 255 207 115 255 207 115 255 207 115 255 207 115 79 55 38 184 247 255 184 247 255 79 55 38 17 23 17 181 122 66 181 122 66 181 122 66 181 122 66 181 122 66 181 122 66 181 122 66 181 122 66 181 122 66 181 122 66 17 23 17 17 23 17 184 247 255 184 247 255 207 215 232 207 215 232 207 215 232 86 99 111 86 99 111 86 99 111 86 99 111 0 0 0 0 0 0 0 0 0 0 0 0
0 0 0 0 0 0 0 0 0 0 0 0 0 0 0 255 207 115 255 207 115 255 207 115 255 207 115 255 207 115 79 55 38 184 247 255 184 247 255 79 55 38 17 23 17 181 122 66 181 122 66 181 122 66 181 122 66 181 122 66 181 122 66 181 122 66 181 122 66 181 122 66 181 122 66 17 23 17 17 23 17 184 247 255 184 247 255 207 215 232 207 215 232 207 215 232 86 99 111 86 99 111 86 99 111 86 99 111 86 99 111 86 99 111 86 99 111 0 0 0
0 0 0 0 0 0 0 0 0 0 0 0 0 0 0 255 207 115 255 207 115 255 207 115 255 207 115 255 207 115 79 55 38 184 247 255 184 247 255 79 55 38 17 23 17 181 122 66 181 122 66 181 122 66 181 122 66 181 122 66 181 122 66 181 122 66 181 122 66 181 122 66 181 122 66 17 23 17 17 23 17 184 247 255 184 247 255 207 215 232 207 215 232 207 215 232 86 99 111 86 99 111 86 99 111 86 99 111 86 99 111 86 99 111 86 99 111 86 99 111
0 0 0 0 0 0 0 0 0 0 0 0 0 0 0 255 207 115 255 207 115 26 32 38 26 32 38 26 32 38 26 32 38 26 32 38 26 32 38 26 32 38 26 32 38 26 32 38 26 32 38 26 32 38 26 32 38 26 32 38 26 32 38 26 32 38 26 32 38 26 32 38 26 32 38 26 32 38 26 32 38 26 32 38 26 32 38 207 215 232 207 215 232 207 215 232 207 215 232 207 215 232 0 0 0 86 99 111 86 99 111 86 99 111 86 99 111 86 99 111
0 0 0 0 0 0 0 0 0 0 0 0 0 0 0 0 0 0 0 0 0 26 32 38 26 32 38 26 32 38 26 32 38 26 32 38 26 32 38 26 32 38 26 32 38 26 32 38 26 32 38 26 32 38 26 32 38 26 32 38 26 32 38 26 32 38 26 32 38 26 32 38 26 32 38 26 32 38 26 32 38 26 32 38 26 32 38 255 226 166 106 125 141 106 125 141 0 0 0 0 0 0 0 0 0 0 0 0 0 0 0 0 0 0 86 99 111 86 99 111
0 0 0 0 0 0 0 0 0 0 0 0 0 0 0 0 0 0 0 0 0 26 32 38 26 32 38 26 32 38 26 32 38 26 32 38 26 32 38 26 32 38 26 32 38 26 32 38 26 32 38 26 32 38 26 32 38 26 32 38 26 32 38 26 32 38 26 32 38 26 32 38 26 32 38 26 32 38 26 32 38 26 32 38 26 32 38 255 226 166 106 125 141 106 125 141 0 0 0 0 0 0 0 0 0 0 0 0 0 0 0 0 0 0 0 0 0 0 0 0
0 0 0 0 0 0 0 0 0 0 0 0 0 0 0 0 0 0 0 0 0 0 0 0 0 0 0 79 55 38 79 55 38 184 247 255 184 247 255 79 55 38 79 55 38 79 55 38 79 55 38 79 55 38 17 23 17 17 23 17 17 23 17 17 23 17 79 55 38 79 55 38 79 55 38 79 55 38 17 23 17 184 247 255 184 247 255 255 226 166 0 0 0 0 0 0 0 0 0 0 0 0 0 0 0 0 0 0 0 0 0 0 0 0 0 0 0 0 0 0
0 0 0 0 0 0 0 0 0 0 0 0 0 0 0 0 0 0 0 0 0 0 0 0 0 0 0 0 0 0 0 0 0 184 247 255 184 247 255 17 23 17 79 55 38 79 55 38 79 55 38 79 55 38 17 23 17 17 23 17 17 23 17 17 23 17 79 55 38 79 55 38 79 55 38 79 55 38 17 23 17 184 247 255 184 247 255 255 226 166 0 0 0 0 0 0 0 0 0 0 0 0 0 0 0 0 0 0 0 0 0 0 0 0 0 0 0 0 0 0
0 0 0 0 0 0 0 0 0 0 0 0 0 0 0 0 0 0 0 0 0 0 0 0 0 0 0 0 0 0 0 0 0 0 0 0 17 23 17 17 23 17 79 55 38 79 55 38 79 55 38 79 55 38 17 23 17 17 23 17 17 23 17 17 23 17 79 55 38 79 55 38 79 55 38 79 55 38 17 23 17 255 226 166 255 226 166 255 226 166 0 0 0 0 0 0 0 0 0 0 0 0 0 0 0 0 0 0 0 0 0 0 0 0 0 0 0 0 0 0
0 0 0 0 0 0 0 0 0 0 0 0 0 0 0 0 0 0 0 0 0 0 0 0 0 0 0 0 0 0 0 0 0 0 0 0 17 23 17 17 23 17 79 55 38 79 55 38 79 55 38 79 55 38 17 23 17 17 23 17 17 23 17 17 23 17 79 55 38 79 55 38 79 55 38 79 55 38 17 23 17 255 226 166 255 226 166 255 226 166 0 0 0 0 0 0 0 0 0 0 0 0 0 0 0 0 0 0 0 0 0 0 0 0 0 0 0 0 0 0
0 0 0 0 0 0 0 0 0 0 0 0 0 0 0 0 0 0 0 0 0 0 0 0 0 0 0 0 0 0 0 0 0 0 0 0 17 23 17 17 23 17 79 55 38 79 55 38 79 55 38 79 55 38 17 23 17 17 23 17 17 23 17 17 23 17 79 55 38 79 55 38 79 55 38 79 55 38 17 23 17 255 226 166 255 226 166 255 226 166 0 0 0 0 0 0 0 0 0 0 0 0 0 0 0 0 0 0 0 0 0 0 0 0 0 0 0 0 0 0
0 0 0 0 0 0 0 0 0 0 0 0 0 0 0 0 0 0 0 0 0 0 0 0 0 0 0 0 0 0 0 0 0 0 0 0 0 0 0 0 0 0 79 55 38 79 55 38 79 55 38 79 55 38 0 0 0 0 0 0 241 210 116 0 0 0 79 55 38 79 55 38 79 55 38 79 55 38 0 0 0 255 226 166 255 226 166 255 226 166 0 0 0 0 0 0 0 0 0 0 0 0 0 0 0 0 0 0 0 0 0 0 0 0 0 0 0 0 0 0
0 0 0 0 0 0 0 0 0 0 0 0 0 0 0 0 0 0 0 0 0 0 0 0 0 0 0 0 0 0 0 0 0 0 0 0 0 0 0 241 210 116 79 55 38 79 55 38 79 55 38 79 55 38 241 210 116 241 210 116 241 210 116 241 210 116 79 55 38 79 55 38 79 55 38 79 55 38 241 210 116 241 210 116 0 0 0 0 0 0 0 0 0 0 0 0 0 0 0 0 0 0 0 0 0 0 0 0 0 0 0 0 0 0 0 0 0 0 0 0
0 0 0 0 0 0 0 0 0 0 0 0 0 0 0 0 0 0 0 0 0 0 0 0 0 0 0 0 0 0 241 210 116 241 210 116 241 210 116 241 210 116 241 210 116 241 210 116 241 210 116 241 210 116 241 210 116 241 210 116 32 38 31 241 210 116 241 210 116 241 210 116 241 210 116 241 210 116 241 210 116 241 210 116 241 210 116 241 210 116 241 210 116 0 0 0 0 0 0 0 0 0 0 0 0 0 0 0 0 0 0 0 0 0 0 0 0 0 0 0
0 0 0 0 0 0 0 0 0 0 0 0 0 0 0 0 0 0 39 50 56 39 50 56 39 50 56 39 50 56 39 50 56 39 50 56 39 50 56 39 50 56 39 50 56 39 50 56 39 50 56 39 50 56 39 50 56 39 50 56 39 50 56 39 50 56 39 50 56 39 50 56 39 50 56 39 50 56 39 50 56 39 50 56 39 50 56 39 50 56 39 50 56 39 50 56 39 50 56 39 50 56 8 11 9 0 0 0 0 0 0 0 0 0 0 0 0 0 0 0
0 0 0 0 0 0 0 0 0 0 0 0 8 11 9 8 11 9 39 50 56 39 50 56 39 50 56 39 50 56 39 50 56 39 50 56 39 50 56 39 50 56 39 50 56 39 50 56 39 50 56 39 50 56 39 50 56 39 50 56 39 50 56 39 50 56 39 50 56 39 50 56 39 50 56 39 50 56 39 50 56 39 50 56 39 50 56 39 50 56 39 50 56 39 50 56 39 50 56 39 50 56 8 11 9 8 11 9 8 11 9 0 0 0 0 0 0 0 0 0
0 0 0 0 0 0 0 0 0 8 11 9 8 11 9 8 11 9 8 11 9 241 210 116 241 210 116 241 210 116 241 210 116 241 210 116 32 38 31 32 38 31 32 38 31 32 38 31 32 38 31 32 38 31 32 38 31 32 38 31 32 38 31 32 38 31 32 38 31 32 38 31 32 38 31 32 38 31 32 38 31 32 38 31 32 38 31 241 210 116 241 210 116 241 210 116 241 210 116 241 210 116 8 11 9 8 11 9 8 11 9 8 11 9 0 0 0 0 0 0
0 0 0 0 0 0 8 11 9 8 11 9 8 11 9 8 11 9 8 11 9 8 11 9 241 210 116 241 210 116 241 210 116 241 210 116 241 210 116 32 38 31 32 38 31 32 38 31 32 38 31 32 38 31 32 38 31 32 38 31 32 38 31 32 38 31 32 38 31 32 38 31 32 38 31 32 38 31 32 38 31 32 38 31 241 210 116 241 210 116 241 210 116 241 210 116 241 210 116 8 11 9 8 11 9 8 11 9 8 11 9 8 11 9 8 11 9 0 0 0
0 0 0 0 0 0 0 0 0 8 11 9 8 11 9 8 11 9 8 11 9 8 11 9 8 11 9 241 210 116 241 210 116 241 210 116 241 210 116 241 210 116 241 210 116 32 38 31 32 38 31 32 38 31 32 38 31 32 38 31 32 38 31 32 38 31 32 38 31 32 38 31 32 38 31 32 38 31 241 210 116 241 210 116 241 210 116 241 210 116 241 210 116 241 210 116 8 11 9 8 11 9 8 11 9 8 11 9 8 11 9 8 11 9 0 0 0 0 0 0
0 0 0 0 0 0 0 0 0 0 0 0 8 11 9 8 11 9 8 11 9 8 11 9 8 11 9 8 11 9 241 210 116 241 210 116 241 210 116 241 210 116 241 210 116 241 210 116 241 210 116 241 210 116 241 210 116 241 210 116 32 38 31 241 210 116 241 210 116 241 210 116 241 210 116 241 210 116 241 210 116 241 210 116 241 210 116 241 210 116 241 210 116 8 11 9 8 11 9 8 11 9 8 11 9 8 11 9 8 11 9 0 0 0 0 0 0 0 0 0
0 0 0 0 0 0 0 0 0 0 0 0 0 0 0 0 0 0 8 11 9 8 11 9 8 11 9 8 11 9 8 11 9 8 11 9 8 11 9 241 210 116 241 210 116 241 210 116 241 210 116 241 210 116 241 210 116 241 210 116 241 210 116 241 210 116 241 210 116 241 210 116 241 210 116 241 210 116 241 210 116 241 210 116 8 11 9 8 11 9 8 11 9 8 11 9 8 11 9 8 11 9 8 11 9 0 0 0 0 0 0 0 0 0 0 0 0 0 0 0
