P3
44 48
255
0 0 0 0 0 0 0 0 0 0 0 0 0 0 0 0 0 0 0 0 0 0 0 0 0 0 0 0 0 0 0 0 0 0 0 0 0 0 0 0 0 0 0 0 0 0 0 0 0 0 0 0 0 0 0 0 0 0 0 0 0 0 0 0 0 0 0 0 0 0 0 0 0 0 0 0 0 0 0 0 0 0 0 0 0 0 0 0 0 0 0 0 0 0 0 0 0 0 0 0 0 0 0 0 0 0 0 0 0 0 0 0 0 0 0 0 0 0 0 0 0 0 0 0 0 0 0 0 0 0 0 0
0 0 0 0 0 0 0 0 0 0 0 0 0 0 0 0 0 0 0 0 0 0 0 0 0 0 0 0 0 0 0 0 0 0 0 0 0 0 0 0 0 0 0 0 0 0 0 0 0 0 0 0 0 0 0 0 0 0 0 0 0 0 0 0 0 0 0 0 0 0 0 0 0 0 0 0 0 0 0 0 0 0 0 0 0 0 0 0 0 0 0 0 0 0 0 0 0 0 0 0 0 0 0 0 0 0 0 0 0 0 0 0 0 0 0 0 0 0 0 0 0 0 0 0 0 0 0 0 0 0 0 0
0 0 0 0 0 0 0 0 0 0 0 0 0 0 0 0 0 0 0 0 0 0 0 0 0 0 0 0 0 0 0 0 0 0 0 0 0 0 0 0 0 0 0 0 0 0 0 0 0 0 0 0 0 0 0 0 0 0 0 0 0 0 0 0 0 0 0 0 0 0 0 0 0 0 0 0 0 0 0 0 0 0 0 0 0 0 0 0 0 0 0 0 0 0 0 0 0 0 0 0 0 0 0 0 0 0 0 0 0 0 0 0 0 0 0 0 0 0 0 0 0 0 0 0 0 0 0 0 0 0 0 0
0 0 0 0 0 0 0 0 0 0 0 0 0 0 0 0 0 0 0 0 0 0 0 0 0 0 0 0 0 0 0 0 0 0 0 0 0 0 0 0 0 0 0 0 0 0 0 0 0 0 0 0 0 0 0 0 0 0 0 0 0 0 0 0 0 0 0 0 0 0 0 0 0 0 0 0 0 0 0 0 0 0 0 0 0 0 0 0 0 0 0 0 0 0 0 0 0 0 0 0 0 0 0 0 0 0 0 0 0 0 0 0 0 0 0 0 0 0 0 0 0 0 0 0 0 0 0 0 0 0 0 0
0 0 0 0 0 0 0 0 0 0 0 0 0 0 0 0 0 0 0 0 0 0 0 0 0 0 0 0 0 0 0 0 0 0 0 0 255 207 115 255 207 115 255 207 115 255 207 115 255 207 115 255 207 115 0 0 0 0 0 0 0 0 0 0 0 0 0 0 0 0 0 0 0 0 0 0 0 0 255 207 115 255 207 115 255 207 115 255 207 115 255 207 115 255 207 115 0 0 0 0 0 0 0 0 0 0 0 0 0 0 0 0 0 0 0 0 0 0 0 0 0 0 0 0 0 0 0 0 0 0 0 0
0 0 0 0 0 0 0 0 0 0 0 0 0 0 0 0 0 0 0 0 0 0 0 0 0 0 0 0 0 0 0 0 0 0 0 0 255 207 115 255 207 115 255 207 115 255 207 115 255 207 115 255 207 115 0 0 0 0 0 0 0 0 0 0 0 0 0 0 0 0 0 0 0 0 0 0 0 0 255 207 115 255 207 115 255 207 115 255 207 115 255 207 115 255 207 115 0 0 0 0 0 0 0 0 0 0 0 0 0 0 0 0 0 0 0 0 0 0 0 0 0 0 0 0 0 0 0 0 0 0 0 0
0 0 0 0 0 0 0 0 0 0 0 0 0 0 0 0 0 0 0 0 0 0 0 0 0 0 0 0 0 0 0 0 0 0 0 0 255 207 115 255 207 115 255 207 115 255 207 115 255 207 115 255 207 115 208 162 255 0 0 0 0 0 0 0 0 0 0 0 0 0 0 0 0 0 0 208 162 255 255 207 115 255 207 115 255 207 115 255 207 115 255 207 115 255 207 115 0 0 0 0 0 0 0 0 0 0 0 0 0 0 0 0 0 0 0 0 0 0 0 0 0 0 0 0 0 0 0 0 0 0 0 0
0 0 0 0 0 0 0 0 0 0 0 0 0 0 0 0 0 0 0 0 0 0 0 0 0 0 0 0 0 0 0 0 0 0 0 0 255 207 115 255 207 115 255 207 115 255 207 115 255 207 115 255 207 115 208 162 255 0 0 0 0 0 0 0 0 0 0 0 0 0 0 0 0 0 0 208 162 255 255 207 115 255 207 115 255 207 115 255 207 115 255 207 115 255 207 115 0 0 0 0 0 0 0 0 0 0 0 0 0 0 0 0 0 0 0 0 0 0 0 0 0 0 0 0 0 0 0 0 0 0 0 0
240 179 95 240 179 95 240 179 95 240 179 95 240 179 95 0 0 0 0 0 0 0 0 0 0 0 0 0 0 0 0 0 0 0 0 0 255 207 115 255 207 115 255 207 115 255 207 115 255 207 115 255 207 115 208 162 255 0 0 0 0 0 0 0 0 0 0 0 0 0 0 0 0 0 0 208 162 255 255 207 115 255 207 115 255 207 115 255 207 115 255 207 115 255 207 115 0 0 0 0 0 0 0 0 0 0 0 0 0 0 0 0 0 0 0 0 0 0 0 0 0 0 0 0 0 0 0 0 0 0 0 0
240 179 95 240 179 95 240 179 95 240 179 95 240 179 95 240 179 95 240 179 95 240 179 95 0 0 0 0 0 0 0 0 0 0 0 0 0 0 0 0 0 0 208 162 255 208 162 255 208 162 255 208 162 255 208 162 255 17 23 17 17 23 17 17 23 17 17 23 17 17 23 17 17 23 17 208 162 255 208 162 255 208 162 255 208 162 255 208 162 255 0 0 0 0 0 0 0 0 0 0 0 0 0 0 0 0 0 0 0 0 0 0 0 0 0 0 0 0 0 0 0 0 0 0 0 0 0 0 0 0 0 0
240 179 95 240 179 95 240 179 95 240 179 95 240 179 95 240 179 95 240 179 95 240 179 95 240 179 95 240 179 95 240 179 95 0 0 0 0 0 0 0 0 0 208 162 255 208 162 255 208 162 255 208 162 255 208 162 255 154 121 189 154 121 189 154 121 189 154 121 189 154 121 189 154 121 189 208 162 255 208 162 255 208 162 255 208 162 255 208 162 255 0 0 0 0 0 0 0 0 0 0 0 0 255 241 166 255 241 166 255 241 166 255 241 166 255 241 166 255 241 166 255 241 166 0 0 0 0 0 0 0 0 0
0 0 0 240 179 95 240 179 95 240 179 95 240 179 95 240 179 95 240 179 95 240 179 95 240 179 95 240 179 95 240 179 95 240 179 95 240 179 95 240 179 95 0 0 0 0 0 0 17 23 17 17 23 17 154 121 189 154 121 189 154 121 189 154 121 189 154 121 189 154 121 189 154 121 189 154 121 189 17 23 17 17 23 17 0 0 0 0 0 0 0 0 0 0 0 0 0 0 0 0 0 0 255 241 166 255 241 166 255 241 166 255 241 166 255 241 166 255 241 166 255 241 166 255 241 166 255 241 166 255 241 166
0 0 0 0 0 0 0 0 0 0 0 0 240 179 95 240 179 95 240 179 95 240 179 95 240 179 95 240 179 95 240 179 95 240 179 95 240 179 95 240 179 95 240 179 95 240 179 95 240 179 95 17 23 17 154 121 189 123 79 53 123 79 53 123 79 53 123 79 53 123 79 53 123 79 53 154 121 189 17 23 17 17 23 17 0 0 0 0 0 0 0 0 0 0 0 0 0 0 0 0 0 0 255 241 166 255 241 166 255 241 166 255 241 166 255 241 166 255 241 166 255 241 166 255 241 166 255 241 166 255 241 166
0 0 0 0 0 0 0 0 0 0 0 0 0 0 0 0 0 0 0 0 0 240 179 95 240 179 95 240 179 95 240 179 95 240 179 95 240 179 95 240 179 95 240 179 95 240 179 95 240 179 95 17 23 17 154 121 189 123 79 53 123 79 53 123 79 53 123 79 53 123 79 53 123 79 53 255 226 166 255 226 166 17 23 17 0 0 0 0 0 0 0 0 0 0 0 0 0 0 0 0 0 0 0 0 0 0 0 0 0 0 0 255 241 166 255 241 166 255 241 166 255 241 166 255 241 166 255 241 166 255 241 166
0 0 0 0 0 0 0 0 0 0 0 0 0 0 0 0 0 0 0 0 0 0 0 0 0 0 0 0 0 0 240 179 95 240 179 95 240 179 95 240 179 95 240 179 95 240 179 95 240 179 95 17 23 17 154 121 189 255 226 166 255 226 166 154 121 189 154 121 189 154 121 189 154 121 189 255 226 166 255 226 166 17 23 17 0 0 0 184 247 255 184 247 255 0 0 0 0 0 0 0 0 0 0 0 0 0 0 0 0 0 0 0 0 0 0 0 0 0 0 0 255 241 166 255 241 166 255 241 166 255 241 166
0 0 0 0 0 0 0 0 0 0 0 0 0 0 0 0 0 0 0 0 0 0 0 0 0 0 0 0 0 0 0 0 0 0 0 0 0 0 0 184 247 255 184 247 255 243 224 141 243 224 141 243 224 141 243 224 141 243 224 141 243 224 141 243 224 141 243 224 141 243 224 141 243 224 141 243 224 141 243 224 141 243 224 141 243 224 141 184 247 255 184 247 255 0 0 0 0 0 0 0 0 0 0 0 0 0 0 0 0 0 0 0 0 0 0 0 0 0 0 0 0 0 0 0 0 0 0 0 0 255 241 166
0 0 0 0 0 0 0 0 0 0 0 0 0 0 0 0 0 0 0 0 0 0 0 0 0 0 0 0 0 0 0 0 0 0 0 0 0 0 0 184 247 255 184 247 255 243 224 141 243 224 141 243 224 141 243 224 141 243 224 141 243 224 141 243 224 141 243 224 141 243 224 141 243 224 141 243 224 141 243 224 141 243 224 141 243 224 141 184 247 255 184 247 255 0 0 0 0 0 0 0 0 0 0 0 0 0 0 0 0 0 0 0 0 0 0 0 0 0 0 0 0 0 0 0 0 0 0 0 0 0 0 0
0 0 0 0 0 0 0 0 0 0 0 0 0 0 0 0 0 0 0 0 0 0 0 0 0 0 0 0 0 0 0 0 0 0 0 0 0 0 0 184 247 255 184 247 255 17 23 17 17 23 17 122 82 163 122 82 163 122 82 163 122 82 163 122 82 163 122 82 163 122 82 163 122 82 163 122 82 163 122 82 163 17 23 17 17 23 17 184 247 255 184 247 255 0 0 0 208 162 255 208 162 255 208 162 255 208 162 255 208 162 255 208 162 255 208 162 255 208 162 255 208 162 255 208 162 255 0 0 0 0 0 0
0 0 0 0 0 0 0 0 0 0 0 0 0 0 0 0 0 0 0 0 0 0 0 0 0 0 0 0 0 0 0 0 0 0 0 0 0 0 0 184 247 255 184 247 255 17 23 17 17 23 17 122 82 163 122 82 163 122 82 163 122 82 163 122 82 163 122 82 163 122 82 163 122 82 163 122 82 163 122 82 163 17 23 17 17 23 17 184 247 255 184 247 255 0 0 0 208 162 255 208 162 255 208 162 255 208 162 255 208 162 255 208 162 255 208 162 255 208 162 255 255 166 99 255 166 99 255 166 99 255 166 99
0 0 0 0 0 0 0 0 0 0 0 0 208 162 255 208 162 255 208 162 255 208 162 255 208 162 255 208 162 255 208 162 255 208 162 255 208 162 255 184 247 255 184 247 255 208 162 255 208 162 255 208 162 255 208 162 255 208 162 255 208 162 255 208 162 255 208 162 255 208 162 255 208 162 255 208 162 255 208 162 255 208 162 255 208 162 255 184 247 255 184 247 255 0 0 0 208 162 255 208 162 255 208 162 255 208 162 255 208 162 255 208 162 255 217 92 92 217 92 92 255 166 99 255 166 99 255 166 99 255 166 99
0 0 0 0 0 0 0 0 0 0 0 0 208 162 255 208 162 255 208 162 255 208 162 255 208 162 255 208 162 255 208 162 255 208 162 255 208 162 255 184 247 255 184 247 255 58 36 72 58 36 72 208 162 255 208 162 255 208 162 255 208 162 255 208 162 255 208 162 255 208 162 255 208 162 255 208 162 255 208 162 255 58 36 72 58 36 72 184 247 255 184 247 255 58 36 72 208 162 255 208 162 255 208 162 255 208 162 255 208 162 255 208 162 255 217 92 92 217 92 92 255 166 99 255 166 99 255 166 99 255 166 99
0 0 0 0 0 0 0 0 0 0 0 0 208 162 255 208 162 255 208 162 255 208 162 255 208 162 255 208 162 255 208 162 255 208 162 255 208 162 255 184 247 255 184 247 255 58 36 72 58 36 72 26 32 38 26 32 38 26 32 38 26 32 38 26 32 38 26 32 38 26 32 38 26 32 38 26 32 38 26 32 38 58 36 72 58 36 72 184 247 255 184 247 255 58 36 72 0 0 0 0 0 0 0 0 0 0 0 0 0 0 0 0 0 0 217 92 92 217 92 92 217 92 92 217 92 92 217 92 92 0 0 0
0 0 0 0 0 0 0 0 0 0 0 0 208 162 255 208 162 255 208 162 255 208 162 255 208 162 255 208 162 255 208 162 255 208 162 255 208 162 255 184 247 255 184 247 255 58 36 72 58 36 72 26 32 38 26 32 38 26 32 38 26 32 38 26 32 38 26 32 38 26 32 38 26 32 38 26 32 38 26 32 38 58 36 72 58 36 72 184 247 255 184 247 255 58 36 72 0 0 0 0 0 0 0 0 0 0 0 0 0 0 0 0 0 0 217 92 92 217 92 92 217 92 92 217 92 92 217 92 92 0 0 0
0 0 0 0 0 0 0 0 0 0 0 0 0 0 0 0 0 0 0 0 0 0 0 0 0 0 0 0 0 0 0 0 0 207 215 232 207 215 232 207 215 232 207 215 232 207 215 232 207 215 232 207 215 232 207 215 232 207 215 232 207 215 232 207 215 232 207 215 232 207 215 232 207 215 232 207 215 232 207 215 232 207 215 232 207 215 232 207 215 232 207 215 232 207 215 232 207 215 232 0 0 0 0 0 0 0 0 0 0 0 0 0 0 0 217 92 92 217 92 92 217 92 92 217 92 92 217 92 92 0 0 0
0 0 0 0 0 0 0 0 0 0 0 0 0 0 0 0 0 0 0 0 0 0 0 0 0 0 0 0 0 0 0 0 0 207 215 232 207 215 232 207 215 232 207 215 232 207 215 232 207 215 232 207 215 232 207 215 232 207 215 232 207 215 232 207 215 232 207 215 232 207 215 232 207 215 232 207 215 232 207 215 232 207 215 232 207 215 232 207 215 232 207 215 232 207 215 232 207 215 232 0 0 0 0 0 0 0 0 0 0 0 0 0 0 0 217 92 92 217 92 92 217 92 92 217 92 92 217 92 92 0 0 0
0 0 0 0 0 0 0 0 0 0 0 0 0 0 0 0 0 0 0 0 0 0 0 0 0 0 0 0 0 0 0 0 0 207 215 232 207 215 232 207 215 232 207 215 232 207 215 232 207 215 232 207 215 232 207 215 232 207 215 232 207 215 232 207 215 232 207 215 232 207 215 232 207 215 232 207 215 232 207 215 232 207 215 232 207 215 232 207 215 232 207 215 232 207 215 232 207 215 232 0 0 0 0 0 0 0 0 0 0 0 0 0 0 0 0 0 0 0 0 0 0 0 0 0 0 0 0 0 0 0 0 0
0 0 0 0 0 0 0 0 0 0 0 0 0 0 0 0 0 0 0 0 0 0 0 0 0 0 0 0 0 0 0 0 0 0 0 0 58 36 72 184 247 255 184 247 255 58 36 72 58 36 72 122 82 163 122 82 163 122 82 163 122 82 163 122 82 163 122 82 163 122 82 163 122 82 163 122 82 163 143 220 255 143 220 255 143 220 255 143 220 255 143 220 255 143 220 255 0 0 0 0 0 0 0 0 0 0 0 0 0 0 0 0 0 0 0 0 0 0 0 0 0 0 0 0 0 0 0 0 0 0 0 0
0 0 0 0 0 0 0 0 0 0 0 0 0 0 0 0 0 0 0 0 0 0 0 0 0 0 0 0 0 0 106 125 141 106 125 141 58 36 72 184 247 255 184 247 255 58 36 72 58 36 72 122 82 163 122 82 163 122 82 163 122 82 163 122 82 163 122 82 163 122 82 163 122 82 163 122 82 163 143 220 255 143 220 255 143 220 255 143 220 255 143 220 255 143 220 255 143 220 255 143 220 255 143 220 255 143 220 255 0 0 0 0 0 0 0 0 0 0 0 0 0 0 0 0 0 0 0 0 0 0 0 0
0 0 0 0 0 0 0 0 0 0 0 0 0 0 0 0 0 0 0 0 0 0 0 0 0 0 0 0 0 0 106 125 141 106 125 141 58 36 72 184 247 255 184 247 255 58 36 72 58 36 72 122 82 163 122 82 163 122 82 163 122 82 163 122 82 163 122 82 163 122 82 163 122 82 163 122 82 163 143 220 255 143 220 255 143 220 255 143 220 255 143 220 255 143 220 255 143 220 255 143 220 255 143 220 255 143 220 255 143 220 255 143 220 255 143 220 255 143 220 255 0 0 0 0 0 0 0 0 0 0 0 0
0 0 0 0 0 0 0 0 0 0 0 0 0 0 0 0 0 0 0 0 0 0 0 0 0 0 0 0 0 0 106 125 141 106 125 141 58 36 72 184 247 255 184 247 255 58 36 72 58 36 72 122 82 163 122 82 163 122 82 163 122 82 163 122 82 163 122 82 163 122 82 163 122 82 163 122 82 163 122 82 163 58 36 72 58 36 72 184 247 255 143 220 255 143 220 255 143 220 255 143 220 255 143 220 255 143 220 255 143 220 255 143 220 255 143 220 255 143 220 255 143 220 255 143 220 255 143 220 255 143 220 255
0 0 0 0 0 0 0 0 0 0 0 0 0 0 0 0 0 0 0 0 0 0 0 0 0 0 0 0 0 0 106 125 141 106 125 141 58 36 72 184 247 255 184 247 255 58 36 72 58 36 72 122 82 163 122 82 163 122 82 163 122 82 163 122 82 163 122 82 163 122 82 163 122 82 163 122 82 163 122 82 163 58 36 72 58 36 72 184 247 255 184 247 255 58 36 72 106 125 141 106 125 141 143 220 255 143 220 255 143 220 255 143 220 255 143 220 255 143 220 255 143 220 255 143 220 255 143 220 255 143 220 255
0 0 0 0 0 0 0 0 0 0 0 0 0 0 0 0 0 0 0 0 0 0 0 0 0 0 0 0 0 0 106 125 141 106 125 141 58 36 72 184 247 255 184 247 255 58 36 72 58 36 72 122 82 163 122 82 163 122 82 163 122 82 163 122 82 163 122 82 163 122 82 163 122 82 163 122 82 163 122 82 163 58 36 72 58 36 72 184 247 255 184 247 255 58 36 72 106 125 141 106 125 141 0 0 0 0 0 0 0 0 0 0 0 0 143 220 255 143 220 255 143 220 255 143 220 255 143 220 255 143 220 255
0 0 0 0 0 0 0 0 0 0 0 0 0 0 0 0 0 0 0 0 0 0 0 0 0 0 0 0 0 0 106 125 141 106 125 141 106 125 141 184 247 255 184 247 255 17 23 17 17 23 17 122 82 163 122 82 163 122 82 163 122 82 163 122 82 163 122 82 163 122 82 163 122 82 163 122 82 163 122 82 163 17 23 17 17 23 17 184 247 255 184 247 255 106 125 141 106 125 141 106 125 141 0 0 0 0 0 0 0 0 0 0 0 0 0 0 0 0 0 0 0 0 0 0 0 0 143 220 255 143 220 255
0 0 0 0 0 0 0 0 0 0 0 0 0 0 0 0 0 0 0 0 0 0 0 0 0 0 0 0 0 0 0 0 0 0 0 0 0 0 0 184 247 255 184 247 255 17 23 17 58 36 72 58 36 72 58 36 72 58 36 72 17 23 17 17 23 17 17 23 17 17 23 17 58 36 72 58 36 72 58 36 72 58 36 72 17 23 17 184 247 255 184 247 255 0 0 0 0 0 0 0 0 0 0 0 0 0 0 0 0 0 0 0 0 0 0 0 0 0 0 0 0 0 0 0 0 0 0 0 0 0 0 0
0 0 0 0 0 0 0 0 0 0 0 0 0 0 0 0 0 0 0 0 0 0 0 0 0 0 0 0 0 0 0 0 0 0 0 0 0 0 0 184 247 255 184 247 255 17 23 17 58 36 72 58 36 72 58 36 72 58 36 72 17 23 17 17 23 17 17 23 17 17 23 17 58 36 72 58 36 72 58 36 72 58 36 72 17 23 17 184 247 255 184 247 255 0 0 0 0 0 0 0 0 0 0 0 0 0 0 0 0 0 0 0 0 0 0 0 0 0 0 0 0 0 0 0 0 0 0 0 0 0 0 0
0 0 0 0 0 0 0 0 0 0 0 0 0 0 0 0 0 0 0 0 0 0 0 0 0 0 0 0 0 0 0 0 0 0 0 0 0 0 0 0 0 0 17 23 17 17 23 17 58 36 72 58 36 72 58 36 72 58 36 72 17 23 17 17 23 17 17 23 17 17 23 17 58 36 72 58 36 72 58 36 72 58 36 72 17 23 17 17 23 17 0 0 0 0 0 0 0 0 0 0 0 0 0 0 0 0 0 0 0 0 0 0 0 0 0 0 0 0 0 0 0 0 0 0 0 0 0 0 0 0 0 0
0 0 0 0 0 0 0 0 0 0 0 0 0 0 0 0 0 0 0 0 0 0 0 0 0 0 0 0 0 0 0 0 0 0 0 0 0 0 0 0 0 0 17 23 17 17 23 17 58 36 72 58 36 72 58 36 72 58 36 72 17 23 17 17 23 17 17 23 17 17 23 17 58 36 72 58 36 72 58 36 72 58 36 72 17 23 17 17 23 17 0 0 0 0 0 0 0 0 0 0 0 0 0 0 0 0 0 0 0 0 0 0 0 0 0 0 0 0 0 0 0 0 0 0 0 0 0 0 0 0 0 0
0 0 0 0 0 0 0 0 0 0 0 0 0 0 0 0 0 0 0 0 0 86 99 111 86 99 111 86 99 111 86 99 111 86 99 111 86 99 111 86 99 111 86 99 111 86 99 111 86 99 111 86 99 111 86 99 111 86 99 111 86 99 111 86 99 111 86 99 111 86 99 111 86 99 111 86 99 111 86 99 111 86 99 111 86 99 111 86 99 111 86 99 111 86 99 111 86 99 111 86 99 111 86 99 111 86 99 111 86 99 111 86 99 111 86 99 111 0 0 0 0 0 0 0 0 0 0 0 0 0 0 0
0 0 0 0 0 0 0 0 0 0 0 0 0 0 0 0 0 0 0 0 0 86 99 111 86 99 111 86 99 111 86 99 111 86 99 111 86 99 111 86 99 111 86 99 111 86 99 111 86 99 111 86 99 111 86 99 111 86 99 111 86 99 111 86 99 111 86 99 111 86 99 111 86 99 111 86 99 111 86 99 111 86 99 111 86 99 111 86 99 111 86 99 111 86 99 111 86 99 111 86 99 111 86 99 111 86 99 111 86 99 111 86 99 111 86 99 111 0 0 0 0 0 0 0 0 0 0 0 0 0 0 0
0 0 0 0 0 0 0 0 0 0 0 0 0 0 0 0 0 0 0 0 0 86 99 111 86 99 111 86 99 111 86 99 111 86 99 111 86 99 111 86 99 111 86 99 111 86 99 111 86 99 111 86 99 111 86 99 111 86 99 111 86 99 111 86 99 111 86 99 111 86 99 111 86 99 111 86 99 111 86 99 111 86 99 111 86 99 111 86 99 111 86 99 111 86 99 111 86 99 111 86 99 111 86 99 111 86 99 111 86 99 111 86 99 111 86 99 111 0 0 0 0 0 0 0 0 0 0 0 0 0 0 0
0 0 0 0 0 0 0 0 0 0 0 0 0 0 0 0 0 0 0 0 0 0 0 0 0 0 0 0 0 0 0 0 0 0 0 0 86 99 111 86 99 111 86 99 111 86 99 111 86 99 111 86 99 111 86 99 111 86 99 111 86 99 111 86 99 111 86 99 111 86 99 111 86 99 111 86 99 111 86 99 111 86 99 111 86 99 111 86 99 111 86 99 111 86 99 111 86 99 111 86 99 111 86 99 111 86 99 111 0 0 0 0 0 0 0 0 0 0 0 0 0 0 0 0 0 0 0 0 0 0 0 0
0 0 0 0 0 0 0 0 0 0 0 0 0 0 0 0 0 0 0 0 0 0 0 0 39 50 56 39 50 56 39 50 56 39 50 56 86 99 111 86 99 111 86 99 111 86 99 111 86 99 111 86 99 111 86 99 111 86 99 111 86 99 111 86 99 111 86 99 111 86 99 111 86 99 111 86 99 111 86 99 111 86 99 111 86 99 111 86 99 111 86 99 111 86 99 111 86 99 111 86 99 111 86 99 111 86 99 111 8 11 9 0 0 0 0 0 0 0 0 0 0 0 0 0 0 0 0 0 0 0 0 0
0 0 0 0 0 0 0 0 0 0 0 0 0 0 0 0 0 0 8 11 9 8 11 9 39 50 56 39 50 56 39 50 56 39 50 56 39 50 56 39 50 56 39 50 56 39 50 56 39 50 56 39 50 56 39 50 56 39 50 56 39 50 56 39 50 56 39 50 56 39 50 56 39 50 56 39 50 56 39 50 56 39 50 56 39 50 56 39 50 56 39 50 56 39 50 56 39 50 56 39 50 56 39 50 56 39 50 56 8 11 9 8 11 9 8 11 9 0 0 0 0 0 0 0 0 0 0 0 0 0 0 0
0 0 0 0 0 0 0 0 0 0 0 0 0 0 0 8 11 9 8 11 9 8 11 9 8 11 9 241 210 116 241 210 116 241 210 116 241 210 116 241 210 116 32 38 31 32 38 31 32 38 31 32 38 31 32 38 31 32 38 31 32 38 31 32 38 31 32 38 31 32 38 31 32 38 31 32 38 31 32 38 31 32 38 31 32 38 31 32 38 31 32 38 31 241 210 116 241 210 116 241 210 116 241 210 116 241 210 116 8 11 9 8 11 9 8 11 9 8 11 9 0 0 0 0 0 0 0 0 0 0 0 0
0 0 0 0 0 0 0 0 0 0 0 0 8 11 9 8 11 9 8 11 9 8 11 9 8 11 9 8 11 9 241 210 116 241 210 116 241 210 116 241 210 116 241 210 116 32 38 31 32 38 31 32 38 31 32 38 31 32 38 31 32 38 31 32 38 31 32 38 31 32 38 31 32 38 31 32 38 31 32 38 31 32 38 31 32 38 31 32 38 31 241 210 116 241 210 116 241 210 116 241 210 116 241 210 116 8 11 9 8 11 9 8 11 9 8 11 9 8 11 9 8 11 9 0 0 0 0 0 0 0 0 0
0 0 0 0 0 0 0 0 0 0 0 0 0 0 0 8 11 9 8 11 9 8 11 9 8 11 9 8 11 9 8 11 9 241 210 116 241 210 116 241 210 116 241 210 116 241 210 116 241 210 116 32 38 31 32 38 31 32 38 31 32 38 31 32 38 31 32 38 31 32 38 31 32 38 31 32 38 31 32 38 31 32 38 31 241 210 116 241 210 116 241 210 116 241 210 116 241 210 116 241 210 116 8 11 9 8 11 9 8 11 9 8 11 9 8 11 9 8 11 9 0 0 0 0 0 0 0 0 0 0 0 0
0 0 0 0 0 0 0 0 0 0 0 0 0 0 0 0 0 0 8 11 9 8 11 9 8 11 9 8 11 9 8 11 9 8 11 9 241 210 116 241 210 116 241 210 116 241 210 116 241 210 116 241 210 116 241 210 116 241 210 116 241 210 116 241 210 116 32 38 31 241 210 116 241 210 116 241 210 116 241 210 116 241 210 116 241 210 116 241 210 116 241 210 116 241 210 116 241 210 116 8 11 9 8 11 9 8 11 9 8 11 9 8 11 9 8 11 9 0 0 0 0 0 0 0 0 0 0 0 0 0 0 0
0 0 0 0 0 0 0 0 0 0 0 0 0 0 0 0 0 0 0 0 0 0 0 0 8 11 9 8 11 9 8 11 9 8 11 9 8 11 9 8 11 9 8 11 9 241 210 116 241 210 116 241 210 116 241 210 116 241 210 116 241 210 116 241 210 116 241 210 116 241 210 116 241 210 116 241 210 116 241 210 116 241 210 116 241 210 116 241 210 116 8 11 9 8 11 9 8 11 9 8 11 9 8 11 9 8 11 9 8 11 9 0 0 0 0 0 0 0 0 0 0 0 0 0 0 0 0 0 0 0 0 0
