P3
48 48
255
0 0 0 0 0 0 0 0 0 0 0 0 0 0 0 0 0 0 0 0 0 0 0 0 0 0 0 0 0 0 0 0 0 0 0 0 0 0 0 0 0 0 0 0 0 0 0 0 0 0 0 0 0 0 0 0 0 0 0 0 0 0 0 0 0 0 0 0 0 0 0 0 0 0 0 0 0 0 0 0 0 0 0 0 0 0 0 0 0 0 0 0 0 0 0 0 0 0 0 0 0 0 0 0 0 0 0 0 0 0 0 0 0 0 0 0 0 0 0 0 0 0 0 0 0 0 0 0 0 0 0 0 0 0 0 0 0 0 0 0 0 0 0 0
0 0 0 0 0 0 0 0 0 0 0 0 0 0 0 0 0 0 0 0 0 0 0 0 0 0 0 0 0 0 0 0 0 0 0 0 0 0 0 0 0 0 0 0 0 0 0 0 0 0 0 0 0 0 0 0 0 0 0 0 0 0 0 0 0 0 0 0 0 0 0 0 0 0 0 0 0 0 0 0 0 0 0 0 0 0 0 0 0 0 0 0 0 0 0 0 0 0 0 0 0 0 0 0 0 0 0 0 0 0 0 0 0 0 0 0 0 0 0 0 0 0 0 0 0 0 0 0 0 0 0 0 0 0 0 0 0 0 0 0 0 0 0 0
0 0 0 0 0 0 0 0 0 0 0 0 0 0 0 0 0 0 0 0 0 0 0 0 0 0 0 0 0 0 0 0 0 0 0 0 0 0 0 0 0 0 0 0 0 0 0 0 0 0 0 0 0 0 0 0 0 0 0 0 0 0 0 0 0 0 0 0 0 0 0 0 0 0 0 0 0 0 0 0 0 0 0 0 0 0 0 0 0 0 0 0 0 0 0 0 0 0 0 0 0 0 0 0 0 0 0 0 0 0 0 0 0 0 0 0 0 0 0 0 0 0 0 0 0 0 0 0 0 0 0 0 0 0 0 0 0 0 0 0 0 0 0 0
0 0 0 0 0 0 0 0 0 0 0 0 0 0 0 0 0 0 0 0 0 0 0 0 0 0 0 0 0 0 0 0 0 0 0 0 0 0 0 0 0 0 0 0 0 0 0 0 0 0 0 0 0 0 0 0 0 0 0 0 0 0 0 0 0 0 0 0 0 0 0 0 0 0 0 0 0 0 0 0 0 0 0 0 0 0 0 0 0 0 0 0 0 0 0 0 0 0 0 0 0 0 0 0 0 0 0 0 0 0 0 0 0 0 0 0 0 0 0 0 0 0 0 0 0 0 0 0 0 0 0 0 0 0 0 0 0 0 0 0 0 0 0 0
0 0 0 0 0 0 0 0 0 0 0 0 0 0 0 0 0 0 0 0 0 0 0 0 0 0 0 0 0 0 0 0 0 0 0 0 0 0 0 0 0 0 0 0 0 0 0 0 0 0 0 0 0 0 0 0 0 0 0 0 0 0 0 0 0 0 0 0 0 0 0 0 0 0 0 0 0 0 0 0 0 0 0 0 0 0 0 0 0 0 0 0 0 0 0 0 0 0 0 0 0 0 0 0 0 0 0 0 0 0 0 0 0 0 0 0 0 0 0 0 0 0 0 0 0 0 0 0 0 0 0 0 0 0 0 0 0 0 0 0 0 0 0 0
0 0 0 0 0 0 0 0 0 0 0 0 0 0 0 0 0 0 0 0 0 0 0 0 0 0 0 0 0 0 0 0 0 0 0 0 0 0 0 0 0 0 0 0 0 0 0 0 0 0 0 0 0 0 0 0 0 0 0 0 0 0 0 0 0 0 0 0 0 0 0 0 0 0 0 0 0 0 0 0 0 0 0 0 0 0 0 0 0 0 0 0 0 0 0 0 0 0 0 0 0 0 0 0 0 0 0 0 0 0 0 0 0 0 0 0 0 0 0 0 0 0 0 0 0 0 0 0 0 0 0 0 0 0 0 0 0 0 0 0 0 0 0 0
0 0 0 0 0 0 0 0 0 0 0 0 0 0 0 0 0 0 0 0 0 0 0 0 0 0 0 0 0 0 0 0 0 0 0 0 0 0 0 0 0 0 0 0 0 0 0 0 0 0 0 0 0 0 0 0 0 0 0 0 0 0 0 0 0 0 0 0 0 0 0 0 0 0 0 0 0 0 0 0 0 0 0 0 0 0 0 0 0 0 0 0 0 0 0 0 0 0 0 0 0 0 0 0 0 0 0 0 0 0 0 0 0 0 0 0 0 0 0 0 0 0 0 0 0 0 0 0 0 0 0 0 0 0 0 0 0 0 0 0 0 0 0 0
0 0 0 0 0 0 0 0 0 0 0 0 0 0 0 0 0 0 0 0 0 0 0 0 0 0 0 0 0 0 0 0 0 0 0 0 0 0 0 0 0 0 0 0 0 0 0 0 0 0 0 0 0 0 0 0 0 0 0 0 0 0 0 0 0 0 0 0 0 0 0 0 0 0 0 0 0 0 0 0 0 0 0 0 0 0 0 0 0 0 0 0 0 0 0 0 0 0 0 0 0 0 0 0 0 0 0 0 0 0 0 0 0 0 0 0 0 0 0 0 0 0 0 0 0 0 0 0 0 0 0 0 0 0 0 0 0 0 0 0 0 0 0 0
0 0 0 0 0 0 0 0 0 0 0 0 0 0 0 0 0 0 0 0 0 0 0 0 0 0 0 0 0 0 0 0 0 0 0 0 0 0 0 0 0 0 0 0 0 0 0 0 0 0 0 0 0 0 0 0 0 0 0 0 0 0 0 0 0 0 0 0 0 0 0 0 0 0 0 0 0 0 0 0 0 0 0 0 0 0 0 0 0 0 0 0 0 0 0 0 0 0 0 0 0 0 0 0 0 0 0 0 0 0 0 0 0 0 0 0 0 0 0 0 0 0 0 0 0 0 0 0 0 0 0 0 0 0 0 0 0 0 0 0 0 0 0 0
0 0 0 0 0 0 0 0 0 0 0 0 0 0 0 0 0 0 0 0 0 0 0 0 0 0 0 0 0 0 0 0 0 0 0 0 0 0 0 0 0 0 0 0 0 0 0 0 0 0 0 0 0 0 0 0 0 0 0 0 0 0 0 0 0 0 0 0 0 0 0 0 0 0 0 0 0 0 0 0 0 0 0 0 0 0 0 0 0 0 0 0 0 0 0 0 0 0 0 0 0 0 0 0 0 0 0 0 0 0 0 0 0 0 0 0 0 0 0 0 0 0 0 0 0 0 0 0 0 0 0 0 0 0 0 0 0 0 0 0 0 0 0 0
0 0 0 0 0 0 0 0 0 0 0 0 0 0 0 0 0 0 0 0 0 0 0 0 0 0 0 0 0 0 0 0 0 0 0 0 0 0 0 0 0 0 0 0 0 0 0 0 0 0 0 0 0 0 0 0 0 0 0 0 0 0 0 0 0 0 0 0 0 0 0 0 0 0 0 0 0 0 0 0 0 0 0 0 0 0 0 0 0 0 0 0 0 0 0 0 0 0 0 0 0 0 0 0 0 0 0 0 0 0 0 0 0 0 0 0 0 0 0 0 0 0 0 0 0 0 0 0 0 0 0 0 0 0 0 0 0 0 0 0 0 0 0 0
0 0 0 0 0 0 0 0 0 0 0 0 0 0 0 0 0 0 0 0 0 0 0 0 0 0 0 0 0 0 0 0 0 0 0 0 0 0 0 0 0 0 0 0 0 0 0 0 0 0 0 0 0 0 0 0 0 0 0 0 0 0 0 0 0 0 0 0 0 0 0 0 0 0 0 0 0 0 0 0 0 0 0 0 0 0 0 0 0 0 0 0 0 0 0 0 0 0 0 0 0 0 0 0 0 0 0 0 0 0 0 0 0 0 0 0 0 0 0 0 0 0 0 0 0 0 0 0 0 0 0 0 0 0 0 0 0 0 0 0 0 0 0 0
0 0 0 0 0 0 0 0 0 0 0 0 0 0 0 0 0 0 0 0 0 0 0 0 0 0 0 0 0 0 0 0 0 0 0 0 0 0 0 0 0 0 0 0 0 0 0 0 0 0 0 0 0 0 0 0 0 0 0 0 0 0 0 0 0 0 0 0 0 0 0 0 0 0 0 0 0 0 0 0 0 0 0 0 0 0 0 0 0 0 0 0 0 0 0 0 0 0 0 0 0 0 0 0 0 0 0 0 0 0 0 0 0 0 0 0 0 0 0 0 0 0 0 0 0 0 0 0 0 0 0 0 0 0 0 0 0 0 0 0 0 0 0 0
0 0 0 0 0 0 0 0 0 0 0 0 0 0 0 0 0 0 0 0 0 0 0 0 0 0 0 0 0 0 0 0 0 0 0 0 0 0 0 0 0 0 0 0 0 0 0 0 0 0 0 0 0 0 0 0 0 0 0 0 0 0 0 0 0 0 0 0 0 0 0 0 0 0 0 0 0 0 0 0 0 0 0 0 0 0 0 0 0 0 0 0 0 0 0 0 0 0 0 0 0 0 0 0 0 0 0 0 0 0 0 0 0 0 0 0 0 0 0 0 0 0 0 0 0 0 0 0 0 0 0 0 0 0 0 0 0 0 0 0 0 0 0 0
0 0 0 0 0 0 0 0 0 0 0 0 0 0 0 0 0 0 0 0 0 0 0 0 0 0 0 0 0 0 0 0 0 0 0 0 0 0 0 0 0 0 0 0 0 0 0 0 0 0 0 0 0 0 0 0 0 0 0 0 0 0 0 0 0 0 0 0 0 0 0 0 0 0 0 0 0 0 0 0 0 0 0 0 0 0 0 0 0 0 0 0 0 0 0 0 0 0 0 0 0 0 0 0 0 0 0 0 0 0 0 0 0 0 0 0 0 0 0 0 0 0 0 0 0 0 0 0 0 0 0 0 0 0 0 0 0 0 0 0 0 0 0 0
0 0 0 0 0 0 0 0 0 0 0 0 0 0 0 0 0 0 0 0 0 0 0 0 0 0 0 0 0 0 0 0 0 0 0 0 0 0 0 0 0 0 0 0 0 0 0 0 0 0 0 0 0 0 0 0 0 0 0 0 0 0 0 0 0 0 0 0 0 0 0 0 0 0 0 0 0 0 0 0 0 0 0 0 0 0 0 0 0 0 0 0 0 0 0 0 0 0 0 0 0 0 0 0 0 0 0 0 0 0 0 0 0 0 0 0 0 0 0 0 0 0 0 0 0 0 0 0 0 0 0 0 0 0 0 0 0 0 0 0 0 0 0 0
0 0 0 0 0 0 0 0 0 0 0 0 0 0 0 0 0 0 0 0 0 0 0 0 0 0 0 0 0 0 0 0 0 0 0 0 0 0 0 0 0 0 0 0 0 0 0 0 0 0 0 0 0 0 0 0 0 0 0 0 0 0 0 0 0 0 0 0 0 0 0 0 0 0 0 0 0 0 0 0 0 0 0 0 0 0 0 169 146 126 0 0 0 0 0 0 0 0 0 0 0 0 0 0 0 0 0 0 0 0 0 0 0 0 0 0 0 0 0 0 0 0 0 0 0 0 0 0 0 0 0 0 0 0 0 0 0 0 0 0 0 0 0 0
0 0 0 0 0 0 0 0 0 0 0 0 0 0 0 0 0 0 0 0 0 0 0 0 0 0 0 0 0 0 0 0 0 0 0 0 0 0 0 0 0 0 0 0 0 0 0 0 0 0 0 0 0 0 255 208 122 255 208 122 255 208 122 255 208 122 255 208 122 255 208 122 255 208 122 255 208 122 255 208 122 255 208 122 255 208 122 255 208 122 88 71 56 0 0 0 0 0 0 0 0 0 0 0 0 0 0 0 0 0 0 0 0 0 0 0 0 0 0 0 0 0 0 0 0 0 0 0 0 0 0 0 0 0 0 0 0 0 0 0 0 0 0 0
0 0 0 0 0 0 0 0 0 0 0 0 0 0 0 0 0 0 0 0 0 0 0 0 0 0 0 0 0 0 0 0 0 0 0 0 0 0 0 0 0 0 0 0 0 0 0 0 0 0 0 0 0 0 255 208 122 255 208 122 255 208 122 255 208 122 255 208 122 255 208 122 255 208 122 255 208 122 255 208 122 255 208 122 255 208 122 255 208 122 158 132 110 158 132 110 88 71 56 0 0 0 0 0 0 0 0 0 0 0 0 0 0 0 0 0 0 0 0 0 0 0 0 0 0 0 0 0 0 0 0 0 0 0 0 0 0 0 0 0 0 0 0 0
0 0 0 0 0 0 0 0 0 0 0 0 0 0 0 0 0 0 0 0 0 0 0 0 0 0 0 0 0 0 0 0 0 0 0 0 0 0 0 0 0 0 0 0 0 0 0 0 0 0 0 0 0 0 0 0 0 0 0 0 0 0 0 0 0 0 0 0 0 0 0 0 88 71 56 153 125 102 153 125 102 153 125 102 153 125 102 153 125 102 153 125 102 153 125 102 153 125 102 153 125 102 88 71 56 0 0 0 0 0 0 0 0 0 0 0 0 0 0 0 0 0 0 0 0 0 0 0 0 0 0 0 0 0 0 0 0 0 0 0 0 0 0 0
0 0 0 0 0 0 0 0 0 0 0 0 0 0 0 0 0 0 0 0 0 0 0 0 0 0 0 0 0 0 0 0 0 0 0 0 0 0 0 0 0 0 0 0 0 0 0 0 0 0 0 0 0 0 0 0 0 0 0 0 0 0 0 0 0 0 88 71 56 148 119 94 148 119 94 148 119 94 148 119 94 148 119 94 148 119 94 148 119 94 148 119 94 148 119 94 148 119 94 148 119 94 148 119 94 148 119 94 88 71 56 0 0 0 0 0 0 0 0 0 0 0 0 0 0 0 0 0 0 0 0 0 0 0 0 0 0 0 0 0 0 0 0 0
0 0 0 0 0 0 0 0 0 0 0 0 0 0 0 0 0 0 0 0 0 0 0 0 0 0 0 0 0 0 0 0 0 0 0 0 0 0 0 0 0 0 0 0 0 0 0 0 0 0 0 0 0 0 0 0 0 0 0 0 0 0 0 0 0 0 73 51 32 0 0 0 88 71 56 133 107 84 133 107 84 133 107 84 133 107 84 133 107 84 133 107 84 133 107 84 133 107 84 133 107 84 88 71 56 81 56 36 0 0 0 0 0 0 0 0 0 0 0 0 0 0 0 0 0 0 0 0 0 0 0 0 0 0 0 0 0 0 0 0 0 0 0 0
0 0 0 0 0 0 0 0 0 0 0 0 0 0 0 0 0 0 0 0 0 0 0 0 0 0 0 0 0 0 0 0 0 0 0 0 0 0 0 0 0 0 0 0 0 0 0 0 169 146 126 0 0 0 0 0 0 0 0 0 0 0 0 0 0 0 73 51 32 73 51 32 0 0 0 0 0 0 88 71 56 118 95 75 118 95 75 118 95 75 118 95 75 118 95 75 88 71 56 0 0 0 81 56 36 81 56 36 0 0 0 0 0 0 0 0 0 0 0 0 0 0 0 0 0 0 0 0 0 0 0 0 0 0 0 0 0 0 0 0 0 0 0 0
0 0 0 0 0 0 0 0 0 0 0 0 0 0 0 0 0 0 0 0 0 0 0 0 0 0 0 0 0 0 0 0 0 0 0 0 0 0 0 0 0 0 0 0 0 88 71 56 163 139 118 88 71 56 0 0 0 0 0 0 0 0 0 0 0 0 73 51 32 73 51 32 73 51 32 73 51 32 0 0 0 0 0 0 88 71 56 103 83 65 88 71 56 0 0 0 81 56 36 81 56 36 81 56 36 81 56 36 0 0 0 0 0 0 0 0 0 0 0 0 0 0 0 0 0 0 0 0 0 0 0 0 0 0 0 0 0 0 0 0 0 0 0 0
0 0 0 0 0 0 0 0 0 0 0 0 0 0 0 0 0 0 0 0 0 0 0 0 0 0 0 0 0 0 0 0 0 0 0 0 0 0 0 88 71 56 158 132 110 158 132 110 158 132 110 158 132 110 158 132 110 88 71 56 0 0 0 0 0 0 73 51 32 73 51 32 73 51 32 73 51 32 73 51 32 0 0 0 0 0 0 88 71 56 0 0 0 81 56 36 81 56 36 81 56 36 81 56 36 81 56 36 0 0 0 0 0 0 0 0 0 0 0 0 0 0 0 0 0 0 0 0 0 0 0 0 0 0 0 0 0 0 0 0 0 0 0 0
0 0 0 0 0 0 0 0 0 0 0 0 0 0 0 0 0 0 0 0 0 0 0 0 0 0 0 0 0 0 0 0 0 88 71 56 153 125 102 153 125 102 153 125 102 153 125 102 153 125 102 153 125 102 153 125 102 153 125 102 153 125 102 88 71 56 73 51 32 73 51 32 73 51 32 73 51 32 73 51 32 73 51 32 73 51 32 81 56 36 81 56 36 81 56 36 81 56 36 81 56 36 81 56 36 81 56 36 0 0 0 0 0 0 0 0 0 0 0 0 0 0 0 0 0 0 0 0 0 0 0 0 0 0 0 0 0 0 0 0 0 0 0 0
0 0 0 0 0 0 0 0 0 0 0 0 0 0 0 0 0 0 0 0 0 0 0 0 0 0 0 88 71 56 148 119 94 148 119 94 148 119 94 148 119 94 148 119 94 148 119 94 148 119 94 148 119 94 148 119 94 148 119 94 148 119 94 148 119 94 73 51 32 73 51 32 73 51 32 73 51 32 73 51 32 73 51 32 73 51 32 81 56 36 81 56 36 81 56 36 81 56 36 81 56 36 81 56 36 81 56 36 0 0 0 0 0 0 0 0 0 0 0 0 0 0 0 0 0 0 0 0 0 0 0 0 0 0 0 0 0 0 0 0 0 0 0 0
0 0 0 0 0 0 0 0 0 0 0 0 0 0 0 0 0 0 0 0 0 0 0 0 0 0 0 73 51 32 0 0 0 88 71 56 133 107 84 133 107 84 133 107 84 133 107 84 133 107 84 133 107 84 133 107 84 133 107 84 133 107 84 88 71 56 73 51 32 73 51 32 73 51 32 73 51 32 73 51 32 73 51 32 73 51 32 81 56 36 81 56 36 81 56 36 81 56 36 81 56 36 81 56 36 81 56 36 0 0 0 0 0 0 169 146 126 0 0 0 0 0 0 0 0 0 0 0 0 0 0 0 0 0 0 0 0 0 0 0 0 0 0 0
0 0 0 0 0 0 0 0 0 0 0 0 0 0 0 0 0 0 0 0 0 0 0 0 0 0 0 73 51 32 73 51 32 0 0 0 0 0 0 88 71 56 118 95 75 118 95 75 118 95 75 118 95 75 118 95 75 88 71 56 0 0 0 81 56 36 73 51 32 73 51 32 73 51 32 73 51 32 73 51 32 73 51 32 73 51 32 81 56 36 81 56 36 81 56 36 81 56 36 81 56 36 81 56 36 81 56 36 0 0 0 88 71 56 163 139 118 88 71 56 0 0 0 0 0 0 0 0 0 0 0 0 0 0 0 0 0 0 0 0 0 0 0 0
0 0 0 0 0 0 0 0 0 0 0 0 0 0 0 0 0 0 0 0 0 0 0 0 0 0 0 73 51 32 73 51 32 73 51 32 73 51 32 0 0 0 0 0 0 88 71 56 103 83 65 88 71 56 0 0 0 81 56 36 81 56 36 81 56 36 73 51 32 73 51 32 73 51 32 73 51 32 73 51 32 73 51 32 73 51 32 81 56 36 81 56 36 81 56 36 81 56 36 81 56 36 81 56 36 88 71 56 158 132 110 158 132 110 158 132 110 158 132 110 158 132 110 88 71 56 0 0 0 0 0 0 0 0 0 0 0 0 0 0 0 0 0 0
0 0 0 0 0 0 0 0 0 0 0 0 0 0 0 0 0 0 0 0 0 0 0 0 0 0 0 73 51 32 73 51 32 73 51 32 73 51 32 73 51 32 0 0 0 0 0 0 88 71 56 0 0 0 81 56 36 81 56 36 81 56 36 81 56 36 73 51 32 73 51 32 73 51 32 73 51 32 73 51 32 73 51 32 73 51 32 81 56 36 81 56 36 81 56 36 81 56 36 88 71 56 153 125 102 153 125 102 153 125 102 153 125 102 153 125 102 153 125 102 153 125 102 153 125 102 153 125 102 88 71 56 0 0 0 0 0 0 0 0 0 0 0 0
0 0 0 0 0 0 0 0 0 0 0 0 0 0 0 0 0 0 0 0 0 0 0 0 0 0 0 73 51 32 73 51 32 73 51 32 73 51 32 73 51 32 73 51 32 73 51 32 81 56 36 81 56 36 81 56 36 81 56 36 81 56 36 81 56 36 73 51 32 73 51 32 73 51 32 73 51 32 73 51 32 73 51 32 73 51 32 81 56 36 81 56 36 88 71 56 148 119 94 148 119 94 148 119 94 148 119 94 148 119 94 148 119 94 148 119 94 148 119 94 148 119 94 148 119 94 148 119 94 148 119 94 148 119 94 88 71 56 0 0 0 0 0 0
0 0 0 0 0 0 0 0 0 0 0 0 0 0 0 0 0 0 0 0 0 0 0 0 0 0 0 73 51 32 73 51 32 73 51 32 73 51 32 73 51 32 73 51 32 73 51 32 81 56 36 81 56 36 81 56 36 81 56 36 81 56 36 81 56 36 73 51 32 73 51 32 73 51 32 73 51 32 73 51 32 73 51 32 73 51 32 81 56 36 81 56 36 73 51 32 81 56 36 88 71 56 133 107 84 133 107 84 133 107 84 133 107 84 133 107 84 133 107 84 133 107 84 133 107 84 133 107 84 88 71 56 81 56 36 0 0 0 0 0 0 0 0 0
0 0 0 0 0 0 0 0 0 0 0 0 0 0 0 0 0 0 0 0 0 0 0 0 0 0 0 73 51 32 73 51 32 73 51 32 73 51 32 73 51 32 73 51 32 73 51 32 81 56 36 81 56 36 81 56 36 81 56 36 81 56 36 81 56 36 73 51 32 73 51 32 73 51 32 73 51 32 73 51 32 73 51 32 73 51 32 81 56 36 81 56 36 73 51 32 73 51 32 81 56 36 81 56 36 88 71 56 118 95 75 118 95 75 118 95 75 118 95 75 118 95 75 88 71 56 0 0 0 81 56 36 81 56 36 0 0 0 0 0 0 0 0 0
0 0 0 0 0 0 0 0 0 0 0 0 0 0 0 0 0 0 0 0 0 0 0 0 0 0 0 73 51 32 73 51 32 73 51 32 73 51 32 73 51 32 73 51 32 73 51 32 81 56 36 81 56 36 81 56 36 81 56 36 81 56 36 81 56 36 73 51 32 73 51 32 73 51 32 73 51 32 73 51 32 73 51 32 73 51 32 81 56 36 81 56 36 73 51 32 73 51 32 73 51 32 73 51 32 81 56 36 0 0 0 88 71 56 103 83 65 88 71 56 0 0 0 81 56 36 81 56 36 81 56 36 81 56 36 0 0 0 0 0 0 0 0 0
0 0 0 0 0 0 0 0 0 0 0 0 0 0 0 0 0 0 0 0 0 0 0 0 0 0 0 73 51 32 73 51 32 73 51 32 73 51 32 73 51 32 73 51 32 73 51 32 81 56 36 81 56 36 81 56 36 81 56 36 81 56 36 81 56 36 73 51 32 73 51 32 73 51 32 73 51 32 73 51 32 73 51 32 73 51 32 81 56 36 81 56 36 73 51 32 73 51 32 73 51 32 73 51 32 73 51 32 0 0 0 0 0 0 88 71 56 0 0 0 81 56 36 81 56 36 81 56 36 81 56 36 81 56 36 0 0 0 0 0 0 0 0 0
0 0 0 0 0 0 0 0 0 0 0 0 0 0 0 0 0 0 0 0 0 0 0 0 0 0 0 73 51 32 73 51 32 73 51 32 73 51 32 73 51 32 73 51 32 73 51 32 81 56 36 81 56 36 81 56 36 81 56 36 81 56 36 81 56 36 73 51 32 73 51 32 73 51 32 73 51 32 73 51 32 73 51 32 73 51 32 81 56 36 81 56 36 73 51 32 73 51 32 73 51 32 73 51 32 73 51 32 73 51 32 73 51 32 81 56 36 81 56 36 81 56 36 81 56 36 81 56 36 81 56 36 81 56 36 0 0 0 0 0 0 0 0 0
0 0 0 0 0 0 0 0 0 0 0 0 0 0 0 0 0 0 0 0 0 0 0 0 0 0 0 73 51 32 73 51 32 73 51 32 73 51 32 73 51 32 73 51 32 73 51 32 81 56 36 81 56 36 81 56 36 81 56 36 81 56 36 81 56 36 73 51 32 73 51 32 73 51 32 73 51 32 73 51 32 73 51 32 73 51 32 81 56 36 81 56 36 73 51 32 73 51 32 73 51 32 73 51 32 73 51 32 73 51 32 73 51 32 81 56 36 81 56 36 81 56 36 81 56 36 81 56 36 81 56 36 81 56 36 0 0 0 0 0 0 0 0 0
0 0 0 0 0 0 0 0 0 0 0 0 0 0 0 0 0 0 0 0 0 0 0 0 0 0 0 73 51 32 73 51 32 73 51 32 73 51 32 73 51 32 73 51 32 73 51 32 81 56 36 81 56 36 81 56 36 81 56 36 81 56 36 81 56 36 73 51 32 73 51 32 73 51 32 73 51 32 73 51 32 73 51 32 73 51 32 81 56 36 81 56 36 73 51 32 73 51 32 73 51 32 73 51 32 73 51 32 73 51 32 73 51 32 81 56 36 81 56 36 81 56 36 81 56 36 81 56 36 81 56 36 81 56 36 0 0 0 0 0 0 0 0 0
0 0 0 0 0 0 0 0 0 0 0 0 0 0 0 0 0 0 0 0 0 0 0 0 0 0 0 73 51 32 73 51 32 73 51 32 73 51 32 73 51 32 73 51 32 73 51 32 81 56 36 81 56 36 81 56 36 81 56 36 81 56 36 81 56 36 81 56 36 0 0 0 73 51 32 73 51 32 73 51 32 73 51 32 73 51 32 81 56 36 81 56 36 73 51 32 73 51 32 73 51 32 73 51 32 73 51 32 73 51 32 73 51 32 81 56 36 81 56 36 81 56 36 81 56 36 81 56 36 81 56 36 81 56 36 0 0 0 0 0 0 0 0 0
0 0 0 0 0 0 0 0 0 0 0 0 0 0 0 0 0 0 0 0 0 0 0 0 0 0 0 73 51 32 73 51 32 73 51 32 73 51 32 73 51 32 73 51 32 73 51 32 81 56 36 81 56 36 81 56 36 81 56 36 81 56 36 81 56 36 81 56 36 0 0 0 0 0 0 73 51 32 73 51 32 73 51 32 73 51 32 81 56 36 81 56 36 73 51 32 73 51 32 73 51 32 73 51 32 73 51 32 73 51 32 73 51 32 81 56 36 81 56 36 81 56 36 81 56 36 81 56 36 81 56 36 81 56 36 0 0 0 0 0 0 0 0 0
0 0 0 0 0 0 0 0 0 0 0 0 0 0 0 0 0 0 0 0 0 0 0 0 0 0 0 0 0 0 0 0 0 73 51 32 73 51 32 73 51 32 73 51 32 73 51 32 81 56 36 81 56 36 81 56 36 81 56 36 81 56 36 0 0 0 0 0 0 0 0 0 0 0 0 0 0 0 0 0 0 73 51 32 73 51 32 81 56 36 81 56 36 73 51 32 73 51 32 73 51 32 73 51 32 73 51 32 73 51 32 73 51 32 81 56 36 81 56 36 81 56 36 81 56 36 81 56 36 81 56 36 81 56 36 0 0 0 0 0 0 0 0 0
0 0 0 0 0 0 0 0 0 0 0 0 0 0 0 0 0 0 0 0 0 0 0 0 0 0 0 0 0 0 0 0 0 0 0 0 73 51 32 73 51 32 73 51 32 73 51 32 81 56 36 81 56 36 81 56 36 81 56 36 0 0 0 0 0 0 0 0 0 0 0 0 8 11 9 0 0 0 0 0 0 0 0 0 73 51 32 81 56 36 0 0 0 73 51 32 73 51 32 73 51 32 73 51 32 73 51 32 73 51 32 73 51 32 81 56 36 81 56 36 81 56 36 81 56 36 81 56 36 81 56 36 81 56 36 0 0 0 0 0 0 0 0 0
0 0 0 0 0 0 0 0 0 0 0 0 0 0 0 0 0 0 0 0 0 0 0 0 0 0 0 0 0 0 0 0 0 0 0 0 0 0 0 0 0 0 73 51 32 73 51 32 81 56 36 81 56 36 0 0 0 0 0 0 0 0 0 8 11 9 8 11 9 8 11 9 8 11 9 8 11 9 8 11 9 8 11 9 0 0 0 0 0 0 0 0 0 73 51 32 73 51 32 73 51 32 73 51 32 73 51 32 73 51 32 73 51 32 81 56 36 81 56 36 81 56 36 81 56 36 81 56 36 81 56 36 81 56 36 0 0 0 0 0 0 0 0 0
0 0 0 0 0 0 0 0 0 0 0 0 0 0 0 0 0 0 0 0 0 0 0 0 0 0 0 0 0 0 0 0 0 0 0 0 0 0 0 0 0 0 0 0 0 73 51 32 81 56 36 0 0 0 0 0 0 8 11 9 8 11 9 8 11 9 8 11 9 8 11 9 8 11 9 8 11 9 8 11 9 8 11 9 8 11 9 8 11 9 0 0 0 0 0 0 0 0 0 73 51 32 73 51 32 73 51 32 73 51 32 73 51 32 81 56 36 81 56 36 81 56 36 81 56 36 81 56 36 0 0 0 0 0 0 0 0 0 0 0 0 0 0 0
0 0 0 0 0 0 0 0 0 0 0 0 0 0 0 0 0 0 0 0 0 0 0 0 0 0 0 0 0 0 0 0 0 0 0 0 0 0 0 0 0 0 0 0 0 0 0 0 0 0 0 0 0 0 0 0 0 8 11 9 8 11 9 8 11 9 8 11 9 8 11 9 8 11 9 8 11 9 8 11 9 8 11 9 8 11 9 8 11 9 0 0 0 0 0 0 0 0 0 0 0 0 73 51 32 73 51 32 73 51 32 73 51 32 81 56 36 81 56 36 81 56 36 81 56 36 0 0 0 0 0 0 0 0 0 0 0 0 0 0 0 0 0 0
0 0 0 0 0 0 0 0 0 0 0 0 0 0 0 0 0 0 0 0 0 0 0 0 0 0 0 0 0 0 0 0 0 0 0 0 0 0 0 0 0 0 0 0 0 0 0 0 0 0 0 0 0 0 8 11 9 8 11 9 8 11 9 8 11 9 8 11 9 8 11 9 8 11 9 8 11 9 8 11 9 8 11 9 8 11 9 8 11 9 8 11 9 0 0 0 0 0 0 0 0 0 0 0 0 0 0 0 73 51 32 73 51 32 81 56 36 81 56 36 0 0 0 0 0 0 0 0 0 0 0 0 0 0 0 0 0 0 0 0 0 0 0 0
0 0 0 0 0 0 0 0 0 0 0 0 0 0 0 0 0 0 0 0 0 0 0 0 0 0 0 0 0 0 0 0 0 0 0 0 0 0 0 0 0 0 0 0 0 0 0 0 0 0 0 0 0 0 0 0 0 8 11 9 8 11 9 8 11 9 8 11 9 8 11 9 8 11 9 8 11 9 8 11 9 8 11 9 8 11 9 8 11 9 0 0 0 0 0 0 0 0 0 0 0 0 0 0 0 0 0 0 0 0 0 73 51 32 81 56 36 0 0 0 0 0 0 0 0 0 0 0 0 0 0 0 0 0 0 0 0 0 0 0 0 0 0 0
