P3
48 48
255
0 0 0 0 0 0 0 0 0 0 0 0 0 0 0 0 0 0 0 0 0 0 0 0 0 0 0 0 0 0 0 0 0 0 0 0 0 0 0 0 0 0 0 0 0 0 0 0 0 0 0 0 0 0 0 0 0 0 0 0 0 0 0 0 0 0 0 0 0 0 0 0 0 0 0 0 0 0 0 0 0 0 0 0 0 0 0 0 0 0 0 0 0 0 0 0 0 0 0 0 0 0 0 0 0 0 0 0 0 0 0 0 0 0 0 0 0 0 0 0 0 0 0 0 0 0 0 0 0 0 0 0 0 0 0 0 0 0 0 0 0 0 0 0
0 0 0 0 0 0 0 0 0 0 0 0 0 0 0 0 0 0 0 0 0 0 0 0 0 0 0 0 0 0 0 0 0 0 0 0 0 0 0 0 0 0 0 0 0 0 0 0 0 0 0 0 0 0 0 0 0 0 0 0 0 0 0 0 0 0 0 0 0 0 0 0 0 0 0 0 0 0 0 0 0 0 0 0 0 0 0 0 0 0 0 0 0 0 0 0 0 0 0 0 0 0 0 0 0 0 0 0 0 0 0 0 0 0 0 0 0 0 0 0 0 0 0 0 0 0 0 0 0 0 0 0 0 0 0 0 0 0 0 0 0 0 0 0
0 0 0 0 0 0 0 0 0 0 0 0 0 0 0 0 0 0 0 0 0 0 0 0 0 0 0 0 0 0 0 0 0 0 0 0 0 0 0 0 0 0 0 0 0 0 0 0 0 0 0 0 0 0 0 0 0 0 0 0 0 0 0 0 0 0 0 0 0 0 0 0 0 0 0 0 0 0 0 0 0 0 0 0 0 0 0 0 0 0 0 0 0 0 0 0 0 0 0 0 0 0 0 0 0 0 0 0 0 0 0 0 0 0 0 0 0 0 0 0 0 0 0 0 0 0 0 0 0 0 0 0 0 0 0 0 0 0 0 0 0 0 0 0
0 0 0 0 0 0 0 0 0 0 0 0 0 0 0 0 0 0 0 0 0 0 0 0 0 0 0 0 0 0 0 0 0 0 0 0 0 0 0 0 0 0 0 0 0 0 0 0 0 0 0 0 0 0 0 0 0 0 0 0 0 0 0 0 0 0 0 0 0 0 0 0 0 0 0 0 0 0 0 0 0 0 0 0 0 0 0 0 0 0 0 0 0 0 0 0 0 0 0 0 0 0 0 0 0 0 0 0 0 0 0 0 0 0 0 0 0 0 0 0 0 0 0 0 0 0 0 0 0 0 0 0 0 0 0 0 0 0 0 0 0 0 0 0
0 0 0 0 0 0 0 0 0 0 0 0 0 0 0 0 0 0 0 0 0 0 0 0 0 0 0 0 0 0 0 0 0 0 0 0 0 0 0 0 0 0 0 0 0 0 0 0 0 0 0 0 0 0 0 0 0 0 0 0 0 0 0 0 0 0 0 0 0 0 0 0 0 0 0 0 0 0 0 0 0 0 0 0 0 0 0 0 0 0 0 0 0 0 0 0 0 0 0 0 0 0 0 0 0 0 0 0 0 0 0 0 0 0 0 0 0 0 0 0 0 0 0 0 0 0 0 0 0 0 0 0 0 0 0 0 0 0 0 0 0 0 0 0
0 0 0 0 0 0 0 0 0 0 0 0 0 0 0 0 0 0 0 0 0 0 0 0 0 0 0 0 0 0 0 0 0 0 0 0 0 0 0 0 0 0 0 0 0 0 0 0 0 0 0 0 0 0 0 0 0 0 0 0 0 0 0 0 0 0 0 0 0 0 0 0 0 0 0 0 0 0 0 0 0 0 0 0 0 0 0 0 0 0 0 0 0 0 0 0 0 0 0 0 0 0 0 0 0 0 0 0 0 0 0 0 0 0 0 0 0 0 0 0 0 0 0 0 0 0 0 0 0 0 0 0 0 0 0 0 0 0 0 0 0 0 0 0
0 0 0 0 0 0 0 0 0 0 0 0 0 0 0 0 0 0 0 0 0 0 0 0 0 0 0 0 0 0 0 0 0 0 0 0 0 0 0 0 0 0 0 0 0 0 0 0 0 0 0 0 0 0 0 0 0 0 0 0 0 0 0 0 0 0 0 0 0 0 0 0 0 0 0 0 0 0 0 0 0 0 0 0 0 0 0 0 0 0 0 0 0 0 0 0 0 0 0 0 0 0 0 0 0 0 0 0 0 0 0 0 0 0 0 0 0 0 0 0 0 0 0 0 0 0 0 0 0 0 0 0 0 0 0 0 0 0 0 0 0 0 0 0
0 0 0 0 0 0 0 0 0 0 0 0 0 0 0 0 0 0 0 0 0 0 0 0 0 0 0 0 0 0 0 0 0 0 0 0 0 0 0 0 0 0 0 0 0 0 0 0 0 0 0 0 0 0 0 0 0 0 0 0 0 0 0 0 0 0 0 0 0 0 0 0 0 0 0 0 0 0 0 0 0 0 0 0 0 0 0 0 0 0 0 0 0 0 0 0 0 0 0 0 0 0 0 0 0 0 0 0 0 0 0 0 0 0 0 0 0 0 0 0 0 0 0 0 0 0 0 0 0 0 0 0 0 0 0 0 0 0 0 0 0 0 0 0
0 0 0 0 0 0 0 0 0 0 0 0 0 0 0 0 0 0 0 0 0 0 0 0 0 0 0 0 0 0 0 0 0 0 0 0 0 0 0 0 0 0 0 0 0 0 0 0 0 0 0 0 0 0 0 0 0 0 0 0 0 0 0 0 0 0 0 0 0 0 0 0 0 0 0 0 0 0 0 0 0 0 0 0 0 0 0 0 0 0 0 0 0 0 0 0 0 0 0 0 0 0 0 0 0 0 0 0 0 0 0 0 0 0 0 0 0 0 0 0 0 0 0 0 0 0 0 0 0 0 0 0 0 0 0 0 0 0 0 0 0 0 0 0
0 0 0 0 0 0 0 0 0 0 0 0 0 0 0 0 0 0 0 0 0 0 0 0 0 0 0 0 0 0 0 0 0 0 0 0 0 0 0 0 0 0 0 0 0 0 0 0 0 0 0 0 0 0 0 0 0 0 0 0 0 0 0 0 0 0 0 0 0 0 0 0 0 0 0 0 0 0 0 0 0 0 0 0 0 0 0 0 0 0 0 0 0 0 0 0 0 0 0 0 0 0 0 0 0 0 0 0 0 0 0 0 0 0 0 0 0 0 0 0 0 0 0 0 0 0 0 0 0 0 0 0 0 0 0 0 0 0 0 0 0 0 0 0
0 0 0 0 0 0 0 0 0 0 0 0 0 0 0 0 0 0 0 0 0 0 0 0 0 0 0 0 0 0 0 0 0 0 0 0 0 0 0 0 0 0 0 0 0 0 0 0 0 0 0 0 0 0 0 0 0 0 0 0 0 0 0 0 0 0 0 0 0 0 0 0 0 0 0 0 0 0 0 0 0 176 245 255 0 0 0 0 0 0 0 0 0 0 0 0 0 0 0 0 0 0 0 0 0 0 0 0 0 0 0 0 0 0 0 0 0 0 0 0 0 0 0 0 0 0 0 0 0 0 0 0 0 0 0 0 0 0 0 0 0 0 0 0
0 0 0 0 0 0 0 0 0 0 0 0 0 0 0 0 0 0 0 0 0 0 0 0 0 0 0 0 0 0 0 0 0 0 0 0 0 0 0 0 0 0 0 0 0 0 0 0 0 0 0 0 0 0 0 0 0 0 0 0 0 0 0 0 0 0 0 0 0 0 0 0 0 0 0 0 0 0 94 145 153 171 244 255 94 145 153 0 0 0 0 0 0 0 0 0 0 0 0 0 0 0 0 0 0 0 0 0 0 0 0 0 0 0 0 0 0 0 0 0 0 0 0 0 0 0 0 0 0 0 0 0 0 0 0 0 0 0 0 0 0 0 0 0
0 0 0 0 0 0 0 0 0 0 0 0 0 0 0 0 0 0 0 0 0 0 0 0 0 0 0 0 0 0 0 0 0 0 0 0 0 0 0 0 0 0 0 0 0 0 0 0 0 0 0 0 0 0 0 0 0 0 0 0 0 0 0 0 0 0 0 0 0 0 0 0 0 0 0 94 145 153 166 244 255 166 244 255 166 244 255 94 145 153 0 0 0 0 0 0 0 0 0 0 0 0 0 0 0 0 0 0 0 0 0 0 0 0 0 0 0 0 0 0 0 0 0 0 0 0 0 0 0 0 0 0 0 0 0 0 0 0 0 0 0 0 0 0
0 0 0 0 0 0 0 0 0 0 0 0 0 0 0 0 0 0 0 0 0 0 0 0 0 0 0 0 0 0 0 0 0 0 0 0 0 0 0 0 0 0 0 0 0 0 0 0 0 0 0 0 0 0 0 0 0 0 0 0 0 0 0 0 0 0 0 0 0 0 0 0 94 145 153 161 243 255 161 243 255 161 243 255 161 243 255 161 243 255 94 145 153 0 0 0 0 0 0 0 0 0 0 0 0 0 0 0 0 0 0 0 0 0 0 0 0 0 0 0 0 0 0 0 0 0 0 0 0 0 0 0 0 0 0 0 0 0 0 0 0 0 0 0
0 0 0 0 0 0 0 0 0 0 0 0 0 0 0 0 0 0 0 0 0 0 0 0 0 0 0 0 0 0 0 0 0 0 0 0 0 0 0 0 0 0 0 0 0 0 0 0 0 0 0 0 0 0 0 0 0 0 0 0 0 0 0 0 0 0 94 145 153 157 243 255 157 243 255 157 243 255 133 240 255 157 243 255 157 243 255 157 243 255 157 243 255 157 243 255 94 145 153 0 0 0 0 0 0 0 0 0 0 0 0 0 0 0 0 0 0 0 0 0 0 0 0 0 0 0 0 0 0 0 0 0 0 0 0 0 0 0 0 0 0 0 0 0
0 0 0 0 0 0 0 0 0 0 0 0 0 0 0 0 0 0 0 0 0 0 0 0 0 0 0 0 0 0 0 0 0 0 0 0 0 0 0 0 0 0 0 0 0 0 0 0 0 0 0 0 0 0 133 240 255 133 240 255 133 240 255 133 240 255 133 240 255 133 240 255 133 240 255 133 240 255 133 240 255 133 240 255 133 240 255 133 240 255 133 240 255 133 240 255 133 240 255 133 240 255 133 240 255 0 0 0 0 0 0 0 0 0 0 0 0 0 0 0 0 0 0 0 0 0 0 0 0 0 0 0 0 0 0 0 0 0 0 0 0 0 0 0
0 0 0 0 0 0 0 0 0 0 0 0 0 0 0 0 0 0 0 0 0 0 0 0 0 0 0 0 0 0 0 0 0 0 0 0 0 0 0 0 0 0 0 0 0 133 240 255 133 240 255 133 240 255 133 240 255 133 240 255 133 240 255 133 240 255 133 240 255 133 240 255 133 240 255 133 240 255 133 240 255 133 240 255 133 240 255 133 240 255 133 240 255 133 240 255 133 240 255 133 240 255 133 240 255 133 240 255 133 240 255 133 240 255 0 0 0 0 0 0 0 0 0 0 0 0 0 0 0 0 0 0 0 0 0 0 0 0 0 0 0 0 0 0
0 0 0 0 0 0 0 0 0 0 0 0 0 0 0 0 0 0 0 0 0 0 0 0 0 0 0 0 0 0 0 0 0 0 0 0 0 0 0 133 240 255 133 240 255 133 240 255 133 240 255 133 240 255 133 240 255 133 240 255 133 240 255 133 240 255 133 240 255 133 240 255 133 240 255 133 240 255 133 240 255 133 240 255 133 240 255 133 240 255 133 240 255 133 240 255 133 240 255 133 240 255 133 240 255 133 240 255 133 240 255 133 240 255 133 240 255 133 240 255 0 0 0 0 0 0 0 0 0 0 0 0 0 0 0 0 0 0 0 0 0 0 0 0
0 0 0 0 0 0 0 0 0 0 0 0 0 0 0 0 0 0 0 0 0 0 0 0 0 0 0 0 0 0 0 0 0 0 0 0 133 240 255 133 240 255 133 240 255 133 240 255 133 240 255 133 240 255 133 240 255 133 240 255 133 240 255 133 240 255 133 240 255 133 240 255 133 240 255 133 240 255 133 240 255 133 240 255 133 240 255 133 240 255 133 240 255 133 240 255 133 240 255 133 240 255 133 240 255 133 240 255 133 240 255 133 240 255 133 240 255 133 240 255 133 240 255 0 0 0 0 0 0 0 0 0 0 0 0 0 0 0 0 0 0 0 0 0
0 0 0 0 0 0 0 0 0 0 0 0 0 0 0 0 0 0 0 0 0 0 0 0 0 0 0 0 0 0 0 0 0 133 240 255 133 240 255 133 240 255 133 240 255 133 240 255 133 240 255 133 240 255 133 240 255 133 240 255 133 240 255 133 240 255 133 240 255 133 240 255 133 240 255 133 240 255 133 240 255 133 240 255 133 240 255 133 240 255 133 240 255 133 240 255 133 240 255 133 240 255 133 240 255 133 240 255 133 240 255 133 240 255 133 240 255 133 240 255 133 240 255 133 240 255 0 0 0 0 0 0 0 0 0 0 0 0 0 0 0 0 0 0
0 0 0 0 0 0 0 0 0 0 0 0 0 0 0 0 0 0 0 0 0 0 0 0 0 0 0 0 0 0 133 240 255 133 240 255 133 240 255 133 240 255 133 240 255 133 240 255 133 240 255 133 240 255 133 240 255 133 240 255 133 240 255 133 240 255 133 240 255 133 240 255 133 240 255 133 240 255 184 251 255 133 240 255 133 240 255 133 240 255 133 240 255 133 240 255 133 240 255 133 240 255 133 240 255 133 240 255 133 240 255 133 240 255 133 240 255 133 240 255 133 240 255 133 240 255 133 240 255 0 0 0 0 0 0 0 0 0 0 0 0 0 0 0
0 0 0 0 0 0 0 0 0 0 0 0 0 0 0 0 0 0 0 0 0 0 0 0 0 0 0 0 0 0 133 240 255 133 240 255 133 240 255 133 240 255 133 240 255 133 240 255 133 240 255 133 240 255 133 240 255 133 240 255 133 240 255 184 251 255 184 251 255 184 251 255 184 251 255 184 251 255 184 251 255 184 251 255 184 251 255 184 251 255 184 251 255 184 251 255 133 240 255 133 240 255 133 240 255 133 240 255 133 240 255 133 240 255 133 240 255 133 240 255 133 240 255 133 240 255 133 240 255 0 0 0 0 0 0 0 0 0 0 0 0 0 0 0
0 0 0 0 0 0 0 0 0 0 0 0 0 0 0 0 0 0 0 0 0 0 0 0 0 0 0 133 240 255 133 240 255 133 240 255 133 240 255 133 240 255 133 240 255 133 240 255 133 240 255 133 240 255 133 240 255 133 240 255 184 251 255 184 251 255 184 251 255 184 251 255 184 251 255 184 251 255 184 251 255 184 251 255 184 251 255 184 251 255 184 251 255 184 251 255 184 251 255 133 240 255 133 240 255 133 240 255 133 240 255 133 240 255 133 240 255 133 240 255 133 240 255 133 240 255 133 240 255 133 240 255 0 0 0 0 0 0 0 0 0 0 0 0
0 0 0 0 0 0 0 0 0 0 0 0 0 0 0 0 0 0 0 0 0 0 0 0 0 0 0 0 0 0 133 240 255 133 240 255 133 240 255 133 240 255 133 240 255 133 240 255 133 240 255 133 240 255 133 240 255 184 251 255 184 251 255 184 251 255 184 251 255 184 251 255 184 251 255 184 251 255 184 251 255 184 251 255 184 251 255 184 251 255 184 251 255 184 251 255 184 251 255 184 251 255 133 240 255 133 240 255 133 240 255 133 240 255 133 240 255 133 240 255 133 240 255 133 240 255 133 240 255 0 0 0 0 0 0 0 0 0 0 0 0 0 0 0
0 0 0 0 0 0 0 0 0 0 0 0 0 0 0 0 0 0 0 0 0 0 0 0 0 0 0 0 0 0 133 240 255 133 240 255 133 240 255 133 240 255 133 240 255 133 240 255 133 240 255 133 240 255 133 240 255 133 240 255 184 251 255 184 251 255 184 251 255 184 251 255 184 251 255 184 251 255 184 251 255 184 251 255 184 251 255 184 251 255 184 251 255 184 251 255 184 251 255 133 240 255 133 240 255 133 240 255 133 240 255 133 240 255 133 240 255 133 240 255 133 240 255 133 240 255 133 240 255 0 0 0 0 0 0 0 0 0 0 0 0 0 0 0
0 0 0 0 0 0 0 0 0 0 0 0 0 0 0 0 0 0 0 0 0 0 0 0 0 0 0 0 0 0 0 0 0 133 240 255 133 240 255 133 240 255 133 240 255 133 240 255 133 240 255 133 240 255 133 240 255 133 240 255 133 240 255 184 251 255 184 251 255 184 251 255 184 251 255 184 251 255 184 251 255 184 251 255 184 251 255 184 251 255 184 251 255 184 251 255 133 240 255 133 240 255 133 240 255 133 240 255 133 240 255 133 240 255 133 240 255 133 240 255 133 240 255 133 240 255 0 0 0 0 0 0 0 0 0 0 0 0 0 0 0 0 0 0
0 0 0 0 0 0 0 0 0 0 0 0 0 0 0 0 0 0 0 0 0 0 0 0 0 0 0 0 0 0 0 0 0 79 144 153 133 240 255 133 240 255 133 240 255 133 240 255 133 240 255 133 240 255 133 240 255 133 240 255 133 240 255 133 240 255 133 240 255 133 240 255 133 240 255 133 240 255 184 251 255 133 240 255 133 240 255 133 240 255 133 240 255 133 240 255 133 240 255 133 240 255 133 240 255 133 240 255 133 240 255 133 240 255 133 240 255 133 240 255 133 240 255 157 243 255 94 145 153 0 0 0 0 0 0 0 0 0 0 0 0 0 0 0
0 0 0 0 0 0 0 0 0 0 0 0 0 0 0 0 0 0 0 0 0 0 0 0 0 0 0 0 0 0 0 0 0 79 144 153 79 144 153 133 240 255 133 240 255 133 240 255 133 240 255 133 240 255 133 240 255 133 240 255 133 240 255 133 240 255 133 240 255 133 240 255 133 240 255 133 240 255 133 240 255 133 240 255 133 240 255 133 240 255 133 240 255 133 240 255 133 240 255 133 240 255 133 240 255 133 240 255 133 240 255 133 240 255 133 240 255 133 240 255 94 145 153 88 160 170 0 0 0 0 0 0 0 0 0 0 0 0 0 0 0 0 0 0
0 0 0 0 0 0 0 0 0 0 0 0 0 0 0 0 0 0 0 0 0 0 0 0 0 0 0 0 0 0 0 0 0 79 144 153 79 144 153 79 144 153 79 144 153 133 240 255 133 240 255 133 240 255 133 240 255 133 240 255 133 240 255 133 240 255 133 240 255 133 240 255 133 240 255 133 240 255 133 240 255 133 240 255 133 240 255 133 240 255 133 240 255 133 240 255 133 240 255 133 240 255 133 240 255 133 240 255 133 240 255 133 240 255 125 194 204 94 145 153 88 160 170 88 160 170 0 0 0 0 0 0 0 0 0 0 0 0 0 0 0 0 0 0
0 0 0 0 0 0 0 0 0 0 0 0 0 0 0 0 0 0 0 0 0 0 0 0 0 0 0 0 0 0 0 0 0 79 144 153 79 144 153 79 144 153 79 144 153 79 144 153 88 160 170 88 160 170 133 240 255 133 240 255 133 240 255 133 240 255 133 240 255 133 240 255 133 240 255 133 240 255 133 240 255 133 240 255 133 240 255 133 240 255 133 240 255 133 240 255 133 240 255 133 240 255 133 240 255 0 0 0 94 145 153 109 169 178 94 145 153 88 160 170 88 160 170 88 160 170 0 0 0 0 0 0 0 0 0 0 0 0 0 0 0 0 0 0
0 0 0 0 0 0 0 0 0 0 0 0 0 0 0 0 0 0 0 0 0 0 0 0 0 0 0 0 0 0 0 0 0 79 144 153 79 144 153 79 144 153 79 144 153 79 144 153 88 160 170 88 160 170 88 160 170 88 160 170 88 160 170 0 0 0 79 144 153 79 144 153 79 144 153 79 144 153 133 240 255 88 160 170 88 160 170 88 160 170 88 160 170 88 160 170 79 144 153 79 144 153 79 144 153 79 144 153 79 144 153 88 160 170 88 160 170 88 160 170 88 160 170 88 160 170 0 0 0 0 0 0 0 0 0 0 0 0 0 0 0 0 0 0
0 0 0 0 0 0 0 0 0 0 0 0 0 0 0 0 0 0 0 0 0 0 0 0 0 0 0 0 0 0 0 0 0 79 144 153 79 144 153 79 144 153 79 144 153 79 144 153 88 160 170 88 160 170 88 160 170 88 160 170 88 160 170 0 0 0 79 144 153 79 144 153 79 144 153 79 144 153 79 144 153 88 160 170 88 160 170 88 160 170 88 160 170 88 160 170 79 144 153 79 144 153 79 144 153 79 144 153 79 144 153 88 160 170 88 160 170 88 160 170 88 160 170 88 160 170 0 0 0 0 0 0 0 0 0 0 0 0 0 0 0 0 0 0
0 0 0 0 0 0 0 0 0 0 0 0 0 0 0 0 0 0 0 0 0 0 0 0 0 0 0 0 0 0 0 0 0 79 144 153 79 144 153 79 144 153 79 144 153 79 144 153 88 160 170 88 160 170 88 160 170 88 160 170 88 160 170 0 0 0 79 144 153 79 144 153 79 144 153 79 144 153 79 144 153 88 160 170 88 160 170 88 160 170 88 160 170 88 160 170 79 144 153 79 144 153 79 144 153 79 144 153 79 144 153 88 160 170 88 160 170 88 160 170 88 160 170 88 160 170 0 0 0 0 0 0 0 0 0 0 0 0 0 0 0 0 0 0
0 0 0 0 0 0 0 0 0 0 0 0 0 0 0 0 0 0 0 0 0 0 0 0 0 0 0 0 0 0 0 0 0 79 144 153 79 144 153 79 144 153 79 144 153 79 144 153 88 160 170 88 160 170 88 160 170 88 160 170 88 160 170 0 0 0 79 144 153 79 144 153 79 144 153 79 144 153 79 144 153 88 160 170 88 160 170 88 160 170 88 160 170 88 160 170 79 144 153 79 144 153 79 144 153 79 144 153 79 144 153 88 160 170 88 160 170 88 160 170 88 160 170 88 160 170 0 0 0 0 0 0 0 0 0 0 0 0 0 0 0 0 0 0
0 0 0 0 0 0 0 0 0 0 0 0 0 0 0 0 0 0 0 0 0 0 0 0 0 0 0 0 0 0 0 0 0 79 144 153 79 144 153 79 144 153 79 144 153 79 144 153 88 160 170 88 160 170 88 160 170 88 160 170 88 160 170 0 0 0 79 144 153 79 144 153 79 144 153 79 144 153 79 144 153 88 160 170 88 160 170 88 160 170 88 160 170 88 160 170 79 144 153 79 144 153 79 144 153 79 144 153 79 144 153 88 160 170 88 160 170 88 160 170 88 160 170 88 160 170 0 0 0 0 0 0 0 0 0 0 0 0 0 0 0 0 0 0
0 0 0 0 0 0 0 0 0 0 0 0 0 0 0 0 0 0 0 0 0 0 0 0 0 0 0 0 0 0 0 0 0 79 144 153 79 144 153 79 144 153 79 144 153 79 144 153 88 160 170 88 160 170 88 160 170 88 160 170 88 160 170 0 0 0 79 144 153 79 144 153 79 144 153 79 144 153 79 144 153 88 160 170 88 160 170 88 160 170 88 160 170 88 160 170 79 144 153 79 144 153 79 144 153 79 144 153 79 144 153 88 160 170 88 160 170 88 160 170 88 160 170 88 160 170 0 0 0 0 0 0 0 0 0 0 0 0 0 0 0 0 0 0
0 0 0 0 0 0 0 0 0 0 0 0 0 0 0 0 0 0 0 0 0 0 0 0 0 0 0 0 0 0 0 0 0 79 144 153 79 144 153 79 144 153 79 144 153 79 144 153 88 160 170 88 160 170 88 160 170 88 160 170 88 160 170 0 0 0 79 144 153 79 144 153 79 144 153 79 144 153 79 144 153 88 160 170 88 160 170 88 160 170 88 160 170 88 160 170 79 144 153 79 144 153 79 144 153 79 144 153 79 144 153 88 160 170 88 160 170 88 160 170 88 160 170 88 160 170 0 0 0 0 0 0 0 0 0 0 0 0 0 0 0 0 0 0
0 0 0 0 0 0 0 0 0 0 0 0 0 0 0 0 0 0 0 0 0 0 0 0 0 0 0 0 0 0 0 0 0 79 144 153 79 144 153 79 144 153 79 144 153 79 144 153 88 160 170 88 160 170 88 160 170 88 160 170 88 160 170 0 0 0 79 144 153 79 144 153 79 144 153 79 144 153 79 144 153 88 160 170 88 160 170 88 160 170 88 160 170 88 160 170 79 144 153 79 144 153 79 144 153 79 144 153 79 144 153 88 160 170 88 160 170 88 160 170 88 160 170 88 160 170 0 0 0 0 0 0 0 0 0 0 0 0 0 0 0 0 0 0
0 0 0 0 0 0 0 0 0 0 0 0 0 0 0 0 0 0 0 0 0 0 0 0 0 0 0 0 0 0 0 0 0 79 144 153 79 144 153 79 144 153 79 144 153 79 144 153 88 160 170 88 160 170 88 160 170 88 160 170 88 160 170 0 0 0 79 144 153 79 144 153 79 144 153 79 144 153 79 144 153 88 160 170 88 160 170 88 160 170 88 160 170 88 160 170 79 144 153 79 144 153 79 144 153 79 144 153 79 144 153 88 160 170 88 160 170 88 160 170 88 160 170 88 160 170 0 0 0 0 0 0 0 0 0 0 0 0 0 0 0 0 0 0
0 0 0 0 0 0 0 0 0 0 0 0 0 0 0 0 0 0 0 0 0 0 0 0 0 0 0 0 0 0 0 0 0 79 144 153 79 144 153 79 144 153 79 144 153 79 144 153 88 160 170 88 160 170 88 160 170 88 160 170 88 160 170 0 0 0 79 144 153 79 144 153 79 144 153 79 144 153 79 144 153 88 160 170 88 160 170 88 160 170 88 160 170 88 160 170 79 144 153 79 144 153 79 144 153 79 144 153 79 144 153 88 160 170 88 160 170 88 160 170 88 160 170 88 160 170 0 0 0 0 0 0 0 0 0 0 0 0 0 0 0 0 0 0
0 0 0 0 0 0 0 0 0 0 0 0 0 0 0 0 0 0 0 0 0 0 0 0 0 0 0 0 0 0 0 0 0 79 144 153 79 144 153 79 144 153 79 144 153 79 144 153 88 160 170 88 160 170 88 160 170 88 160 170 88 160 170 0 0 0 79 144 153 79 144 153 79 144 153 79 144 153 79 144 153 88 160 170 88 160 170 88 160 170 88 160 170 88 160 170 79 144 153 79 144 153 79 144 153 79 144 153 79 144 153 88 160 170 88 160 170 88 160 170 88 160 170 88 160 170 0 0 0 0 0 0 0 0 0 0 0 0 0 0 0 0 0 0
0 0 0 0 0 0 0 0 0 0 0 0 0 0 0 0 0 0 0 0 0 0 0 0 0 0 0 0 0 0 0 0 0 79 144 153 79 144 153 79 144 153 79 144 153 79 144 153 88 160 170 88 160 170 88 160 170 88 160 170 88 160 170 0 0 0 79 144 153 79 144 153 79 144 153 79 144 153 79 144 153 88 160 170 88 160 170 88 160 170 88 160 170 88 160 170 79 144 153 79 144 153 79 144 153 79 144 153 79 144 153 88 160 170 88 160 170 88 160 170 88 160 170 88 160 170 0 0 0 0 0 0 0 0 0 0 0 0 0 0 0 0 0 0
0 0 0 0 0 0 0 0 0 0 0 0 0 0 0 0 0 0 0 0 0 0 0 0 0 0 0 0 0 0 0 0 0 79 144 153 79 144 153 79 144 153 79 144 153 79 144 153 88 160 170 88 160 170 88 160 170 88 160 170 88 160 170 0 0 0 79 144 153 79 144 153 79 144 153 79 144 153 79 144 153 88 160 170 88 160 170 88 160 170 88 160 170 88 160 170 79 144 153 79 144 153 79 144 153 79 144 153 79 144 153 88 160 170 88 160 170 88 160 170 88 160 170 88 160 170 0 0 0 0 0 0 0 0 0 0 0 0 0 0 0 0 0 0
0 0 0 0 0 0 0 0 0 0 0 0 0 0 0 0 0 0 0 0 0 0 0 0 0 0 0 0 0 0 0 0 0 79 144 153 79 144 153 79 144 153 79 144 153 79 144 153 88 160 170 88 160 170 88 160 170 88 160 170 88 160 170 8 11 9 79 144 153 79 144 153 79 144 153 79 144 153 79 144 153 88 160 170 88 160 170 88 160 170 88 160 170 88 160 170 79 144 153 79 144 153 79 144 153 79 144 153 79 144 153 88 160 170 88 160 170 88 160 170 88 160 170 88 160 170 0 0 0 0 0 0 0 0 0 0 0 0 0 0 0 0 0 0
0 0 0 0 0 0 0 0 0 0 0 0 0 0 0 0 0 0 0 0 0 0 0 0 0 0 0 0 0 0 0 0 0 79 144 153 79 144 153 79 144 153 79 144 153 79 144 153 88 160 170 88 160 170 88 160 170 88 160 170 88 160 170 8 11 9 79 144 153 79 144 153 79 144 153 79 144 153 79 144 153 88 160 170 88 160 170 88 160 170 88 160 170 88 160 170 79 144 153 79 144 153 79 144 153 79 144 153 79 144 153 88 160 170 88 160 170 88 160 170 88 160 170 88 160 170 0 0 0 0 0 0 0 0 0 0 0 0 0 0 0 0 0 0
0 0 0 0 0 0 0 0 0 0 0 0 0 0 0 0 0 0 0 0 0 0 0 0 0 0 0 0 0 0 0 0 0 79 144 153 79 144 153 79 144 153 79 144 153 79 144 153 88 160 170 88 160 170 88 160 170 88 160 170 88 160 170 8 11 9 79 144 153 79 144 153 79 144 153 79 144 153 79 144 153 88 160 170 88 160 170 88 160 170 88 160 170 88 160 170 79 144 153 79 144 153 79 144 153 79 144 153 79 144 153 88 160 170 88 160 170 88 160 170 88 160 170 88 160 170 0 0 0 0 0 0 0 0 0 0 0 0 0 0 0 0 0 0
0 0 0 0 0 0 0 0 0 0 0 0 0 0 0 0 0 0 0 0 0 0 0 0 0 0 0 0 0 0 0 0 0 79 144 153 79 144 153 79 144 153 79 144 153 79 144 153 88 160 170 88 160 170 88 160 170 88 160 170 88 160 170 8 11 9 79 144 153 79 144 153 79 144 153 79 144 153 79 144 153 88 160 170 88 160 170 88 160 170 88 160 170 88 160 170 79 144 153 79 144 153 79 144 153 79 144 153 79 144 153 88 160 170 88 160 170 88 160 170 88 160 170 88 160 170 0 0 0 0 0 0 0 0 0 0 0 0 0 0 0 0 0 0
0 0 0 0 0 0 0 0 0 0 0 0 0 0 0 0 0 0 0 0 0 0 0 0 0 0 0 0 0 0 0 0 0 0 0 0 0 0 0 79 144 153 79 144 153 79 144 153 88 160 170 88 160 170 88 160 170 8 11 9 8 11 9 8 11 9 8 11 9 8 11 9 79 144 153 79 144 153 79 144 153 88 160 170 88 160 170 88 160 170 0 0 0 0 0 0 0 0 0 0 0 0 79 144 153 79 144 153 79 144 153 88 160 170 88 160 170 88 160 170 0 0 0 0 0 0 0 0 0 0 0 0 0 0 0 0 0 0 0 0 0 0 0 0
