P3
96 96
255
0 0 0 0 0 0 0 0 0 0 0 0 0 0 0 0 0 0 0 0 0 0 0 0 0 0 0 0 0 0 0 0 0 0 0 0 0 0 0 0 0 0 0 0 0 0 0 0 0 0 0 0 0 0 0 0 0 0 0 0 0 0 0 0 0 0 0 0 0 0 0 0 0 0 0 0 0 0 0 0 0 0 0 0 0 0 0 0 0 0 0 0 0 0 0 0 0 0 0 0 0 0 0 0 0 0 0 0 0 0 0 0 0 0 0 0 0 0 0 0 0 0 0 0 0 0 0 0 0 0 0 0 0 0 0 0 0 0 0 0 0 0 0 0 0 0 0 0 0 0 0 0 0 0 0 0 0 0 0 0 0 0 0 0 0 0 0 0 0 0 0 0 0 0 0 0 0 0 0 0 0 0 0 0 0 0 0 0 0 0 0 0 0 0 0 0 0 0 0 0 0 0 0 0 0 0 0 0 0 0 0 0 0 0 0 0 0 0 0 0 0 0 0 0 0 0 0 0 0 0 0 0 0 0 0 0 0 0 0 0 0 0 0 0 0 0 0 0 0 0 0 0 0 0 0 0 0 0 0 0 0 0 0 0 0 0 0 0 0 0 0 0 0 0 0 0 0 0 0 0 0 0 0 0 0 0 0 0
0 0 0 0 0 0 0 0 0 0 0 0 0 0 0 0 0 0 0 0 0 0 0 0 0 0 0 0 0 0 0 0 0 0 0 0 0 0 0 0 0 0 0 0 0 0 0 0 0 0 0 0 0 0 0 0 0 0 0 0 0 0 0 0 0 0 0 0 0 0 0 0 0 0 0 0 0 0 0 0 0 0 0 0 0 0 0 0 0 0 0 0 0 0 0 0 0 0 0 0 0 0 0 0 0 0 0 0 0 0 0 0 0 0 0 0 0 0 0 0 0 0 0 0 0 0 0 0 0 0 0 0 0 0 0 0 0 0 0 0 0 0 0 0 0 0 0 0 0 0 0 0 0 0 0 0 0 0 0 0 0 0 0 0 0 0 0 0 0 0 0 0 0 0 0 0 0 0 0 0 0 0 0 0 0 0 0 0 0 0 0 0 0 0 0 0 0 0 0 0 0 0 0 0 0 0 0 0 0 0 0 0 0 0 0 0 0 0 0 0 0 0 0 0 0 0 0 0 0 0 0 0 0 0 0 0 0 0 0 0 0 0 0 0 0 0 0 0 0 0 0 0 0 0 0 0 0 0 0 0 0 0 0 0 0 0 0 0 0 0 0 0 0 0 0 0 0 0 0 0 0 0 0 0 0 0 0 0
0 0 0 0 0 0 0 0 0 0 0 0 0 0 0 0 0 0 0 0 0 0 0 0 0 0 0 0 0 0 0 0 0 0 0 0 0 0 0 0 0 0 0 0 0 0 0 0 0 0 0 0 0 0 0 0 0 0 0 0 0 0 0 0 0 0 0 0 0 0 0 0 0 0 0 0 0 0 0 0 0 0 0 0 0 0 0 0 0 0 0 0 0 0 0 0 0 0 0 0 0 0 0 0 0 0 0 0 0 0 0 0 0 0 0 0 0 0 0 0 0 0 0 0 0 0 0 0 0 0 0 0 0 0 0 0 0 0 0 0 0 0 0 0 0 0 0 0 0 0 0 0 0 0 0 0 0 0 0 0 0 0 0 0 0 0 0 0 0 0 0 0 0 0 0 0 0 0 0 0 0 0 0 0 0 0 0 0 0 0 0 0 0 0 0 0 0 0 0 0 0 0 0 0 0 0 0 0 0 0 0 0 0 0 0 0 0 0 0 0 0 0 0 0 0 0 0 0 0 0 0 0 0 0 0 0 0 0 0 0 0 0 0 0 0 0 0 0 0 0 0 0 0 0 0 0 0 0 0 0 0 0 0 0 0 0 0 0 0 0 0 0 0 0 0 0 0 0 0 0 0 0 0 0 0 0 0 0
0 0 0 0 0 0 0 0 0 0 0 0 0 0 0 0 0 0 0 0 0 0 0 0 0 0 0 0 0 0 0 0 0 0 0 0 0 0 0 0 0 0 0 0 0 0 0 0 0 0 0 0 0 0 0 0 0 0 0 0 0 0 0 0 0 0 0 0 0 0 0 0 0 0 0 0 0 0 0 0 0 0 0 0 0 0 0 0 0 0 0 0 0 0 0 0 0 0 0 0 0 0 0 0 0 0 0 0 0 0 0 0 0 0 0 0 0 0 0 0 0 0 0 0 0 0 0 0 0 0 0 0 0 0 0 0 0 0 0 0 0 0 0 0 0 0 0 0 0 0 0 0 0 0 0 0 0 0 0 0 0 0 0 0 0 0 0 0 0 0 0 0 0 0 0 0 0 0 0 0 0 0 0 0 0 0 0 0 0 0 0 0 0 0 0 0 0 0 0 0 0 0 0 0 0 0 0 0 0 0 0 0 0 0 0 0 0 0 0 0 0 0 0 0 0 0 0 0 0 0 0 0 0 0 0 0 0 0 0 0 0 0 0 0 0 0 0 0 0 0 0 0 0 0 0 0 0 0 0 0 0 0 0 0 0 0 0 0 0 0 0 0 0 0 0 0 0 0 0 0 0 0 0 0 0 0 0 0
0 0 0 0 0 0 0 0 0 0 0 0 0 0 0 0 0 0 0 0 0 0 0 0 0 0 0 0 0 0 0 0 0 0 0 0 0 0 0 0 0 0 0 0 0 0 0 0 0 0 0 0 0 0 0 0 0 0 0 0 0 0 0 0 0 0 0 0 0 0 0 0 0 0 0 0 0 0 0 0 0 0 0 0 0 0 0 0 0 0 0 0 0 0 0 0 0 0 0 0 0 0 0 0 0 0 0 0 0 0 0 0 0 0 0 0 0 0 0 0 0 0 0 0 0 0 0 0 0 0 0 0 0 0 0 0 0 0 0 0 0 0 0 0 0 0 0 0 0 0 0 0 0 0 0 0 0 0 0 0 0 0 0 0 0 0 0 0 0 0 0 0 0 0 0 0 0 0 0 0 0 0 0 0 0 0 0 0 0 0 0 0 0 0 0 0 0 0 0 0 0 0 0 0 0 0 0 0 0 0 0 0 0 0 0 0 0 0 0 0 0 0 0 0 0 0 0 0 0 0 0 0 0 0 0 0 0 0 0 0 0 0 0 0 0 0 0 0 0 0 0 0 0 0 0 0 0 0 0 0 0 0 0 0 0 0 0 0 0 0 0 0 0 0 0 0 0 0 0 0 0 0 0 0 0 0 0 0
0 0 0 0 0 0 0 0 0 0 0 0 0 0 0 0 0 0 0 0 0 0 0 0 0 0 0 0 0 0 0 0 0 0 0 0 0 0 0 0 0 0 0 0 0 0 0 0 0 0 0 0 0 0 0 0 0 0 0 0 0 0 0 0 0 0 0 0 0 0 0 0 0 0 0 0 0 0 0 0 0 0 0 0 0 0 0 0 0 0 0 0 0 0 0 0 0 0 0 0 0 0 0 0 0 0 0 0 0 0 0 0 0 0 0 0 0 0 0 0 0 0 0 0 0 0 0 0 0 0 0 0 0 0 0 0 0 0 0 0 0 0 0 0 0 0 0 0 0 0 0 0 0 0 0 0 0 0 0 0 0 0 0 0 0 0 0 0 0 0 0 0 0 0 0 0 0 0 0 0 0 0 0 0 0 0 0 0 0 0 0 0 0 0 0 0 0 0 0 0 0 0 0 0 0 0 0 0 0 0 0 0 0 0 0 0 0 0 0 0 0 0 0 0 0 0 0 0 0 0 0 0 0 0 0 0 0 0 0 0 0 0 0 0 0 0 0 0 0 0 0 0 0 0 0 0 0 0 0 0 0 0 0 0 0 0 0 0 0 0 0 0 0 0 0 0 0 0 0 0 0 0 0 0 0 0 0 0
0 0 0 0 0 0 0 0 0 0 0 0 0 0 0 0 0 0 0 0 0 0 0 0 0 0 0 0 0 0 0 0 0 0 0 0 0 0 0 0 0 0 0 0 0 0 0 0 0 0 0 0 0 0 0 0 0 0 0 0 0 0 0 0 0 0 0 0 0 0 0 0 0 0 0 0 0 0 0 0 0 0 0 0 0 0 0 0 0 0 0 0 0 0 0 0 0 0 0 0 0 0 0 0 0 0 0 0 0 0 0 0 0 0 0 0 0 0 0 0 0 0 0 0 0 0 0 0 0 0 0 0 0 0 0 0 0 0 0 0 0 0 0 0 0 0 0 0 0 0 0 0 0 0 0 0 0 0 0 0 0 0 0 0 0 0 0 0 0 0 0 0 0 0 0 0 0 0 0 0 0 0 0 0 0 0 0 0 0 0 0 0 0 0 0 0 0 0 0 0 0 0 0 0 0 0 0 0 0 0 0 0 0 0 0 0 0 0 0 0 0 0 0 0 0 0 0 0 0 0 0 0 0 0 0 0 0 0 0 0 0 0 0 0 0 0 0 0 0 0 0 0 0 0 0 0 0 0 0 0 0 0 0 0 0 0 0 0 0 0 0 0 0 0 0 0 0 0 0 0 0 0 0 0 0 0 0 0
0 0 0 0 0 0 0 0 0 0 0 0 0 0 0 0 0 0 0 0 0 0 0 0 0 0 0 0 0 0 0 0 0 0 0 0 0 0 0 0 0 0 0 0 0 0 0 0 0 0 0 0 0 0 0 0 0 0 0 0 0 0 0 0 0 0 0 0 0 0 0 0 0 0 0 0 0 0 0 0 0 0 0 0 0 0 0 0 0 0 0 0 0 0 0 0 0 0 0 0 0 0 0 0 0 0 0 0 0 0 0 0 0 0 0 0 0 0 0 0 0 0 0 0 0 0 0 0 0 0 0 0 0 0 0 0 0 0 0 0 0 0 0 0 0 0 0 0 0 0 0 0 0 0 0 0 0 0 0 0 0 0 0 0 0 0 0 0 0 0 0 0 0 0 0 0 0 0 0 0 0 0 0 0 0 0 0 0 0 0 0 0 0 0 0 0 0 0 0 0 0 0 0 0 0 0 0 0 0 0 0 0 0 0 0 0 0 0 0 0 0 0 0 0 0 0 0 0 0 0 0 0 0 0 0 0 0 0 0 0 0 0 0 0 0 0 0 0 0 0 0 0 0 0 0 0 0 0 0 0 0 0 0 0 0 0 0 0 0 0 0 0 0 0 0 0 0 0 0 0 0 0 0 0 0 0 0 0
0 0 0 0 0 0 0 0 0 0 0 0 0 0 0 0 0 0 0 0 0 0 0 0 0 0 0 0 0 0 0 0 0 0 0 0 0 0 0 0 0 0 0 0 0 0 0 0 0 0 0 0 0 0 0 0 0 0 0 0 0 0 0 0 0 0 0 0 0 0 0 0 0 0 0 0 0 0 0 0 0 0 0 0 0 0 0 0 0 0 0 0 0 0 0 0 0 0 0 0 0 0 0 0 0 0 0 0 0 0 0 0 0 0 0 0 0 0 0 0 0 0 0 0 0 0 0 0 0 0 0 0 0 0 0 0 0 0 0 0 0 0 0 0 0 0 0 0 0 0 0 0 0 0 0 0 0 0 0 0 0 0 0 0 0 0 0 0 0 0 0 0 0 0 0 0 0 0 0 0 0 0 0 0 0 0 0 0 0 0 0 0 0 0 0 0 0 0 0 0 0 0 0 0 0 0 0 0 0 0 0 0 0 0 0 0 0 0 0 0 0 0 0 0 0 0 0 0 0 0 0 0 0 0 0 0 0 0 0 0 0 0 0 0 0 0 0 0 0 0 0 0 0 0 0 0 0 0 0 0 0 0 0 0 0 0 0 0 0 0 0 0 0 0 0 0 0 0 0 0 0 0 0 0 0 0 0 0
0 0 0 0 0 0 0 0 0 0 0 0 0 0 0 0 0 0 0 0 0 0 0 0 0 0 0 0 0 0 0 0 0 0 0 0 0 0 0 0 0 0 0 0 0 0 0 0 0 0 0 0 0 0 0 0 0 0 0 0 0 0 0 0 0 0 0 0 0 0 0 0 0 0 0 0 0 0 0 0 0 0 0 0 0 0 0 0 0 0 0 0 0 0 0 0 0 0 0 0 0 0 0 0 0 0 0 0 0 0 0 0 0 0 0 0 0 0 0 0 0 0 0 0 0 0 0 0 0 0 0 0 0 0 0 0 0 0 0 0 0 0 0 0 0 0 0 0 0 0 0 0 0 0 0 0 0 0 0 0 0 0 0 0 0 0 0 0 0 0 0 0 0 0 0 0 0 0 0 0 0 0 0 0 0 0 0 0 0 0 0 0 0 0 0 0 0 0 0 0 0 0 0 0 0 0 0 0 0 0 0 0 0 0 0 0 0 0 0 0 0 0 0 0 0 0 0 0 0 0 0 0 0 0 0 0 0 0 0 0 0 0 0 0 0 0 0 0 0 0 0 0 0 0 0 0 0 0 0 0 0 0 0 0 0 0 0 0 0 0 0 0 0 0 0 0 0 0 0 0 0 0 0 0 0 0 0 0
0 0 0 0 0 0 0 0 0 0 0 0 0 0 0 0 0 0 0 0 0 0 0 0 0 0 0 0 0 0 0 0 0 0 0 0 0 0 0 0 0 0 0 0 0 0 0 0 0 0 0 0 0 0 0 0 0 0 0 0 0 0 0 0 0 0 0 0 0 0 0 0 0 0 0 0 0 0 0 0 0 0 0 0 0 0 0 0 0 0 0 0 0 0 0 0 0 0 0 0 0 0 0 0 0 0 0 0 0 0 0 0 0 0 0 0 0 0 0 0 0 0 0 0 0 0 0 0 0 0 0 0 0 0 0 0 0 0 0 0 0 0 0 0 0 0 0 0 0 0 0 0 0 0 0 0 0 0 0 0 0 0 0 0 0 0 0 0 0 0 0 0 0 0 0 0 0 0 0 0 0 0 0 0 0 0 0 0 0 0 0 0 0 0 0 0 0 0 0 0 0 0 0 0 0 0 0 0 0 0 0 0 0 0 0 0 0 0 0 0 0 0 0 0 0 0 0 0 0 0 0 0 0 0 0 0 0 0 0 0 0 0 0 0 0 0 0 0 0 0 0 0 0 0 0 0 0 0 0 0 0 0 0 0 0 0 0 0 0 0 0 0 0 0 0 0 0 0 0 0 0 0 0 0 0 0 0 0
0 0 0 0 0 0 0 0 0 0 0 0 0 0 0 0 0 0 0 0 0 0 0 0 0 0 0 0 0 0 0 0 0 0 0 0 0 0 0 0 0 0 0 0 0 0 0 0 0 0 0 0 0 0 0 0 0 0 0 0 0 0 0 0 0 0 0 0 0 0 0 0 0 0 0 0 0 0 0 0 0 0 0 0 0 0 0 0 0 0 0 0 0 0 0 0 0 0 0 0 0 0 0 0 0 0 0 0 0 0 0 0 0 0 0 0 0 0 0 0 0 0 0 0 0 0 0 0 0 0 0 0 0 0 0 0 0 0 0 0 0 0 0 0 0 0 0 0 0 0 0 0 0 0 0 0 0 0 0 0 0 0 0 0 0 0 0 0 0 0 0 0 0 0 0 0 0 0 0 0 0 0 0 0 0 0 0 0 0 0 0 0 0 0 0 0 0 0 0 0 0 0 0 0 0 0 0 0 0 0 0 0 0 0 0 0 0 0 0 0 0 0 0 0 0 0 0 0 0 0 0 0 0 0 0 0 0 0 0 0 0 0 0 0 0 0 0 0 0 0 0 0 0 0 0 0 0 0 0 0 0 0 0 0 0 0 0 0 0 0 0 0 0 0 0 0 0 0 0 0 0 0 0 0 0 0 0 0
0 0 0 0 0 0 0 0 0 0 0 0 0 0 0 0 0 0 0 0 0 0 0 0 0 0 0 0 0 0 0 0 0 0 0 0 0 0 0 0 0 0 0 0 0 0 0 0 0 0 0 0 0 0 0 0 0 0 0 0 0 0 0 0 0 0 0 0 0 0 0 0 0 0 0 0 0 0 0 0 0 0 0 0 0 0 0 0 0 0 0 0 0 0 0 0 0 0 0 0 0 0 0 0 0 0 0 0 0 0 0 0 0 0 0 0 0 0 0 0 0 0 0 0 0 0 0 0 0 0 0 0 0 0 0 0 0 0 0 0 0 0 0 0 0 0 0 0 0 0 0 0 0 0 0 0 0 0 0 0 0 0 0 0 0 0 0 0 0 0 0 0 0 0 0 0 0 0 0 0 0 0 0 0 0 0 0 0 0 0 0 0 0 0 0 0 0 0 0 0 0 0 0 0 0 0 0 0 0 0 0 0 0 0 0 0 0 0 0 0 0 0 0 0 0 0 0 0 0 0 0 0 0 0 0 0 0 0 0 0 0 0 0 0 0 0 0 0 0 0 0 0 0 0 0 0 0 0 0 0 0 0 0 0 0 0 0 0 0 0 0 0 0 0 0 0 0 0 0 0 0 0 0 0 0 0 0 0
0 0 0 0 0 0 0 0 0 0 0 0 0 0 0 0 0 0 0 0 0 0 0 0 0 0 0 0 0 0 0 0 0 0 0 0 0 0 0 0 0 0 0 0 0 0 0 0 0 0 0 0 0 0 0 0 0 0 0 0 0 0 0 0 0 0 0 0 0 0 0 0 0 0 0 0 0 0 0 0 0 0 0 0 0 0 0 0 0 0 0 0 0 0 0 0 0 0 0 0 0 0 0 0 0 0 0 0 0 0 0 0 0 0 0 0 0 0 0 0 0 0 0 0 0 0 0 0 0 0 0 0 0 0 0 0 0 0 0 0 0 0 0 0 0 0 0 0 0 0 0 0 0 0 0 0 0 0 0 0 0 0 0 0 0 0 0 0 0 0 0 0 0 0 0 0 0 0 0 0 0 0 0 0 0 0 0 0 0 0 0 0 0 0 0 0 0 0 0 0 0 0 0 0 0 0 0 0 0 0 0 0 0 0 0 0 0 0 0 0 0 0 0 0 0 0 0 0 0 0 0 0 0 0 0 0 0 0 0 0 0 0 0 0 0 0 0 0 0 0 0 0 0 0 0 0 0 0 0 0 0 0 0 0 0 0 0 0 0 0 0 0 0 0 0 0 0 0 0 0 0 0 0 0 0 0 0 0
0 0 0 0 0 0 0 0 0 0 0 0 0 0 0 0 0 0 0 0 0 0 0 0 0 0 0 0 0 0 0 0 0 0 0 0 0 0 0 0 0 0 0 0 0 0 0 0 0 0 0 0 0 0 0 0 0 0 0 0 0 0 0 0 0 0 0 0 0 0 0 0 0 0 0 0 0 0 0 0 0 0 0 0 0 0 0 0 0 0 0 0 0 0 0 0 0 0 0 0 0 0 0 0 0 0 0 0 0 0 0 0 0 0 0 0 0 0 0 0 0 0 0 0 0 0 0 0 0 0 0 0 0 0 0 0 0 0 0 0 0 0 0 0 0 0 0 0 0 0 0 0 0 0 0 0 0 0 0 0 0 0 0 0 0 0 0 0 0 0 0 0 0 0 0 0 0 0 0 0 0 0 0 0 0 0 0 0 0 0 0 0 0 0 0 0 0 0 0 0 0 0 0 0 0 0 0 0 0 0 0 0 0 0 0 0 0 0 0 0 0 0 0 0 0 0 0 0 0 0 0 0 0 0 0 0 0 0 0 0 0 0 0 0 0 0 0 0 0 0 0 0 0 0 0 0 0 0 0 0 0 0 0 0 0 0 0 0 0 0 0 0 0 0 0 0 0 0 0 0 0 0 0 0 0 0 0 0
0 0 0 0 0 0 0 0 0 0 0 0 0 0 0 0 0 0 0 0 0 0 0 0 0 0 0 0 0 0 0 0 0 0 0 0 0 0 0 0 0 0 0 0 0 0 0 0 0 0 0 0 0 0 0 0 0 0 0 0 0 0 0 0 0 0 0 0 0 0 0 0 0 0 0 0 0 0 0 0 0 0 0 0 0 0 0 0 0 0 0 0 0 0 0 0 0 0 0 0 0 0 0 0 0 0 0 0 0 0 0 0 0 0 0 0 0 0 0 0 0 0 0 0 0 0 0 0 0 0 0 0 0 0 0 0 0 0 0 0 0 0 0 0 0 0 0 0 0 0 0 0 0 0 0 0 0 0 0 0 0 0 0 0 0 0 0 0 0 0 0 0 0 0 0 0 0 0 0 0 0 0 0 0 0 0 0 0 0 0 0 0 0 0 0 0 0 0 0 0 0 0 0 0 0 0 0 0 0 0 0 0 0 0 0 0 0 0 0 0 0 0 0 0 0 0 0 0 0 0 0 0 0 0 0 0 0 0 0 0 0 0 0 0 0 0 0 0 0 0 0 0 0 0 0 0 0 0 0 0 0 0 0 0 0 0 0 0 0 0 0 0 0 0 0 0 0 0 0 0 0 0 0 0 0 0 0 0
0 0 0 0 0 0 0 0 0 0 0 0 0 0 0 0 0 0 0 0 0 0 0 0 0 0 0 0 0 0 0 0 0 0 0 0 0 0 0 0 0 0 0 0 0 0 0 0 0 0 0 0 0 0 0 0 0 0 0 0 0 0 0 0 0 0 0 0 0 0 0 0 0 0 0 0 0 0 0 0 0 0 0 0 0 0 0 0 0 0 0 0 0 0 0 0 0 0 0 0 0 0 0 0 0 0 0 0 0 0 0 0 0 0 0 0 0 0 0 0 0 0 0 0 0 0 0 0 0 0 0 0 0 0 0 0 0 0 0 0 0 0 0 0 0 0 0 0 0 0 0 0 0 0 0 0 0 0 0 0 0 0 0 0 0 0 0 0 0 0 0 0 0 0 0 0 0 0 0 0 0 0 0 0 0 0 0 0 0 0 0 0 0 0 0 0 0 0 0 0 0 0 0 0 0 0 0 0 0 0 0 0 0 0 0 0 0 0 0 0 0 0 0 0 0 0 0 0 0 0 0 0 0 0 0 0 0 0 0 0 0 0 0 0 0 0 0 0 0 0 0 0 0 0 0 0 0 0 0 0 0 0 0 0 0 0 0 0 0 0 0 0 0 0 0 0 0 0 0 0 0 0 0 0 0 0 0 0
0 0 0 0 0 0 0 0 0 0 0 0 0 0 0 0 0 0 0 0 0 0 0 0 0 0 0 0 0 0 0 0 0 0 0 0 0 0 0 0 0 0 0 0 0 0 0 0 0 0 0 0 0 0 0 0 0 0 0 0 0 0 0 0 0 0 0 0 0 0 0 0 0 0 0 0 0 0 0 0 0 0 0 0 0 0 0 0 0 0 0 0 0 0 0 0 0 0 0 0 0 0 0 0 0 0 0 0 0 0 0 0 0 0 0 0 0 0 0 0 0 0 0 0 0 0 0 0 0 0 0 0 0 0 0 0 0 0 0 0 0 0 0 0 0 0 0 0 0 0 0 0 0 0 0 0 0 0 0 0 0 0 0 0 0 0 0 0 0 0 0 0 0 0 0 0 0 0 0 0 0 0 0 0 0 0 0 0 0 0 0 0 0 0 0 0 0 0 0 0 0 0 0 0 0 0 0 0 0 0 0 0 0 0 0 0 0 0 0 0 0 0 0 0 0 0 0 0 0 0 0 0 0 0 0 0 0 0 0 0 0 0 0 0 0 0 0 0 0 0 0 0 0 0 0 0 0 0 0 0 0 0 0 0 0 0 0 0 0 0 0 0 0 0 0 0 0 0 0 0 0 0 0 0 0 0 0 0
0 0 0 0 0 0 0 0 0 0 0 0 0 0 0 0 0 0 0 0 0 0 0 0 0 0 0 0 0 0 0 0 0 0 0 0 0 0 0 0 0 0 0 0 0 0 0 0 0 0 0 0 0 0 0 0 0 0 0 0 0 0 0 0 0 0 0 0 0 0 0 0 0 0 0 0 0 0 0 0 0 0 0 0 0 0 0 0 0 0 0 0 0 0 0 0 0 0 0 0 0 0 0 0 0 0 0 0 0 0 0 0 0 0 0 0 0 0 0 0 0 0 0 0 0 0 0 0 0 0 0 0 0 0 0 0 0 0 0 0 0 0 0 0 0 0 0 0 0 0 0 0 0 0 0 0 0 0 0 0 0 0 0 0 0 0 0 0 0 0 0 0 0 0 0 0 0 0 0 0 0 0 0 0 0 0 0 0 0 0 0 0 0 0 0 0 0 0 0 0 0 0 0 0 0 0 0 0 0 0 0 0 0 0 0 0 0 0 0 0 0 0 0 0 0 0 0 0 0 0 0 0 0 0 0 0 0 0 0 0 0 0 0 0 0 0 0 0 0 0 0 0 0 0 0 0 0 0 0 0 0 0 0 0 0 0 0 0 0 0 0 0 0 0 0 0 0 0 0 0 0 0 0 0 0 0 0 0
0 0 0 0 0 0 0 0 0 0 0 0 0 0 0 0 0 0 0 0 0 0 0 0 0 0 0 0 0 0 0 0 0 0 0 0 0 0 0 0 0 0 0 0 0 0 0 0 0 0 0 0 0 0 0 0 0 0 0 0 0 0 0 0 0 0 0 0 0 0 0 0 0 0 0 0 0 0 0 0 0 0 0 0 0 0 0 0 0 0 0 0 0 0 0 0 0 0 0 0 0 0 0 0 0 0 0 0 0 0 0 0 0 0 0 0 0 0 0 0 0 0 0 0 0 0 0 0 0 0 0 0 0 0 0 0 0 0 0 0 0 0 0 0 0 0 0 0 0 0 0 0 0 0 0 0 0 0 0 0 0 0 0 0 0 0 0 0 0 0 0 0 0 0 0 0 0 0 0 0 0 0 0 0 0 0 0 0 0 0 0 0 0 0 0 0 0 0 0 0 0 0 0 0 0 0 0 0 0 0 0 0 0 0 0 0 0 0 0 0 0 0 0 0 0 0 0 0 0 0 0 0 0 0 0 0 0 0 0 0 0 0 0 0 0 0 0 0 0 0 0 0 0 0 0 0 0 0 0 0 0 0 0 0 0 0 0 0 0 0 0 0 0 0 0 0 0 0 0 0 0 0 0 0 0 0 0 0
0 0 0 0 0 0 0 0 0 0 0 0 0 0 0 0 0 0 0 0 0 0 0 0 0 0 0 0 0 0 0 0 0 0 0 0 0 0 0 0 0 0 0 0 0 0 0 0 0 0 0 0 0 0 0 0 0 0 0 0 0 0 0 0 0 0 0 0 0 0 0 0 0 0 0 0 0 0 0 0 0 0 0 0 0 0 0 0 0 0 0 0 0 0 0 0 0 0 0 0 0 0 0 0 0 0 0 0 0 0 0 0 0 0 0 0 0 0 0 0 0 0 0 0 0 0 0 0 0 0 0 0 0 0 0 0 0 0 0 0 0 0 0 0 0 0 0 0 0 0 0 0 0 0 0 0 0 0 0 0 0 0 0 0 0 0 0 0 0 0 0 0 0 0 0 0 0 0 0 0 0 0 0 0 0 0 0 0 0 0 0 0 0 0 0 0 0 0 0 0 0 0 0 0 0 0 0 0 0 0 0 0 0 0 0 0 0 0 0 0 0 0 0 0 0 0 0 0 0 0 0 0 0 0 0 0 0 0 0 0 0 0 0 0 0 0 0 0 0 0 0 0 0 0 0 0 0 0 0 0 0 0 0 0 0 0 0 0 0 0 0 0 0 0 0 0 0 0 0 0 0 0 0 0 0 0 0 0
0 0 0 0 0 0 0 0 0 0 0 0 0 0 0 0 0 0 0 0 0 0 0 0 0 0 0 0 0 0 0 0 0 0 0 0 0 0 0 0 0 0 0 0 0 0 0 0 0 0 0 0 0 0 0 0 0 0 0 0 0 0 0 0 0 0 0 0 0 0 0 0 0 0 0 0 0 0 0 0 0 0 0 0 0 0 0 0 0 0 0 0 0 0 0 0 0 0 0 0 0 0 0 0 0 0 0 0 0 0 0 0 0 0 0 0 0 0 0 0 0 0 0 0 0 0 0 0 0 0 0 0 0 0 0 0 0 0 0 0 0 0 0 0 0 0 0 0 0 0 0 0 0 0 0 0 0 0 0 0 0 0 0 0 0 0 0 0 0 0 0 0 0 0 0 0 0 0 0 0 0 0 0 0 0 0 0 0 0 0 0 0 0 0 0 0 0 0 0 0 0 0 0 0 0 0 0 0 0 0 0 0 0 0 0 0 0 0 0 0 0 0 0 0 0 0 0 0 0 0 0 0 0 0 0 0 0 0 0 0 0 0 0 0 0 0 0 0 0 0 0 0 0 0 0 0 0 0 0 0 0 0 0 0 0 0 0 0 0 0 0 0 0 0 0 0 0 0 0 0 0 0 0 0 0 0 0 0
0 0 0 0 0 0 0 0 0 0 0 0 0 0 0 0 0 0 0 0 0 0 0 0 0 0 0 0 0 0 0 0 0 0 0 0 0 0 0 0 0 0 0 0 0 0 0 0 0 0 0 0 0 0 0 0 0 0 0 0 0 0 0 0 0 0 0 0 0 0 0 0 0 0 0 0 0 0 0 0 0 0 0 0 0 0 0 0 0 0 0 0 0 0 0 0 0 0 0 0 0 0 0 0 0 0 0 0 0 0 0 0 0 0 0 0 0 0 0 0 0 0 0 0 0 0 0 0 0 0 0 0 0 0 0 0 0 0 0 0 0 0 0 0 0 0 0 0 0 0 0 0 0 0 0 0 0 0 0 0 0 0 0 0 0 0 0 0 0 0 0 0 0 0 0 0 0 0 0 0 0 0 0 0 0 0 0 0 0 0 0 0 0 0 0 0 0 0 0 0 0 0 0 0 0 0 0 0 0 0 0 0 0 0 0 0 0 0 0 0 0 0 0 0 0 0 0 0 0 0 0 0 0 0 0 0 0 0 0 0 0 0 0 0 0 0 0 0 0 0 0 0 0 0 0 0 0 0 0 0 0 0 0 0 0 0 0 0 0 0 0 0 0 0 0 0 0 0 0 0 0 0 0 0 0 0 0 0
0 0 0 0 0 0 0 0 0 0 0 0 0 0 0 0 0 0 0 0 0 0 0 0 0 0 0 0 0 0 0 0 0 0 0 0 0 0 0 0 0 0 0 0 0 0 0 0 0 0 0 0 0 0 0 0 0 0 0 0 0 0 0 0 0 0 0 0 0 0 0 0 0 0 0 0 0 0 0 0 0 0 0 0 0 0 0 0 0 0 0 0 0 0 0 0 0 0 0 0 0 0 0 0 0 0 0 0 0 0 0 0 0 0 0 0 0 0 0 0 0 0 0 0 0 0 0 0 0 0 0 0 0 0 0 0 0 0 0 0 0 0 0 0 0 0 0 0 0 0 0 0 0 0 0 0 0 0 0 0 0 0 0 0 0 0 0 0 0 0 0 0 0 0 0 0 0 0 0 0 0 0 0 0 0 0 0 0 0 0 0 0 0 0 0 0 0 0 0 0 0 0 0 0 0 0 0 0 0 0 0 0 0 0 0 0 0 0 0 0 0 0 0 0 0 0 0 0 0 0 0 0 0 0 0 0 0 0 0 0 0 0 0 0 0 0 0 0 0 0 0 0 0 0 0 0 0 0 0 0 0 0 0 0 0 0 0 0 0 0 0 0 0 0 0 0 0 0 0 0 0 0 0 0 0 0 0 0
0 0 0 0 0 0 0 0 0 0 0 0 0 0 0 0 0 0 0 0 0 0 0 0 0 0 0 0 0 0 0 0 0 0 0 0 0 0 0 0 0 0 0 0 0 0 0 0 0 0 0 0 0 0 0 0 0 0 0 0 0 0 0 0 0 0 0 0 0 0 0 0 0 0 0 0 0 0 0 0 0 0 0 0 0 0 0 0 0 0 0 0 0 0 0 0 0 0 0 0 0 0 0 0 0 0 0 0 0 0 0 0 0 0 0 0 0 0 0 0 0 0 0 0 0 0 0 0 0 0 0 0 0 0 0 0 0 0 0 0 0 0 0 0 0 0 0 0 0 0 0 0 0 0 0 0 0 0 0 0 0 0 0 0 0 0 0 0 0 0 0 0 0 0 0 0 0 0 0 0 0 0 0 0 0 0 0 0 0 0 0 0 0 0 0 0 0 0 0 0 0 0 0 0 0 0 0 0 0 0 0 0 0 0 0 0 0 0 0 0 0 0 0 0 0 0 0 0 0 0 0 0 0 0 0 0 0 0 0 0 0 0 0 0 0 0 0 0 0 0 0 0 0 0 0 0 0 0 0 0 0 0 0 0 0 0 0 0 0 0 0 0 0 0 0 0 0 0 0 0 0 0 0 0 0 0 0 0
0 0 0 0 0 0 0 0 0 0 0 0 0 0 0 0 0 0 0 0 0 0 0 0 0 0 0 0 0 0 0 0 0 0 0 0 0 0 0 0 0 0 0 0 0 0 0 0 0 0 0 0 0 0 0 0 0 0 0 0 0 0 0 0 0 0 0 0 0 0 0 0 0 0 0 0 0 0 0 0 0 0 0 0 0 0 0 0 0 0 0 0 0 0 0 0 0 0 0 0 0 0 0 0 0 0 0 0 0 0 0 0 0 0 0 0 0 0 0 0 0 0 0 0 0 0 0 0 0 0 0 0 0 0 0 0 0 0 0 0 0 0 0 0 0 0 0 0 0 0 0 0 0 0 0 0 0 0 0 0 0 0 0 0 0 0 0 0 0 0 0 0 0 0 0 0 0 0 0 0 0 0 0 0 0 0 0 0 0 0 0 0 0 0 0 0 0 0 0 0 0 0 0 0 0 0 0 0 0 0 0 0 0 0 0 0 0 0 0 0 0 0 0 0 0 0 0 0 0 0 0 0 0 0 0 0 0 0 0 0 0 0 0 0 0 0 0 0 0 0 0 0 0 0 0 0 0 0 0 0 0 0 0 0 0 0 0 0 0 0 0 0 0 0 0 0 0 0 0 0 0 0 0 0 0 0 0 0
0 0 0 0 0 0 0 0 0 0 0 0 0 0 0 0 0 0 0 0 0 0 0 0 0 0 0 0 0 0 0 0 0 0 0 0 0 0 0 0 0 0 0 0 0 0 0 0 0 0 0 0 0 0 0 0 0 0 0 0 0 0 0 0 0 0 0 0 0 0 0 0 0 0 0 0 0 0 0 0 0 0 0 0 0 0 0 0 0 0 0 0 0 0 0 0 0 0 0 0 0 0 0 0 0 0 0 0 0 0 0 0 0 0 0 0 0 0 0 0 0 0 0 0 0 0 0 0 0 0 0 0 0 0 0 0 0 0 0 0 0 0 0 0 116 139 165 0 0 0 0 0 0 0 0 0 0 0 0 0 0 0 0 0 0 0 0 0 0 0 0 0 0 0 0 0 0 0 0 0 0 0 0 0 0 0 0 0 0 0 0 0 0 0 0 0 0 0 0 0 0 0 0 0 0 0 0 0 0 0 0 0 0 0 0 0 0 0 0 0 0 0 0 0 0 0 0 0 0 0 0 0 0 0 0 0 0 0 0 0 0 0 0 0 0 0 0 0 0 0 0 0 0 0 0 0 0 0 0 0 0 0 0 0 0 0 0 0 0 0 0 0 0 0 0 0 0 0 0 0 0 0 0 0 0 0 0 0
0 0 0 0 0 0 0 0 0 0 0 0 0 0 0 0 0 0 0 0 0 0 0 0 0 0 0 0 0 0 0 0 0 0 0 0 0 0 0 0 0 0 0 0 0 0 0 0 0 0 0 0 0 0 0 0 0 0 0 0 0 0 0 0 0 0 0 0 0 0 0 0 0 0 0 0 0 0 0 0 0 0 0 0 0 0 0 0 0 0 0 0 0 0 0 0 0 0 0 0 0 0 0 0 0 0 0 0 0 0 0 0 0 0 0 0 0 0 0 0 0 0 0 0 0 0 0 0 0 0 0 0 0 0 0 0 0 0 49 66 85 113 136 163 113 136 163 113 136 163 49 66 85 0 0 0 0 0 0 0 0 0 0 0 0 0 0 0 0 0 0 0 0 0 0 0 0 0 0 0 0 0 0 0 0 0 0 0 0 0 0 0 0 0 0 0 0 0 0 0 0 0 0 0 0 0 0 0 0 0 0 0 0 0 0 0 0 0 0 0 0 0 0 0 0 0 0 0 0 0 0 0 0 0 0 0 0 0 0 0 0 0 0 0 0 0 0 0 0 0 0 0 0 0 0 0 0 0 0 0 0 0 0 0 0 0 0 0 0 0 0 0 0 0 0 0 0 0 0 0 0 0 0 0 0 0 0 0
0 0 0 0 0 0 0 0 0 0 0 0 0 0 0 0 0 0 0 0 0 0 0 0 0 0 0 0 0 0 0 0 0 0 0 0 0 0 0 0 0 0 0 0 0 0 0 0 0 0 0 0 0 0 0 0 0 0 0 0 0 0 0 0 0 0 0 0 0 0 0 0 0 0 0 0 0 0 0 0 0 0 0 0 0 0 0 0 0 0 0 0 0 0 0 0 0 0 0 0 0 0 0 0 0 0 0 0 0 0 0 0 0 0 0 0 0 0 0 0 0 0 0 0 0 0 0 0 0 49 66 85 111 134 161 111 134 161 111 134 161 111 134 161 111 134 161 111 134 161 111 134 161 111 134 161 111 134 161 49 66 85 0 0 0 0 0 0 0 0 0 0 0 0 0 0 0 0 0 0 0 0 0 0 0 0 0 0 0 0 0 0 0 0 0 0 0 0 0 0 0 0 0 0 0 0 0 0 0 0 0 0 0 0 0 0 0 0 0 0 0 0 0 0 0 0 0 0 0 0 0 0 0 0 0 0 0 0 0 0 0 0 0 0 0 0 0 0 0 0 0 0 0 0 0 0 0 0 0 0 0 0 0 0 0 0 0 0 0 0 0 0 0 0 0 0 0 0 0 0 0 0 0 0 0 0 0 0
0 0 0 0 0 0 0 0 0 0 0 0 0 0 0 0 0 0 0 0 0 0 0 0 0 0 0 0 0 0 0 0 0 0 0 0 0 0 0 0 0 0 0 0 0 0 0 0 0 0 0 0 0 0 0 0 0 0 0 0 0 0 0 0 0 0 0 0 0 0 0 0 0 0 0 0 0 0 0 0 0 0 0 0 0 0 0 0 0 0 0 0 0 0 0 0 0 0 0 0 0 0 0 0 0 0 0 0 0 0 0 0 0 0 0 0 0 0 0 0 49 66 85 108 132 160 108 132 160 108 132 160 108 132 160 108 132 160 108 132 160 108 132 160 108 132 160 108 132 160 108 132 160 108 132 160 108 132 160 108 132 160 108 132 160 108 132 160 49 66 85 0 0 0 0 0 0 0 0 0 0 0 0 0 0 0 0 0 0 0 0 0 0 0 0 0 0 0 0 0 0 0 0 0 0 0 0 0 0 0 0 0 0 0 0 0 0 0 0 0 0 0 0 0 0 0 0 0 0 0 0 0 0 0 0 0 0 0 0 0 0 0 0 0 0 0 0 0 0 0 0 0 0 0 0 0 0 0 0 0 0 0 0 0 0 0 0 0 0 0 0 0 0 0 0 0 0 0 0 0 0 0 0 0 0 0 0 0
0 0 0 0 0 0 0 0 0 0 0 0 0 0 0 0 0 0 0 0 0 0 0 0 0 0 0 0 0 0 0 0 0 0 0 0 0 0 0 0 0 0 0 0 0 0 0 0 0 0 0 0 0 0 0 0 0 0 0 0 0 0 0 0 0 0 0 0 0 0 0 0 0 0 0 0 0 0 0 0 0 0 0 0 0 0 0 0 0 0 0 0 0 0 0 0 0 0 0 0 0 0 0 0 0 0 0 0 0 0 0 49 66 85 106 130 158 106 130 158 106 130 158 106 130 158 106 130 158 106 130 158 106 130 158 106 130 158 106 130 158 106 130 158 106 130 158 106 130 158 106 130 158 106 130 158 106 130 158 106 130 158 106 130 158 106 130 158 106 130 158 106 130 158 106 130 158 49 66 85 0 0 0 0 0 0 0 0 0 0 0 0 0 0 0 0 0 0 0 0 0 0 0 0 0 0 0 0 0 0 0 0 0 0 0 0 0 0 0 0 0 0 0 0 0 0 0 0 0 0 0 0 0 0 0 0 0 0 0 0 0 0 0 0 0 0 0 0 0 0 0 0 0 0 0 0 0 0 0 0 0 0 0 0 0 0 0 0 0 0 0 0 0 0 0 0 0 0 0 0 0 0 0 0 0 0 0 0
0 0 0 0 0 0 0 0 0 0 0 0 0 0 0 0 0 0 0 0 0 0 0 0 0 0 0 0 0 0 0 0 0 0 0 0 0 0 0 0 0 0 0 0 0 0 0 0 0 0 0 0 0 0 0 0 0 0 0 0 0 0 0 0 0 0 0 0 0 0 0 0 0 0 0 0 0 0 0 0 0 0 0 0 0 0 0 0 0 0 0 0 0 0 0 0 0 0 0 0 0 0 0 0 0 49 66 85 103 128 157 103 128 157 103 128 157 103 128 157 103 128 157 103 128 157 103 128 157 103 128 157 103 128 157 103 128 157 103 128 157 103 128 157 103 128 157 103 128 157 103 128 157 103 128 157 103 128 157 103 128 157 103 128 157 103 128 157 103 128 157 103 128 157 103 128 157 103 128 157 103 128 157 49 66 85 0 0 0 0 0 0 0 0 0 0 0 0 0 0 0 0 0 0 0 0 0 0 0 0 0 0 0 0 0 0 0 0 0 0 0 0 0 0 0 0 0 0 0 0 0 0 0 0 0 0 0 0 0 0 0 0 0 0 0 0 0 0 0 0 0 0 0 0 0 0 0 0 0 0 0 0 0 0 0 0 0 0 0 0 0 0 0 0 0 0 0 0 0 0 0 0 0 0 0 0 0 0
0 0 0 0 0 0 0 0 0 0 0 0 0 0 0 0 0 0 0 0 0 0 0 0 0 0 0 0 0 0 0 0 0 0 0 0 0 0 0 0 0 0 0 0 0 0 0 0 0 0 0 0 0 0 0 0 0 0 0 0 0 0 0 0 0 0 0 0 0 0 0 0 0 0 0 0 0 0 0 0 0 0 0 0 0 0 0 0 0 0 0 0 0 0 0 0 244 208 111 244 208 111 244 208 111 244 208 111 244 208 111 244 208 111 244 208 111 244 208 111 244 208 111 244 208 111 244 208 111 244 208 111 244 208 111 244 208 111 244 208 111 244 208 111 244 208 111 244 208 111 244 208 111 244 208 111 244 208 111 244 208 111 244 208 111 244 208 111 244 208 111 244 208 111 244 208 111 244 208 111 244 208 111 244 208 111 244 208 111 244 208 111 49 66 85 0 0 0 0 0 0 0 0 0 0 0 0 0 0 0 0 0 0 0 0 0 0 0 0 0 0 0 0 0 0 0 0 0 0 0 0 0 0 0 0 0 0 0 0 0 0 0 0 0 0 0 0 0 0 0 0 0 0 0 0 0 0 0 0 0 0 0 0 0 0 0 0 0 0 0 0 0 0 0 0 0 0 0 0 0 0 0 0 0 0 0 0 0
0 0 0 0 0 0 0 0 0 0 0 0 0 0 0 0 0 0 0 0 0 0 0 0 0 0 0 0 0 0 0 0 0 0 0 0 0 0 0 0 0 0 0 0 0 0 0 0 0 0 0 0 0 0 0 0 0 0 0 0 0 0 0 0 0 0 0 0 0 0 0 0 0 0 0 0 0 0 0 0 0 0 0 0 0 0 0 49 66 85 99 124 154 99 124 154 244 208 111 244 208 111 244 208 111 244 208 111 244 208 111 244 208 111 244 208 111 244 208 111 244 208 111 244 208 111 244 208 111 244 208 111 244 208 111 244 208 111 244 208 111 244 208 111 244 208 111 244 208 111 244 208 111 244 208 111 244 208 111 244 208 111 244 208 111 244 208 111 244 208 111 244 208 111 244 208 111 244 208 111 244 208 111 244 208 111 244 208 111 244 208 111 99 124 154 99 124 154 99 124 154 49 66 85 0 0 0 0 0 0 0 0 0 0 0 0 0 0 0 0 0 0 0 0 0 0 0 0 0 0 0 0 0 0 0 0 0 0 0 0 0 0 0 0 0 0 0 0 0 0 0 0 0 0 0 0 0 0 0 0 0 0 0 0 0 0 0 0 0 0 0 0 0 0 0 0 0 0 0 0 0 0 0 0 0 0 0 0
0 0 0 0 0 0 0 0 0 0 0 0 0 0 0 0 0 0 0 0 0 0 0 0 0 0 0 0 0 0 0 0 0 0 0 0 0 0 0 0 0 0 0 0 0 0 0 0 0 0 0 0 0 0 0 0 0 0 0 0 0 0 0 0 0 0 0 0 0 0 0 0 0 0 0 0 0 0 49 66 85 96 122 152 96 122 152 96 122 152 96 122 152 96 122 152 244 208 111 244 208 111 244 208 111 244 208 111 244 208 111 244 208 111 244 208 111 244 208 111 244 208 111 244 208 111 244 208 111 244 208 111 244 208 111 244 208 111 244 208 111 244 208 111 244 208 111 244 208 111 244 208 111 244 208 111 244 208 111 244 208 111 244 208 111 244 208 111 244 208 111 244 208 111 244 208 111 244 208 111 244 208 111 244 208 111 244 208 111 244 208 111 96 122 152 96 122 152 96 122 152 96 122 152 96 122 152 96 122 152 49 66 85 0 0 0 0 0 0 0 0 0 0 0 0 0 0 0 0 0 0 0 0 0 0 0 0 0 0 0 0 0 0 0 0 0 0 0 0 0 0 0 0 0 0 0 0 0 0 0 0 0 0 0 0 0 0 0 0 0 0 0 0 0 0 0 0 0 0 0 0 0 0 0 0 0 0 0
0 0 0 0 0 0 0 0 0 0 0 0 0 0 0 0 0 0 0 0 0 0 0 0 0 0 0 0 0 0 0 0 0 0 0 0 0 0 0 0 0 0 0 0 0 0 0 0 0 0 0 0 0 0 0 0 0 0 0 0 0 0 0 0 0 0 0 0 0 49 66 85 94 120 150 94 120 150 94 120 150 94 120 150 94 120 150 94 120 150 94 120 150 94 120 150 244 208 111 244 208 111 244 208 111 244 208 111 244 208 111 244 208 111 244 208 111 244 208 111 244 208 111 244 208 111 244 208 111 244 208 111 244 208 111 244 208 111 244 208 111 244 208 111 244 208 111 244 208 111 244 208 111 244 208 111 244 208 111 244 208 111 244 208 111 244 208 111 244 208 111 244 208 111 244 208 111 244 208 111 244 208 111 244 208 111 244 208 111 244 208 111 94 120 150 94 120 150 94 120 150 94 120 150 94 120 150 94 120 150 94 120 150 94 120 150 94 120 150 49 66 85 0 0 0 0 0 0 0 0 0 0 0 0 0 0 0 0 0 0 0 0 0 0 0 0 0 0 0 0 0 0 0 0 0 0 0 0 0 0 0 0 0 0 0 0 0 0 0 0 0 0 0 0 0 0 0 0 0 0 0 0 0 0 0 0 0 0
0 0 0 0 0 0 0 0 0 0 0 0 0 0 0 0 0 0 0 0 0 0 0 0 0 0 0 0 0 0 0 0 0 0 0 0 0 0 0 0 0 0 0 0 0 0 0 0 0 0 0 0 0 0 0 0 0 0 0 0 0 0 0 49 66 85 91 118 149 91 118 149 91 118 149 91 118 149 91 118 149 91 118 149 91 118 149 91 118 149 91 118 149 91 118 149 91 118 149 91 118 149 91 118 149 91 118 149 91 118 149 91 118 149 91 118 149 91 118 149 91 118 149 91 118 149 91 118 149 91 118 149 91 118 149 91 118 149 91 118 149 91 118 149 91 118 149 91 118 149 91 118 149 91 118 149 91 118 149 91 118 149 91 118 149 91 118 149 91 118 149 91 118 149 91 118 149 91 118 149 91 118 149 91 118 149 91 118 149 91 118 149 91 118 149 91 118 149 91 118 149 91 118 149 91 118 149 91 118 149 91 118 149 91 118 149 91 118 149 91 118 149 91 118 149 49 66 85 0 0 0 0 0 0 0 0 0 0 0 0 0 0 0 0 0 0 0 0 0 0 0 0 0 0 0 0 0 0 0 0 0 0 0 0 0 0 0 0 0 0 0 0 0 0 0 0 0 0 0 0 0 0 0 0 0 0 0 0
0 0 0 0 0 0 0 0 0 0 0 0 0 0 0 0 0 0 0 0 0 0 0 0 0 0 0 0 0 0 0 0 0 0 0 0 0 0 0 0 0 0 0 0 0 0 0 0 0 0 0 0 0 0 49 66 85 89 116 147 89 116 147 89 116 147 89 116 147 89 116 147 89 116 147 89 116 147 89 116 147 89 116 147 89 116 147 89 116 147 89 116 147 89 116 147 89 116 147 89 116 147 89 116 147 89 116 147 89 116 147 89 116 147 89 116 147 89 116 147 89 116 147 89 116 147 89 116 147 89 116 147 89 116 147 89 116 147 89 116 147 89 116 147 89 116 147 89 116 147 89 116 147 89 116 147 89 116 147 89 116 147 89 116 147 89 116 147 89 116 147 89 116 147 89 116 147 89 116 147 89 116 147 89 116 147 89 116 147 89 116 147 89 116 147 89 116 147 89 116 147 89 116 147 89 116 147 89 116 147 89 116 147 89 116 147 89 116 147 89 116 147 89 116 147 89 116 147 89 116 147 89 116 147 49 66 85 0 0 0 0 0 0 0 0 0 0 0 0 0 0 0 0 0 0 0 0 0 0 0 0 0 0 0 0 0 0 0 0 0 0 0 0 0 0 0 0 0 0 0 0 0 0 0 0 0 0 0
0 0 0 0 0 0 0 0 0 0 0 0 0 0 0 0 0 0 0 0 0 0 0 0 0 0 0 0 0 0 0 0 0 0 0 0 0 0 0 0 0 0 0 0 0 49 66 85 86 114 146 86 114 146 86 114 146 86 114 146 86 114 146 86 114 146 86 114 146 86 114 146 86 114 146 86 114 146 86 114 146 86 114 146 86 114 146 86 114 146 86 114 146 86 114 146 86 114 146 86 114 146 86 114 146 86 114 146 86 114 146 86 114 146 86 114 146 86 114 146 86 114 146 86 114 146 86 114 146 86 114 146 86 114 146 86 114 146 86 114 146 86 114 146 86 114 146 86 114 146 86 114 146 86 114 146 86 114 146 86 114 146 86 114 146 86 114 146 86 114 146 86 114 146 86 114 146 86 114 146 86 114 146 86 114 146 86 114 146 86 114 146 86 114 146 86 114 146 86 114 146 86 114 146 86 114 146 86 114 146 86 114 146 86 114 146 86 114 146 86 114 146 86 114 146 86 114 146 86 114 146 86 114 146 86 114 146 86 114 146 86 114 146 49 66 85 0 0 0 0 0 0 0 0 0 0 0 0 0 0 0 0 0 0 0 0 0 0 0 0 0 0 0 0 0 0 0 0 0 0 0 0 0 0 0 0 0 0
0 0 0 0 0 0 0 0 0 0 0 0 0 0 0 0 0 0 0 0 0 0 0 0 0 0 0 0 0 0 0 0 0 0 0 0 49 66 85 84 112 144 84 112 144 84 112 144 84 112 144 84 112 144 84 112 144 84 112 144 84 112 144 84 112 144 84 112 144 84 112 144 84 112 144 84 112 144 84 112 144 84 112 144 84 112 144 84 112 144 84 112 144 84 112 144 84 112 144 84 112 144 84 112 144 84 112 144 84 112 144 84 112 144 84 112 144 84 112 144 84 112 144 84 112 144 84 112 144 84 112 144 84 112 144 84 112 144 84 112 144 84 112 144 84 112 144 84 112 144 84 112 144 84 112 144 84 112 144 84 112 144 84 112 144 84 112 144 84 112 144 84 112 144 84 112 144 84 112 144 84 112 144 84 112 144 84 112 144 84 112 144 84 112 144 84 112 144 84 112 144 84 112 144 84 112 144 84 112 144 84 112 144 84 112 144 84 112 144 84 112 144 84 112 144 84 112 144 84 112 144 84 112 144 84 112 144 84 112 144 84 112 144 84 112 144 84 112 144 84 112 144 49 66 85 0 0 0 0 0 0 0 0 0 0 0 0 0 0 0 0 0 0 0 0 0 0 0 0 0 0 0 0 0 0 0 0 0
0 0 0 0 0 0 0 0 0 0 0 0 0 0 0 0 0 0 0 0 0 0 0 0 0 0 0 49 66 85 82 110 143 82 110 143 82 110 143 82 110 143 82 110 143 82 110 143 82 110 143 82 110 143 82 110 143 82 110 143 82 110 143 82 110 143 82 110 143 82 110 143 82 110 143 82 110 143 82 110 143 82 110 143 82 110 143 82 110 143 82 110 143 82 110 143 82 110 143 82 110 143 82 110 143 82 110 143 82 110 143 82 110 143 82 110 143 82 110 143 82 110 143 82 110 143 82 110 143 82 110 143 82 110 143 82 110 143 82 110 143 82 110 143 82 110 143 82 110 143 82 110 143 82 110 143 82 110 143 82 110 143 82 110 143 82 110 143 82 110 143 82 110 143 82 110 143 82 110 143 82 110 143 82 110 143 82 110 143 82 110 143 82 110 143 82 110 143 82 110 143 82 110 143 82 110 143 82 110 143 82 110 143 82 110 143 82 110 143 82 110 143 82 110 143 82 110 143 82 110 143 82 110 143 82 110 143 82 110 143 82 110 143 82 110 143 82 110 143 82 110 143 82 110 143 82 110 143 82 110 143 49 66 85 0 0 0 0 0 0 0 0 0 0 0 0 0 0 0 0 0 0 0 0 0 0 0 0
0 0 0 0 0 0 0 0 0 0 0 0 0 0 0 0 0 0 0 0 0 0 0 0 0 0 0 23 44 69 23 44 69 0 0 0 49 66 85 79 106 138 79 106 138 79 106 138 79 106 138 79 106 138 79 106 138 79 106 138 79 106 138 79 106 138 79 106 138 79 106 138 79 106 138 79 106 138 79 106 138 79 106 138 79 106 138 79 106 138 79 106 138 79 106 138 79 106 138 79 106 138 79 106 138 79 106 138 79 106 138 79 106 138 79 106 138 79 106 138 79 106 138 79 106 138 79 106 138 79 106 138 79 106 138 79 106 138 79 106 138 79 106 138 79 106 138 79 106 138 79 106 138 79 106 138 79 106 138 79 106 138 79 106 138 79 106 138 79 106 138 79 106 138 79 106 138 79 106 138 79 106 138 79 106 138 79 106 138 79 106 138 79 106 138 79 106 138 79 106 138 79 106 138 79 106 138 79 106 138 79 106 138 79 106 138 79 106 138 79 106 138 79 106 138 79 106 138 79 106 138 79 106 138 79 106 138 79 106 138 79 106 138 79 106 138 79 106 138 79 106 138 49 66 85 26 49 77 26 49 77 0 0 0 0 0 0 0 0 0 0 0 0 0 0 0 0 0 0 0 0 0 0 0 0 0 0 0
0 0 0 0 0 0 0 0 0 0 0 0 0 0 0 0 0 0 0 0 0 0 0 0 0 0 0 23 44 69 23 44 69 23 44 69 23 44 69 23 44 69 0 0 0 49 66 85 77 103 134 77 103 134 77 103 134 77 103 134 77 103 134 77 103 134 77 103 134 77 103 134 77 103 134 77 103 134 77 103 134 77 103 134 77 103 134 77 103 134 77 103 134 77 103 134 77 103 134 77 103 134 77 103 134 77 103 134 77 103 134 77 103 134 77 103 134 77 103 134 77 103 134 77 103 134 77 103 134 77 103 134 77 103 134 77 103 134 77 103 134 77 103 134 77 103 134 77 103 134 77 103 134 77 103 134 77 103 134 77 103 134 77 103 134 77 103 134 77 103 134 77 103 134 77 103 134 77 103 134 77 103 134 77 103 134 77 103 134 77 103 134 77 103 134 77 103 134 77 103 134 77 103 134 77 103 134 77 103 134 77 103 134 77 103 134 77 103 134 77 103 134 77 103 134 77 103 134 77 103 134 77 103 134 77 103 134 77 103 134 77 103 134 49 66 85 26 49 77 26 49 77 26 49 77 26 49 77 26 49 77 0 0 0 0 0 0 0 0 0 0 0 0 0 0 0 0 0 0 0 0 0 0 0 0 0 0 0
0 0 0 0 0 0 0 0 0 0 0 0 0 0 0 0 0 0 0 0 0 0 0 0 0 0 0 23 44 69 23 44 69 23 44 69 23 44 69 23 44 69 23 44 69 23 44 69 23 44 69 0 0 0 49 66 85 74 100 130 74 100 130 74 100 130 74 100 130 74 100 130 74 100 130 74 100 130 74 100 130 74 100 130 74 100 130 74 100 130 74 100 130 74 100 130 74 100 130 74 100 130 74 100 130 74 100 130 74 100 130 74 100 130 74 100 130 74 100 130 74 100 130 74 100 130 74 100 130 74 100 130 74 100 130 74 100 130 74 100 130 74 100 130 74 100 130 74 100 130 74 100 130 74 100 130 74 100 130 74 100 130 74 100 130 74 100 130 74 100 130 74 100 130 74 100 130 74 100 130 74 100 130 74 100 130 74 100 130 74 100 130 74 100 130 74 100 130 74 100 130 74 100 130 74 100 130 74 100 130 74 100 130 74 100 130 74 100 130 74 100 130 74 100 130 74 100 130 74 100 130 74 100 130 49 66 85 26 49 77 26 49 77 26 49 77 26 49 77 26 49 77 26 49 77 26 49 77 26 49 77 0 0 0 0 0 0 0 0 0 0 0 0 0 0 0 0 0 0 0 0 0 0 0 0 0 0 0
0 0 0 0 0 0 0 0 0 0 0 0 0 0 0 0 0 0 0 0 0 0 0 0 0 0 0 23 44 69 23 44 69 23 44 69 23 44 69 23 44 69 23 44 69 23 44 69 23 44 69 23 44 69 23 44 69 23 44 69 0 0 0 49 66 85 72 97 126 72 97 126 72 97 126 72 97 126 72 97 126 72 97 126 72 97 126 72 97 126 72 97 126 72 97 126 72 97 126 72 97 126 72 97 126 72 97 126 72 97 126 72 97 126 72 97 126 72 97 126 72 97 126 72 97 126 72 97 126 72 97 126 72 97 126 72 97 126 72 97 126 72 97 126 72 97 126 72 97 126 72 97 126 72 97 126 72 97 126 72 97 126 72 97 126 72 97 126 72 97 126 72 97 126 72 97 126 72 97 126 72 97 126 72 97 126 72 97 126 72 97 126 72 97 126 72 97 126 72 97 126 72 97 126 72 97 126 72 97 126 72 97 126 72 97 126 72 97 126 72 97 126 72 97 126 49 66 85 26 49 77 26 49 77 26 49 77 26 49 77 26 49 77 26 49 77 26 49 77 26 49 77 26 49 77 26 49 77 26 49 77 0 0 0 0 0 0 0 0 0 0 0 0 0 0 0 0 0 0 0 0 0 0 0 0 0 0 0
0 0 0 0 0 0 0 0 0 0 0 0 0 0 0 0 0 0 0 0 0 0 0 0 0 0 0 23 44 69 23 44 69 23 44 69 23 44 69 23 44 69 23 44 69 23 44 69 23 44 69 23 44 69 23 44 69 23 44 69 23 44 69 23 44 69 0 0 0 49 66 85 70 94 122 70 94 122 70 94 122 70 94 122 70 94 122 70 94 122 70 94 122 70 94 122 70 94 122 70 94 122 70 94 122 70 94 122 70 94 122 70 94 122 70 94 122 70 94 122 70 94 122 70 94 122 70 94 122 70 94 122 70 94 122 70 94 122 70 94 122 70 94 122 70 94 122 70 94 122 70 94 122 70 94 122 70 94 122 70 94 122 70 94 122 70 94 122 70 94 122 70 94 122 70 94 122 70 94 122 70 94 122 70 94 122 70 94 122 70 94 122 70 94 122 70 94 122 70 94 122 70 94 122 70 94 122 70 94 122 70 94 122 70 94 122 70 94 122 49 66 85 26 49 77 26 49 77 26 49 77 26 49 77 26 49 77 26 49 77 26 49 77 26 49 77 26 49 77 26 49 77 26 49 77 26 49 77 26 49 77 0 0 0 0 0 0 0 0 0 0 0 0 0 0 0 0 0 0 0 0 0 0 0 0 0 0 0
0 0 0 0 0 0 0 0 0 0 0 0 0 0 0 0 0 0 0 0 0 0 0 0 0 0 0 23 44 69 23 44 69 23 44 69 23 44 69 23 44 69 23 44 69 23 44 69 23 44 69 23 44 69 23 44 69 23 44 69 23 44 69 23 44 69 23 44 69 23 44 69 23 44 69 0 0 0 49 66 85 67 91 118 67 91 118 67 91 118 67 91 118 67 91 118 67 91 118 67 91 118 67 91 118 67 91 118 67 91 118 67 91 118 67 91 118 67 91 118 67 91 118 67 91 118 67 91 118 67 91 118 67 91 118 67 91 118 67 91 118 67 91 118 67 91 118 67 91 118 67 91 118 67 91 118 67 91 118 67 91 118 67 91 118 67 91 118 67 91 118 67 91 118 67 91 118 67 91 118 67 91 118 67 91 118 67 91 118 67 91 118 67 91 118 67 91 118 67 91 118 67 91 118 67 91 118 67 91 118 49 66 85 26 49 77 26 49 77 26 49 77 26 49 77 26 49 77 26 49 77 26 49 77 26 49 77 26 49 77 26 49 77 26 49 77 26 49 77 26 49 77 26 49 77 26 49 77 26 49 77 0 0 0 0 0 0 0 0 0 0 0 0 0 0 0 0 0 0 0 0 0 0 0 0 0 0 0
0 0 0 0 0 0 0 0 0 0 0 0 0 0 0 0 0 0 0 0 0 0 0 0 0 0 0 23 44 69 23 44 69 23 44 69 23 44 69 23 44 69 23 44 69 23 44 69 23 44 69 23 44 69 23 44 69 23 44 69 23 44 69 23 44 69 23 44 69 23 44 69 23 44 69 23 44 69 23 44 69 23 44 69 147 133 114 49 66 85 65 88 114 65 88 114 65 88 114 65 88 114 65 88 114 65 88 114 65 88 114 65 88 114 65 88 114 65 88 114 65 88 114 65 88 114 65 88 114 65 88 114 65 88 114 65 88 114 65 88 114 65 88 114 65 88 114 65 88 114 65 88 114 65 88 114 65 88 114 65 88 114 65 88 114 65 88 114 65 88 114 65 88 114 65 88 114 65 88 114 65 88 114 65 88 114 65 88 114 65 88 114 65 88 114 65 88 114 65 88 114 49 66 85 26 49 77 26 49 77 26 49 77 26 49 77 26 49 77 26 49 77 26 49 77 26 49 77 26 49 77 26 49 77 26 49 77 26 49 77 26 49 77 26 49 77 26 49 77 26 49 77 26 49 77 26 49 77 26 49 77 0 0 0 0 0 0 0 0 0 0 0 0 0 0 0 0 0 0 0 0 0 0 0 0 0 0 0
0 0 0 0 0 0 0 0 0 0 0 0 0 0 0 0 0 0 0 0 0 0 0 0 0 0 0 23 44 69 23 44 69 23 44 69 23 44 69 23 44 69 23 44 69 23 44 69 23 44 69 23 44 69 23 44 69 23 44 69 23 44 69 23 44 69 23 44 69 23 44 69 23 44 69 23 44 69 23 44 69 23 44 69 23 44 69 23 44 69 23 44 69 145 131 112 49 66 85 63 84 109 63 84 109 63 84 109 63 84 109 63 84 109 63 84 109 63 84 109 63 84 109 63 84 109 63 84 109 63 84 109 63 84 109 63 84 109 63 84 109 63 84 109 63 84 109 63 84 109 63 84 109 63 84 109 63 84 109 63 84 109 63 84 109 63 84 109 63 84 109 63 84 109 63 84 109 63 84 109 63 84 109 63 84 109 63 84 109 63 84 109 49 66 85 26 49 77 26 49 77 26 49 77 26 49 77 26 49 77 26 49 77 26 49 77 26 49 77 26 49 77 26 49 77 26 49 77 26 49 77 26 49 77 26 49 77 26 49 77 26 49 77 26 49 77 26 49 77 26 49 77 26 49 77 26 49 77 26 49 77 0 0 0 0 0 0 0 0 0 0 0 0 0 0 0 0 0 0 0 0 0 0 0 0 0 0 0
0 0 0 0 0 0 0 0 0 0 0 0 0 0 0 0 0 0 0 0 0 0 0 0 0 0 0 23 44 69 23 44 69 23 44 69 23 44 69 23 44 69 23 44 69 23 44 69 23 44 69 23 44 69 23 44 69 23 44 69 23 44 69 23 44 69 23 44 69 23 44 69 23 44 69 23 44 69 23 44 69 23 44 69 23 44 69 23 44 69 23 44 69 23 44 69 23 44 69 23 44 69 144 130 111 49 66 85 60 81 105 60 81 105 60 81 105 60 81 105 60 81 105 60 81 105 60 81 105 60 81 105 60 81 105 60 81 105 60 81 105 60 81 105 60 81 105 60 81 105 60 81 105 60 81 105 60 81 105 60 81 105 60 81 105 60 81 105 60 81 105 60 81 105 60 81 105 60 81 105 60 81 105 49 66 85 26 49 77 26 49 77 26 49 77 26 49 77 26 49 77 26 49 77 26 49 77 26 49 77 26 49 77 26 49 77 26 49 77 26 49 77 26 49 77 26 49 77 26 49 77 26 49 77 26 49 77 26 49 77 26 49 77 26 49 77 26 49 77 26 49 77 26 49 77 26 49 77 26 49 77 0 0 0 0 0 0 0 0 0 0 0 0 0 0 0 0 0 0 0 0 0 0 0 0 0 0 0
0 0 0 0 0 0 0 0 0 0 0 0 0 0 0 0 0 0 0 0 0 0 0 0 0 0 0 23 44 69 23 44 69 23 44 69 23 44 69 23 44 69 23 44 69 23 44 69 23 44 69 23 44 69 23 44 69 23 44 69 23 44 69 23 44 69 23 44 69 23 44 69 23 44 69 241 196 93 241 196 93 241 196 93 241 196 93 241 196 93 241 196 93 241 196 93 241 196 93 241 196 93 241 196 93 23 44 69 143 128 109 49 66 85 58 78 101 58 78 101 58 78 101 58 78 101 58 78 101 58 78 101 58 78 101 58 78 101 58 78 101 58 78 101 58 78 101 58 78 101 58 78 101 58 78 101 58 78 101 58 78 101 58 78 101 58 78 101 58 78 101 58 78 101 58 78 101 49 66 85 26 49 77 241 196 93 241 196 93 241 196 93 241 196 93 241 196 93 241 196 93 241 196 93 241 196 93 241 196 93 241 196 93 26 49 77 26 49 77 26 49 77 26 49 77 26 49 77 26 49 77 26 49 77 26 49 77 26 49 77 26 49 77 26 49 77 26 49 77 26 49 77 26 49 77 26 49 77 26 49 77 0 0 0 0 0 0 0 0 0 0 0 0 0 0 0 0 0 0 0 0 0 0 0 0 0 0 0
0 0 0 0 0 0 0 0 0 0 0 0 0 0 0 0 0 0 0 0 0 0 0 0 0 0 0 23 44 69 23 44 69 23 44 69 23 44 69 23 44 69 23 44 69 23 44 69 23 44 69 23 44 69 23 44 69 23 44 69 23 44 69 23 44 69 23 44 69 23 44 69 23 44 69 241 196 93 241 196 93 241 196 93 241 196 93 241 196 93 241 196 93 241 196 93 241 196 93 241 196 93 241 196 93 23 44 69 23 44 69 23 44 69 23 44 69 141 127 107 49 66 85 56 75 97 56 75 97 56 75 97 56 75 97 56 75 97 56 75 97 56 75 97 56 75 97 56 75 97 56 75 97 56 75 97 56 75 97 56 75 97 56 75 97 56 75 97 49 66 85 26 49 77 26 49 77 26 49 77 26 49 77 241 196 93 241 196 93 241 196 93 241 196 93 241 196 93 241 196 93 241 196 93 241 196 93 241 196 93 241 196 93 26 49 77 26 49 77 26 49 77 26 49 77 26 49 77 26 49 77 26 49 77 26 49 77 26 49 77 26 49 77 26 49 77 26 49 77 26 49 77 26 49 77 26 49 77 26 49 77 0 0 0 0 0 0 0 0 0 0 0 0 0 0 0 0 0 0 0 0 0 0 0 0 0 0 0
0 0 0 0 0 0 0 0 0 0 0 0 0 0 0 0 0 0 0 0 0 0 0 0 0 0 0 23 44 69 23 44 69 23 44 69 23 44 69 23 44 69 23 44 69 23 44 69 23 44 69 23 44 69 23 44 69 23 44 69 23 44 69 23 44 69 23 44 69 23 44 69 23 44 69 241 196 93 241 196 93 241 196 93 241 196 93 241 196 93 241 196 93 241 196 93 241 196 93 241 196 93 241 196 93 23 44 69 23 44 69 23 44 69 23 44 69 23 44 69 23 44 69 23 44 69 140 125 105 49 66 85 53 72 93 53 72 93 53 72 93 53 72 93 53 72 93 53 72 93 53 72 93 53 72 93 53 72 93 49 66 85 26 49 77 26 49 77 26 49 77 26 49 77 26 49 77 26 49 77 26 49 77 241 196 93 241 196 93 241 196 93 241 196 93 241 196 93 241 196 93 241 196 93 241 196 93 241 196 93 241 196 93 26 49 77 26 49 77 26 49 77 26 49 77 26 49 77 26 49 77 26 49 77 26 49 77 26 49 77 26 49 77 26 49 77 26 49 77 26 49 77 26 49 77 26 49 77 26 49 77 0 0 0 0 0 0 0 0 0 0 0 0 0 0 0 0 0 0 0 0 0 0 0 0 0 0 0
0 0 0 0 0 0 0 0 0 0 0 0 0 0 0 0 0 0 0 0 0 0 0 0 0 0 0 23 44 69 23 44 69 23 44 69 23 44 69 23 44 69 23 44 69 23 44 69 23 44 69 23 44 69 23 44 69 23 44 69 23 44 69 23 44 69 23 44 69 23 44 69 23 44 69 241 196 93 241 196 93 241 196 93 241 196 93 241 196 93 241 196 93 241 196 93 241 196 93 241 196 93 241 196 93 23 44 69 23 44 69 23 44 69 23 44 69 23 44 69 23 44 69 23 44 69 23 44 69 23 44 69 23 44 69 139 124 104 49 66 85 51 69 89 51 69 89 51 69 89 49 66 85 26 49 77 26 49 77 26 49 77 26 49 77 26 49 77 26 49 77 26 49 77 26 49 77 26 49 77 26 49 77 241 196 93 241 196 93 241 196 93 241 196 93 241 196 93 241 196 93 241 196 93 241 196 93 241 196 93 241 196 93 26 49 77 26 49 77 26 49 77 26 49 77 26 49 77 26 49 77 26 49 77 26 49 77 26 49 77 26 49 77 26 49 77 26 49 77 26 49 77 26 49 77 26 49 77 26 49 77 0 0 0 0 0 0 0 0 0 0 0 0 0 0 0 0 0 0 0 0 0 0 0 0 0 0 0
0 0 0 0 0 0 0 0 0 0 0 0 0 0 0 0 0 0 0 0 0 0 0 0 0 0 0 23 44 69 23 44 69 23 44 69 23 44 69 23 44 69 23 44 69 23 44 69 23 44 69 23 44 69 23 44 69 23 44 69 23 44 69 23 44 69 23 44 69 23 44 69 23 44 69 241 196 93 241 196 93 241 196 93 241 196 93 241 196 93 241 196 93 241 196 93 241 196 93 241 196 93 241 196 93 23 44 69 23 44 69 23 44 69 23 44 69 23 44 69 23 44 69 23 44 69 23 44 69 23 44 69 23 44 69 23 44 69 23 44 69 23 44 69 26 49 77 26 49 77 26 49 77 26 49 77 26 49 77 26 49 77 26 49 77 26 49 77 26 49 77 26 49 77 26 49 77 26 49 77 26 49 77 241 196 93 241 196 93 241 196 93 241 196 93 241 196 93 241 196 93 241 196 93 241 196 93 241 196 93 241 196 93 26 49 77 26 49 77 26 49 77 26 49 77 26 49 77 26 49 77 26 49 77 26 49 77 26 49 77 26 49 77 26 49 77 26 49 77 26 49 77 26 49 77 26 49 77 26 49 77 0 0 0 0 0 0 0 0 0 0 0 0 0 0 0 0 0 0 0 0 0 0 0 0 0 0 0
0 0 0 0 0 0 0 0 0 0 0 0 0 0 0 0 0 0 0 0 0 0 0 0 0 0 0 23 44 69 23 44 69 23 44 69 23 44 69 23 44 69 23 44 69 23 44 69 23 44 69 23 44 69 23 44 69 23 44 69 23 44 69 23 44 69 23 44 69 23 44 69 23 44 69 241 196 93 241 196 93 241 196 93 241 196 93 241 196 93 241 196 93 241 196 93 241 196 93 241 196 93 241 196 93 23 44 69 23 44 69 23 44 69 23 44 69 23 44 69 23 44 69 23 44 69 23 44 69 23 44 69 23 44 69 23 44 69 23 44 69 23 44 69 26 49 77 26 49 77 26 49 77 26 49 77 26 49 77 26 49 77 26 49 77 26 49 77 26 49 77 26 49 77 26 49 77 26 49 77 26 49 77 241 196 93 241 196 93 241 196 93 241 196 93 241 196 93 241 196 93 241 196 93 241 196 93 241 196 93 241 196 93 26 49 77 26 49 77 26 49 77 26 49 77 26 49 77 26 49 77 26 49 77 26 49 77 26 49 77 26 49 77 26 49 77 26 49 77 26 49 77 26 49 77 26 49 77 26 49 77 0 0 0 0 0 0 0 0 0 0 0 0 0 0 0 0 0 0 0 0 0 0 0 0 0 0 0
0 0 0 0 0 0 0 0 0 0 0 0 0 0 0 0 0 0 0 0 0 0 0 0 0 0 0 23 44 69 23 44 69 23 44 69 23 44 69 23 44 69 23 44 69 23 44 69 23 44 69 23 44 69 23 44 69 23 44 69 23 44 69 23 44 69 23 44 69 23 44 69 23 44 69 241 196 93 241 196 93 241 196 93 241 196 93 241 196 93 241 196 93 241 196 93 241 196 93 241 196 93 241 196 93 23 44 69 23 44 69 23 44 69 23 44 69 23 44 69 23 44 69 23 44 69 23 44 69 23 44 69 23 44 69 23 44 69 23 44 69 23 44 69 26 49 77 26 49 77 26 49 77 26 49 77 26 49 77 26 49 77 26 49 77 26 49 77 26 49 77 26 49 77 26 49 77 26 49 77 26 49 77 241 196 93 241 196 93 241 196 93 241 196 93 241 196 93 241 196 93 241 196 93 241 196 93 241 196 93 241 196 93 26 49 77 26 49 77 26 49 77 26 49 77 26 49 77 26 49 77 26 49 77 26 49 77 26 49 77 26 49 77 26 49 77 26 49 77 26 49 77 26 49 77 26 49 77 26 49 77 0 0 0 0 0 0 0 0 0 0 0 0 0 0 0 0 0 0 0 0 0 0 0 0 0 0 0
0 0 0 0 0 0 0 0 0 0 0 0 0 0 0 0 0 0 0 0 0 0 0 0 0 0 0 0 0 0 0 0 0 0 0 0 23 44 69 23 44 69 23 44 69 23 44 69 23 44 69 23 44 69 23 44 69 23 44 69 23 44 69 23 44 69 23 44 69 23 44 69 23 44 69 241 196 93 241 196 93 241 196 93 241 196 93 241 196 93 241 196 93 241 196 93 241 196 93 241 196 93 241 196 93 23 44 69 23 44 69 23 44 69 23 44 69 23 44 69 23 44 69 32 24 18 32 24 18 32 24 18 32 24 18 32 24 18 32 24 18 32 24 18 32 24 18 32 24 18 32 24 18 32 24 18 32 24 18 32 24 18 32 24 18 26 49 77 26 49 77 26 49 77 26 49 77 26 49 77 26 49 77 241 196 93 241 196 93 241 196 93 241 196 93 241 196 93 241 196 93 241 196 93 241 196 93 241 196 93 241 196 93 26 49 77 26 49 77 26 49 77 26 49 77 26 49 77 26 49 77 26 49 77 26 49 77 26 49 77 26 49 77 26 49 77 26 49 77 26 49 77 0 0 0 0 0 0 0 0 0 0 0 0 0 0 0 0 0 0 0 0 0 0 0 0 0 0 0 0 0 0 0 0 0 0 0 0
0 0 0 0 0 0 0 0 0 0 0 0 0 0 0 0 0 0 0 0 0 0 0 0 0 0 0 0 0 0 0 0 0 0 0 0 0 0 0 0 0 0 0 0 0 23 44 69 23 44 69 23 44 69 23 44 69 23 44 69 23 44 69 23 44 69 23 44 69 23 44 69 23 44 69 23 44 69 23 44 69 23 44 69 23 44 69 23 44 69 23 44 69 23 44 69 23 44 69 23 44 69 23 44 69 23 44 69 23 44 69 23 44 69 23 44 69 23 44 69 23 44 69 32 24 18 32 24 18 32 24 18 32 24 18 32 24 18 32 24 18 32 24 18 32 24 18 32 24 18 32 24 18 32 24 18 32 24 18 32 24 18 32 24 18 26 49 77 26 49 77 26 49 77 26 49 77 26 49 77 26 49 77 26 49 77 26 49 77 26 49 77 26 49 77 26 49 77 26 49 77 26 49 77 26 49 77 26 49 77 26 49 77 26 49 77 26 49 77 26 49 77 26 49 77 26 49 77 26 49 77 26 49 77 26 49 77 26 49 77 26 49 77 0 0 0 0 0 0 0 0 0 0 0 0 0 0 0 0 0 0 0 0 0 0 0 0 0 0 0 0 0 0 0 0 0 0 0 0 0 0 0 0 0 0 0 0 0
0 0 0 0 0 0 0 0 0 0 0 0 0 0 0 0 0 0 0 0 0 0 0 0 0 0 0 0 0 0 0 0 0 0 0 0 0 0 0 0 0 0 0 0 0 66 55 40 66 55 40 66 55 40 23 44 69 23 44 69 23 44 69 23 44 69 23 44 69 23 44 69 23 44 69 23 44 69 23 44 69 23 44 69 23 44 69 23 44 69 23 44 69 23 44 69 23 44 69 23 44 69 23 44 69 23 44 69 23 44 69 23 44 69 23 44 69 23 44 69 23 44 69 32 24 18 32 24 18 32 24 18 32 24 18 32 24 18 32 24 18 32 24 18 32 24 18 32 24 18 32 24 18 32 24 18 32 24 18 32 24 18 32 24 18 26 49 77 26 49 77 26 49 77 26 49 77 26 49 77 26 49 77 26 49 77 26 49 77 26 49 77 26 49 77 26 49 77 26 49 77 26 49 77 26 49 77 26 49 77 26 49 77 26 49 77 26 49 77 26 49 77 26 49 77 26 49 77 26 49 77 26 49 77 74 61 44 74 61 44 74 61 44 0 0 0 0 0 0 0 0 0 0 0 0 0 0 0 0 0 0 0 0 0 0 0 0 0 0 0 0 0 0 0 0 0 0 0 0 0 0 0 0 0 0 0 0 0
0 0 0 0 0 0 0 0 0 0 0 0 0 0 0 0 0 0 0 0 0 0 0 0 0 0 0 0 0 0 0 0 0 0 0 0 0 0 0 0 0 0 0 0 0 66 55 40 66 55 40 66 55 40 66 55 40 66 55 40 66 55 40 23 44 69 23 44 69 23 44 69 23 44 69 23 44 69 23 44 69 23 44 69 23 44 69 23 44 69 23 44 69 23 44 69 23 44 69 23 44 69 23 44 69 23 44 69 23 44 69 23 44 69 23 44 69 23 44 69 23 44 69 32 24 18 32 24 18 32 24 18 32 24 18 32 24 18 32 24 18 32 24 18 32 24 18 32 24 18 32 24 18 32 24 18 32 24 18 32 24 18 32 24 18 26 49 77 26 49 77 26 49 77 26 49 77 26 49 77 26 49 77 26 49 77 26 49 77 26 49 77 26 49 77 26 49 77 26 49 77 26 49 77 26 49 77 26 49 77 26 49 77 26 49 77 26 49 77 26 49 77 26 49 77 74 61 44 74 61 44 74 61 44 74 61 44 74 61 44 74 61 44 0 0 0 0 0 0 0 0 0 0 0 0 0 0 0 0 0 0 0 0 0 0 0 0 0 0 0 0 0 0 0 0 0 0 0 0 0 0 0 0 0 0 0 0 0
0 0 0 0 0 0 0 0 0 0 0 0 0 0 0 0 0 0 0 0 0 0 0 0 0 0 0 0 0 0 0 0 0 0 0 0 0 0 0 0 0 0 0 0 0 66 55 40 66 55 40 66 55 40 66 55 40 66 55 40 66 55 40 66 55 40 66 55 40 23 44 69 23 44 69 23 44 69 23 44 69 23 44 69 23 44 69 23 44 69 23 44 69 23 44 69 23 44 69 23 44 69 23 44 69 23 44 69 23 44 69 23 44 69 23 44 69 23 44 69 23 44 69 32 24 18 32 24 18 32 24 18 32 24 18 32 24 18 32 24 18 32 24 18 32 24 18 32 24 18 32 24 18 32 24 18 32 24 18 32 24 18 32 24 18 26 49 77 26 49 77 26 49 77 26 49 77 26 49 77 26 49 77 26 49 77 26 49 77 26 49 77 26 49 77 26 49 77 26 49 77 26 49 77 26 49 77 26 49 77 26 49 77 26 49 77 26 49 77 74 61 44 74 61 44 74 61 44 74 61 44 74 61 44 74 61 44 74 61 44 74 61 44 0 0 0 0 0 0 0 0 0 0 0 0 0 0 0 0 0 0 0 0 0 0 0 0 0 0 0 0 0 0 0 0 0 0 0 0 0 0 0 0 0 0 0 0 0
0 0 0 0 0 0 0 0 0 0 0 0 0 0 0 0 0 0 0 0 0 0 0 0 0 0 0 0 0 0 0 0 0 0 0 0 0 0 0 0 0 0 0 0 0 66 55 40 66 55 40 66 55 40 66 55 40 66 55 40 66 55 40 66 55 40 66 55 40 66 55 40 66 55 40 66 55 40 23 44 69 23 44 69 23 44 69 23 44 69 23 44 69 23 44 69 23 44 69 23 44 69 23 44 69 23 44 69 23 44 69 23 44 69 23 44 69 23 44 69 23 44 69 32 24 18 32 24 18 32 24 18 32 24 18 32 24 18 32 24 18 32 24 18 32 24 18 32 24 18 32 24 18 32 24 18 32 24 18 32 24 18 32 24 18 26 49 77 26 49 77 26 49 77 26 49 77 26 49 77 26 49 77 26 49 77 26 49 77 26 49 77 26 49 77 26 49 77 26 49 77 26 49 77 26 49 77 26 49 77 74 61 44 74 61 44 74 61 44 74 61 44 74 61 44 74 61 44 74 61 44 74 61 44 74 61 44 74 61 44 74 61 44 0 0 0 0 0 0 0 0 0 0 0 0 0 0 0 0 0 0 0 0 0 0 0 0 0 0 0 0 0 0 0 0 0 0 0 0 0 0 0 0 0 0 0 0 0
0 0 0 0 0 0 0 0 0 0 0 0 0 0 0 0 0 0 0 0 0 0 0 0 0 0 0 0 0 0 0 0 0 0 0 0 0 0 0 0 0 0 0 0 0 66 55 40 66 55 40 66 55 40 66 55 40 66 55 40 66 55 40 66 55 40 66 55 40 66 55 40 66 55 40 66 55 40 66 55 40 66 55 40 66 55 40 23 44 69 23 44 69 23 44 69 23 44 69 23 44 69 23 44 69 23 44 69 23 44 69 23 44 69 23 44 69 23 44 69 23 44 69 32 24 18 32 24 18 32 24 18 32 24 18 32 24 18 32 24 18 32 24 18 32 24 18 32 24 18 32 24 18 32 24 18 32 24 18 32 24 18 32 24 18 26 49 77 26 49 77 26 49 77 26 49 77 26 49 77 26 49 77 26 49 77 26 49 77 26 49 77 26 49 77 26 49 77 26 49 77 74 61 44 74 61 44 74 61 44 74 61 44 74 61 44 74 61 44 74 61 44 74 61 44 74 61 44 74 61 44 74 61 44 74 61 44 74 61 44 74 61 44 0 0 0 0 0 0 0 0 0 0 0 0 0 0 0 0 0 0 0 0 0 0 0 0 0 0 0 0 0 0 0 0 0 0 0 0 0 0 0 0 0 0 0 0 0
0 0 0 0 0 0 0 0 0 0 0 0 0 0 0 0 0 0 0 0 0 0 0 0 0 0 0 0 0 0 0 0 0 0 0 0 0 0 0 0 0 0 0 0 0 66 55 40 66 55 40 66 55 40 66 55 40 66 55 40 66 55 40 66 55 40 66 55 40 66 55 40 66 55 40 66 55 40 66 55 40 66 55 40 66 55 40 66 55 40 66 55 40 66 55 40 23 44 69 23 44 69 23 44 69 23 44 69 23 44 69 23 44 69 23 44 69 23 44 69 23 44 69 32 24 18 32 24 18 32 24 18 32 24 18 32 24 18 32 24 18 32 24 18 32 24 18 32 24 18 32 24 18 32 24 18 32 24 18 32 24 18 32 24 18 26 49 77 26 49 77 26 49 77 26 49 77 26 49 77 26 49 77 26 49 77 26 49 77 26 49 77 74 61 44 74 61 44 74 61 44 74 61 44 74 61 44 74 61 44 74 61 44 74 61 44 74 61 44 74 61 44 74 61 44 74 61 44 74 61 44 74 61 44 74 61 44 74 61 44 74 61 44 0 0 0 0 0 0 0 0 0 0 0 0 0 0 0 0 0 0 0 0 0 0 0 0 0 0 0 0 0 0 0 0 0 0 0 0 0 0 0 0 0 0 0 0 0
0 0 0 0 0 0 0 0 0 0 0 0 0 0 0 0 0 0 0 0 0 0 0 0 0 0 0 0 0 0 0 0 0 0 0 0 0 0 0 0 0 0 0 0 0 66 55 40 66 55 40 66 55 40 66 55 40 66 55 40 66 55 40 66 55 40 66 55 40 66 55 40 66 55 40 66 55 40 66 55 40 66 55 40 66 55 40 66 55 40 66 55 40 66 55 40 66 55 40 66 55 40 66 55 40 23 44 69 23 44 69 23 44 69 23 44 69 23 44 69 23 44 69 32 24 18 32 24 18 32 24 18 32 24 18 32 24 18 32 24 18 32 24 18 32 24 18 32 24 18 32 24 18 32 24 18 32 24 18 32 24 18 32 24 18 26 49 77 26 49 77 26 49 77 26 49 77 26 49 77 26 49 77 74 61 44 74 61 44 74 61 44 74 61 44 74 61 44 74 61 44 74 61 44 74 61 44 74 61 44 74 61 44 74 61 44 74 61 44 74 61 44 74 61 44 74 61 44 74 61 44 74 61 44 74 61 44 74 61 44 74 61 44 0 0 0 0 0 0 0 0 0 0 0 0 0 0 0 0 0 0 0 0 0 0 0 0 0 0 0 0 0 0 0 0 0 0 0 0 0 0 0 0 0 0 0 0 0
0 0 0 0 0 0 0 0 0 0 0 0 0 0 0 0 0 0 0 0 0 0 0 0 0 0 0 0 0 0 0 0 0 0 0 0 0 0 0 0 0 0 0 0 0 66 55 40 66 55 40 66 55 40 66 55 40 66 55 40 66 55 40 66 55 40 66 55 40 66 55 40 66 55 40 66 55 40 66 55 40 66 55 40 66 55 40 66 55 40 66 55 40 66 55 40 66 55 40 66 55 40 66 55 40 66 55 40 66 55 40 23 44 69 23 44 69 23 44 69 23 44 69 32 24 18 32 24 18 32 24 18 32 24 18 32 24 18 32 24 18 32 24 18 32 24 18 32 24 18 32 24 18 32 24 18 32 24 18 32 24 18 32 24 18 26 49 77 26 49 77 26 49 77 26 49 77 74 61 44 74 61 44 74 61 44 74 61 44 74 61 44 74 61 44 74 61 44 74 61 44 74 61 44 74 61 44 74 61 44 74 61 44 74 61 44 74 61 44 74 61 44 74 61 44 74 61 44 74 61 44 74 61 44 74 61 44 74 61 44 74 61 44 0 0 0 0 0 0 0 0 0 0 0 0 0 0 0 0 0 0 0 0 0 0 0 0 0 0 0 0 0 0 0 0 0 0 0 0 0 0 0 0 0 0 0 0 0
0 0 0 0 0 0 0 0 0 0 0 0 0 0 0 0 0 0 0 0 0 0 0 0 0 0 0 0 0 0 0 0 0 0 0 0 0 0 0 0 0 0 0 0 0 66 55 40 66 55 40 66 55 40 66 55 40 66 55 40 66 55 40 66 55 40 66 55 40 66 55 40 66 55 40 66 55 40 66 55 40 66 55 40 66 55 40 66 55 40 66 55 40 66 55 40 66 55 40 66 55 40 66 55 40 66 55 40 66 55 40 66 55 40 66 55 40 66 55 40 23 44 69 32 24 18 32 24 18 32 24 18 32 24 18 32 24 18 32 24 18 32 24 18 32 24 18 32 24 18 32 24 18 32 24 18 32 24 18 32 24 18 32 24 18 26 49 77 74 61 44 74 61 44 74 61 44 74 61 44 74 61 44 74 61 44 74 61 44 74 61 44 74 61 44 74 61 44 74 61 44 74 61 44 74 61 44 74 61 44 74 61 44 74 61 44 74 61 44 74 61 44 74 61 44 74 61 44 74 61 44 74 61 44 74 61 44 74 61 44 74 61 44 0 0 0 0 0 0 0 0 0 0 0 0 0 0 0 0 0 0 0 0 0 0 0 0 0 0 0 0 0 0 0 0 0 0 0 0 0 0 0 0 0 0 0 0 0
0 0 0 0 0 0 0 0 0 0 0 0 0 0 0 0 0 0 0 0 0 0 0 0 0 0 0 0 0 0 0 0 0 0 0 0 0 0 0 0 0 0 0 0 0 66 55 40 66 55 40 66 55 40 66 55 40 66 55 40 66 55 40 66 55 40 66 55 40 66 55 40 66 55 40 66 55 40 66 55 40 66 55 40 66 55 40 66 55 40 66 55 40 66 55 40 66 55 40 66 55 40 66 55 40 66 55 40 66 55 40 66 55 40 66 55 40 66 55 40 66 55 40 32 24 18 32 24 18 32 24 18 32 24 18 32 24 18 32 24 18 32 24 18 32 24 18 32 24 18 32 24 18 32 24 18 32 24 18 32 24 18 32 24 18 74 61 44 74 61 44 74 61 44 74 61 44 74 61 44 74 61 44 74 61 44 74 61 44 74 61 44 74 61 44 74 61 44 74 61 44 74 61 44 74 61 44 74 61 44 74 61 44 74 61 44 74 61 44 74 61 44 74 61 44 74 61 44 74 61 44 74 61 44 74 61 44 74 61 44 74 61 44 0 0 0 0 0 0 0 0 0 0 0 0 0 0 0 0 0 0 0 0 0 0 0 0 0 0 0 0 0 0 0 0 0 0 0 0 0 0 0 0 0 0 0 0 0
0 0 0 0 0 0 0 0 0 0 0 0 0 0 0 0 0 0 0 0 0 0 0 0 0 0 0 0 0 0 0 0 0 0 0 0 0 0 0 0 0 0 0 0 0 66 55 40 66 55 40 66 55 40 66 55 40 66 55 40 66 55 40 66 55 40 66 55 40 66 55 40 66 55 40 66 55 40 66 55 40 66 55 40 66 55 40 66 55 40 66 55 40 66 55 40 66 55 40 66 55 40 66 55 40 66 55 40 66 55 40 66 55 40 66 55 40 66 55 40 66 55 40 32 24 18 32 24 18 32 24 18 32 24 18 32 24 18 32 24 18 32 24 18 32 24 18 32 24 18 32 24 18 32 24 18 32 24 18 32 24 18 32 24 18 74 61 44 74 61 44 74 61 44 74 61 44 74 61 44 74 61 44 74 61 44 74 61 44 74 61 44 74 61 44 74 61 44 74 61 44 74 61 44 74 61 44 74 61 44 74 61 44 74 61 44 74 61 44 74 61 44 74 61 44 74 61 44 74 61 44 74 61 44 74 61 44 74 61 44 74 61 44 0 0 0 0 0 0 0 0 0 0 0 0 0 0 0 0 0 0 0 0 0 0 0 0 0 0 0 0 0 0 0 0 0 0 0 0 0 0 0 0 0 0 0 0 0
0 0 0 0 0 0 0 0 0 0 0 0 0 0 0 0 0 0 0 0 0 0 0 0 0 0 0 0 0 0 0 0 0 0 0 0 0 0 0 0 0 0 0 0 0 66 55 40 66 55 40 66 55 40 66 55 40 66 55 40 66 55 40 66 55 40 66 55 40 66 55 40 66 55 40 66 55 40 66 55 40 66 55 40 66 55 40 66 55 40 66 55 40 66 55 40 66 55 40 66 55 40 66 55 40 66 55 40 66 55 40 66 55 40 66 55 40 66 55 40 66 55 40 32 24 18 32 24 18 32 24 18 32 24 18 32 24 18 32 24 18 32 24 18 32 24 18 32 24 18 32 24 18 32 24 18 32 24 18 32 24 18 32 24 18 74 61 44 74 61 44 74 61 44 74 61 44 74 61 44 74 61 44 74 61 44 74 61 44 74 61 44 74 61 44 74 61 44 74 61 44 74 61 44 74 61 44 74 61 44 74 61 44 74 61 44 74 61 44 74 61 44 74 61 44 74 61 44 74 61 44 74 61 44 74 61 44 74 61 44 74 61 44 0 0 0 0 0 0 0 0 0 0 0 0 0 0 0 0 0 0 0 0 0 0 0 0 0 0 0 0 0 0 0 0 0 0 0 0 0 0 0 0 0 0 0 0 0
0 0 0 0 0 0 0 0 0 0 0 0 0 0 0 0 0 0 0 0 0 0 0 0 0 0 0 0 0 0 0 0 0 0 0 0 0 0 0 0 0 0 0 0 0 66 55 40 66 55 40 66 55 40 66 55 40 66 55 40 66 55 40 66 55 40 66 55 40 66 55 40 66 55 40 66 55 40 66 55 40 66 55 40 66 55 40 66 55 40 66 55 40 66 55 40 66 55 40 66 55 40 66 55 40 66 55 40 66 55 40 66 55 40 66 55 40 66 55 40 66 55 40 32 24 18 32 24 18 32 24 18 32 24 18 32 24 18 32 24 18 32 24 18 32 24 18 32 24 18 32 24 18 32 24 18 32 24 18 32 24 18 32 24 18 74 61 44 74 61 44 74 61 44 74 61 44 74 61 44 74 61 44 74 61 44 74 61 44 74 61 44 74 61 44 74 61 44 74 61 44 74 61 44 74 61 44 74 61 44 74 61 44 74 61 44 74 61 44 74 61 44 74 61 44 74 61 44 74 61 44 74 61 44 74 61 44 74 61 44 74 61 44 0 0 0 0 0 0 0 0 0 0 0 0 0 0 0 0 0 0 0 0 0 0 0 0 0 0 0 0 0 0 0 0 0 0 0 0 0 0 0 0 0 0 0 0 0
0 0 0 0 0 0 0 0 0 0 0 0 0 0 0 0 0 0 0 0 0 0 0 0 0 0 0 0 0 0 0 0 0 0 0 0 0 0 0 0 0 0 0 0 0 66 55 40 66 55 40 66 55 40 66 55 40 66 55 40 66 55 40 66 55 40 66 55 40 66 55 40 66 55 40 66 55 40 66 55 40 66 55 40 66 55 40 66 55 40 66 55 40 66 55 40 66 55 40 66 55 40 66 55 40 66 55 40 66 55 40 66 55 40 66 55 40 66 55 40 66 55 40 32 24 18 32 24 18 32 24 18 32 24 18 32 24 18 32 24 18 32 24 18 32 24 18 32 24 18 32 24 18 32 24 18 32 24 18 32 24 18 32 24 18 74 61 44 74 61 44 74 61 44 74 61 44 74 61 44 74 61 44 74 61 44 74 61 44 74 61 44 74 61 44 74 61 44 74 61 44 74 61 44 74 61 44 74 61 44 74 61 44 74 61 44 74 61 44 74 61 44 74 61 44 74 61 44 74 61 44 74 61 44 74 61 44 74 61 44 74 61 44 0 0 0 0 0 0 0 0 0 0 0 0 0 0 0 0 0 0 0 0 0 0 0 0 0 0 0 0 0 0 0 0 0 0 0 0 0 0 0 0 0 0 0 0 0
0 0 0 0 0 0 0 0 0 0 0 0 0 0 0 0 0 0 0 0 0 0 0 0 0 0 0 0 0 0 0 0 0 0 0 0 0 0 0 0 0 0 0 0 0 66 55 40 66 55 40 66 55 40 66 55 40 66 55 40 66 55 40 66 55 40 66 55 40 66 55 40 66 55 40 66 55 40 66 55 40 66 55 40 66 55 40 66 55 40 66 55 40 66 55 40 66 55 40 66 55 40 66 55 40 66 55 40 66 55 40 66 55 40 66 55 40 66 55 40 66 55 40 32 24 18 32 24 18 32 24 18 32 24 18 32 24 18 32 24 18 32 24 18 32 24 18 32 24 18 32 24 18 32 24 18 32 24 18 32 24 18 32 24 18 74 61 44 74 61 44 74 61 44 74 61 44 74 61 44 74 61 44 74 61 44 74 61 44 74 61 44 74 61 44 74 61 44 74 61 44 74 61 44 74 61 44 74 61 44 74 61 44 74 61 44 74 61 44 74 61 44 74 61 44 74 61 44 74 61 44 74 61 44 74 61 44 74 61 44 74 61 44 0 0 0 0 0 0 0 0 0 0 0 0 0 0 0 0 0 0 0 0 0 0 0 0 0 0 0 0 0 0 0 0 0 0 0 0 0 0 0 0 0 0 0 0 0
0 0 0 0 0 0 0 0 0 0 0 0 0 0 0 0 0 0 0 0 0 0 0 0 0 0 0 0 0 0 0 0 0 0 0 0 0 0 0 0 0 0 0 0 0 66 55 40 66 55 40 66 55 40 66 55 40 66 55 40 66 55 40 66 55 40 66 55 40 66 55 40 66 55 40 66 55 40 66 55 40 66 55 40 66 55 40 66 55 40 66 55 40 66 55 40 66 55 40 66 55 40 66 55 40 66 55 40 66 55 40 66 55 40 66 55 40 66 55 40 66 55 40 32 24 18 32 24 18 32 24 18 32 24 18 32 24 18 32 24 18 32 24 18 32 24 18 32 24 18 32 24 18 32 24 18 32 24 18 32 24 18 32 24 18 74 61 44 74 61 44 74 61 44 74 61 44 74 61 44 74 61 44 74 61 44 74 61 44 74 61 44 74 61 44 74 61 44 74 61 44 74 61 44 74 61 44 74 61 44 74 61 44 74 61 44 74 61 44 74 61 44 74 61 44 74 61 44 74 61 44 74 61 44 74 61 44 74 61 44 74 61 44 0 0 0 0 0 0 0 0 0 0 0 0 0 0 0 0 0 0 0 0 0 0 0 0 0 0 0 0 0 0 0 0 0 0 0 0 0 0 0 0 0 0 0 0 0
0 0 0 0 0 0 0 0 0 0 0 0 0 0 0 0 0 0 0 0 0 0 0 0 0 0 0 0 0 0 0 0 0 0 0 0 0 0 0 0 0 0 0 0 0 66 55 40 66 55 40 66 55 40 66 55 40 66 55 40 66 55 40 66 55 40 66 55 40 66 55 40 66 55 40 66 55 40 66 55 40 66 55 40 66 55 40 66 55 40 66 55 40 66 55 40 66 55 40 66 55 40 66 55 40 66 55 40 66 55 40 66 55 40 66 55 40 66 55 40 66 55 40 32 24 18 32 24 18 32 24 18 32 24 18 32 24 18 32 24 18 32 24 18 32 24 18 32 24 18 32 24 18 32 24 18 32 24 18 32 24 18 32 24 18 74 61 44 74 61 44 74 61 44 74 61 44 74 61 44 74 61 44 74 61 44 74 61 44 74 61 44 74 61 44 74 61 44 74 61 44 74 61 44 74 61 44 74 61 44 74 61 44 74 61 44 74 61 44 74 61 44 74 61 44 74 61 44 74 61 44 74 61 44 74 61 44 74 61 44 74 61 44 0 0 0 0 0 0 0 0 0 0 0 0 0 0 0 0 0 0 0 0 0 0 0 0 0 0 0 0 0 0 0 0 0 0 0 0 0 0 0 0 0 0 0 0 0
0 0 0 0 0 0 0 0 0 0 0 0 0 0 0 0 0 0 0 0 0 0 0 0 0 0 0 0 0 0 0 0 0 0 0 0 0 0 0 0 0 0 0 0 0 66 55 40 66 55 40 66 55 40 66 55 40 66 55 40 66 55 40 66 55 40 66 55 40 66 55 40 66 55 40 66 55 40 66 55 40 66 55 40 66 55 40 66 55 40 66 55 40 66 55 40 66 55 40 66 55 40 66 55 40 66 55 40 66 55 40 66 55 40 66 55 40 66 55 40 66 55 40 32 24 18 32 24 18 32 24 18 32 24 18 32 24 18 32 24 18 32 24 18 32 24 18 32 24 18 32 24 18 32 24 18 32 24 18 32 24 18 32 24 18 74 61 44 74 61 44 74 61 44 74 61 44 74 61 44 74 61 44 74 61 44 74 61 44 74 61 44 74 61 44 74 61 44 74 61 44 74 61 44 74 61 44 74 61 44 74 61 44 74 61 44 74 61 44 74 61 44 74 61 44 74 61 44 74 61 44 74 61 44 74 61 44 74 61 44 74 61 44 0 0 0 0 0 0 0 0 0 0 0 0 0 0 0 0 0 0 0 0 0 0 0 0 0 0 0 0 0 0 0 0 0 0 0 0 0 0 0 0 0 0 0 0 0
0 0 0 0 0 0 0 0 0 0 0 0 0 0 0 0 0 0 0 0 0 0 0 0 0 0 0 0 0 0 0 0 0 0 0 0 0 0 0 0 0 0 0 0 0 66 55 40 66 55 40 66 55 40 66 55 40 66 55 40 66 55 40 66 55 40 66 55 40 66 55 40 66 55 40 66 55 40 66 55 40 66 55 40 66 55 40 66 55 40 66 55 40 66 55 40 66 55 40 66 55 40 66 55 40 66 55 40 66 55 40 66 55 40 66 55 40 66 55 40 66 55 40 32 24 18 32 24 18 32 24 18 32 24 18 32 24 18 32 24 18 32 24 18 32 24 18 32 24 18 32 24 18 32 24 18 32 24 18 32 24 18 32 24 18 74 61 44 74 61 44 74 61 44 74 61 44 74 61 44 74 61 44 74 61 44 74 61 44 74 61 44 74 61 44 74 61 44 74 61 44 74 61 44 74 61 44 74 61 44 74 61 44 74 61 44 74 61 44 74 61 44 74 61 44 74 61 44 74 61 44 74 61 44 74 61 44 74 61 44 74 61 44 0 0 0 0 0 0 0 0 0 0 0 0 0 0 0 0 0 0 0 0 0 0 0 0 0 0 0 0 0 0 0 0 0 0 0 0 0 0 0 0 0 0 0 0 0
0 0 0 0 0 0 0 0 0 0 0 0 0 0 0 0 0 0 0 0 0 0 0 0 0 0 0 0 0 0 0 0 0 0 0 0 0 0 0 0 0 0 0 0 0 66 55 40 66 55 40 66 55 40 66 55 40 66 55 40 66 55 40 66 55 40 66 55 40 66 55 40 66 55 40 66 55 40 66 55 40 66 55 40 66 55 40 66 55 40 66 55 40 66 55 40 66 55 40 66 55 40 66 55 40 66 55 40 66 55 40 66 55 40 66 55 40 66 55 40 66 55 40 32 24 18 32 24 18 32 24 18 32 24 18 32 24 18 32 24 18 32 24 18 32 24 18 32 24 18 32 24 18 32 24 18 32 24 18 32 24 18 32 24 18 74 61 44 74 61 44 74 61 44 74 61 44 74 61 44 74 61 44 74 61 44 74 61 44 74 61 44 74 61 44 74 61 44 74 61 44 74 61 44 74 61 44 74 61 44 74 61 44 74 61 44 74 61 44 74 61 44 74 61 44 74 61 44 74 61 44 74 61 44 74 61 44 74 61 44 74 61 44 0 0 0 0 0 0 0 0 0 0 0 0 0 0 0 0 0 0 0 0 0 0 0 0 0 0 0 0 0 0 0 0 0 0 0 0 0 0 0 0 0 0 0 0 0
0 0 0 0 0 0 0 0 0 0 0 0 0 0 0 0 0 0 0 0 0 0 0 0 0 0 0 0 0 0 0 0 0 0 0 0 0 0 0 0 0 0 0 0 0 66 55 40 66 55 40 66 55 40 66 55 40 66 55 40 66 55 40 66 55 40 66 55 40 66 55 40 66 55 40 66 55 40 66 55 40 66 55 40 66 55 40 66 55 40 66 55 40 66 55 40 66 55 40 66 55 40 66 55 40 66 55 40 66 55 40 66 55 40 66 55 40 66 55 40 66 55 40 32 24 18 32 24 18 32 24 18 32 24 18 32 24 18 32 24 18 32 24 18 32 24 18 32 24 18 32 24 18 32 24 18 32 24 18 32 24 18 32 24 18 74 61 44 74 61 44 74 61 44 74 61 44 74 61 44 74 61 44 74 61 44 74 61 44 74 61 44 74 61 44 74 61 44 74 61 44 74 61 44 74 61 44 74 61 44 74 61 44 74 61 44 74 61 44 74 61 44 74 61 44 74 61 44 74 61 44 74 61 44 74 61 44 74 61 44 74 61 44 0 0 0 0 0 0 0 0 0 0 0 0 0 0 0 0 0 0 0 0 0 0 0 0 0 0 0 0 0 0 0 0 0 0 0 0 0 0 0 0 0 0 0 0 0
0 0 0 0 0 0 0 0 0 0 0 0 0 0 0 0 0 0 0 0 0 0 0 0 0 0 0 0 0 0 0 0 0 0 0 0 0 0 0 0 0 0 0 0 0 66 55 40 66 55 40 66 55 40 66 55 40 66 55 40 66 55 40 66 55 40 66 55 40 66 55 40 66 55 40 66 55 40 66 55 40 66 55 40 66 55 40 66 55 40 66 55 40 66 55 40 66 55 40 66 55 40 66 55 40 66 55 40 66 55 40 66 55 40 66 55 40 66 55 40 66 55 40 32 24 18 32 24 18 32 24 18 32 24 18 32 24 18 32 24 18 32 24 18 32 24 18 32 24 18 32 24 18 32 24 18 32 24 18 32 24 18 32 24 18 74 61 44 74 61 44 74 61 44 74 61 44 74 61 44 74 61 44 74 61 44 74 61 44 74 61 44 74 61 44 74 61 44 74 61 44 74 61 44 74 61 44 74 61 44 74 61 44 74 61 44 74 61 44 74 61 44 74 61 44 74 61 44 74 61 44 74 61 44 74 61 44 74 61 44 74 61 44 0 0 0 0 0 0 0 0 0 0 0 0 0 0 0 0 0 0 0 0 0 0 0 0 0 0 0 0 0 0 0 0 0 0 0 0 0 0 0 0 0 0 0 0 0
0 0 0 0 0 0 0 0 0 0 0 0 0 0 0 0 0 0 0 0 0 0 0 0 0 0 0 0 0 0 0 0 0 0 0 0 0 0 0 0 0 0 0 0 0 66 55 40 66 55 40 66 55 40 66 55 40 66 55 40 66 55 40 66 55 40 66 55 40 66 55 40 66 55 40 66 55 40 66 55 40 66 55 40 66 55 40 66 55 40 66 55 40 66 55 40 66 55 40 66 55 40 66 55 40 66 55 40 66 55 40 66 55 40 66 55 40 66 55 40 66 55 40 32 24 18 32 24 18 32 24 18 32 24 18 32 24 18 32 24 18 32 24 18 32 24 18 32 24 18 32 24 18 32 24 18 32 24 18 32 24 18 32 24 18 74 61 44 74 61 44 74 61 44 74 61 44 74 61 44 74 61 44 74 61 44 74 61 44 74 61 44 74 61 44 74 61 44 74 61 44 74 61 44 74 61 44 74 61 44 74 61 44 74 61 44 74 61 44 74 61 44 74 61 44 74 61 44 74 61 44 74 61 44 74 61 44 74 61 44 74 61 44 0 0 0 0 0 0 0 0 0 0 0 0 0 0 0 0 0 0 0 0 0 0 0 0 0 0 0 0 0 0 0 0 0 0 0 0 0 0 0 0 0 0 0 0 0
0 0 0 0 0 0 0 0 0 0 0 0 0 0 0 0 0 0 0 0 0 0 0 0 0 0 0 0 0 0 0 0 0 0 0 0 0 0 0 0 0 0 0 0 0 66 55 40 66 55 40 66 55 40 66 55 40 66 55 40 66 55 40 66 55 40 66 55 40 66 55 40 66 55 40 66 55 40 66 55 40 66 55 40 66 55 40 66 55 40 66 55 40 66 55 40 66 55 40 66 55 40 66 55 40 66 55 40 66 55 40 66 55 40 66 55 40 66 55 40 66 55 40 32 24 18 32 24 18 32 24 18 32 24 18 32 24 18 32 24 18 32 24 18 32 24 18 32 24 18 32 24 18 32 24 18 32 24 18 32 24 18 32 24 18 74 61 44 74 61 44 74 61 44 74 61 44 74 61 44 74 61 44 74 61 44 74 61 44 74 61 44 74 61 44 74 61 44 74 61 44 74 61 44 74 61 44 74 61 44 74 61 44 74 61 44 74 61 44 74 61 44 74 61 44 74 61 44 74 61 44 74 61 44 74 61 44 74 61 44 74 61 44 0 0 0 0 0 0 0 0 0 0 0 0 0 0 0 0 0 0 0 0 0 0 0 0 0 0 0 0 0 0 0 0 0 0 0 0 0 0 0 0 0 0 0 0 0
0 0 0 0 0 0 0 0 0 0 0 0 0 0 0 0 0 0 0 0 0 0 0 0 0 0 0 0 0 0 0 0 0 0 0 0 0 0 0 0 0 0 0 0 0 66 55 40 66 55 40 66 55 40 66 55 40 66 55 40 66 55 40 66 55 40 66 55 40 66 55 40 66 55 40 66 55 40 66 55 40 66 55 40 66 55 40 66 55 40 66 55 40 66 55 40 66 55 40 66 55 40 66 55 40 66 55 40 66 55 40 66 55 40 66 55 40 66 55 40 66 55 40 66 55 40 66 55 40 66 55 40 66 55 40 66 55 40 66 55 40 66 55 40 74 61 44 74 61 44 74 61 44 74 61 44 74 61 44 74 61 44 74 61 44 74 61 44 74 61 44 74 61 44 74 61 44 74 61 44 74 61 44 74 61 44 74 61 44 74 61 44 74 61 44 74 61 44 74 61 44 74 61 44 74 61 44 74 61 44 74 61 44 74 61 44 74 61 44 74 61 44 74 61 44 74 61 44 74 61 44 74 61 44 74 61 44 74 61 44 74 61 44 0 0 0 0 0 0 0 0 0 0 0 0 0 0 0 0 0 0 0 0 0 0 0 0 0 0 0 0 0 0 0 0 0 0 0 0 0 0 0 0 0 0 0 0 0
0 0 0 0 0 0 0 0 0 0 0 0 0 0 0 0 0 0 0 0 0 0 0 0 0 0 0 0 0 0 0 0 0 0 0 0 0 0 0 0 0 0 0 0 0 66 55 40 66 55 40 66 55 40 66 55 40 66 55 40 66 55 40 66 55 40 66 55 40 66 55 40 66 55 40 66 55 40 66 55 40 66 55 40 66 55 40 66 55 40 66 55 40 66 55 40 66 55 40 66 55 40 66 55 40 66 55 40 66 55 40 66 55 40 66 55 40 66 55 40 66 55 40 66 55 40 66 55 40 66 55 40 66 55 40 66 55 40 66 55 40 66 55 40 74 61 44 74 61 44 74 61 44 74 61 44 74 61 44 74 61 44 74 61 44 74 61 44 74 61 44 74 61 44 74 61 44 74 61 44 74 61 44 74 61 44 74 61 44 74 61 44 74 61 44 74 61 44 74 61 44 74 61 44 74 61 44 74 61 44 74 61 44 74 61 44 74 61 44 74 61 44 74 61 44 74 61 44 74 61 44 74 61 44 74 61 44 74 61 44 74 61 44 0 0 0 0 0 0 0 0 0 0 0 0 0 0 0 0 0 0 0 0 0 0 0 0 0 0 0 0 0 0 0 0 0 0 0 0 0 0 0 0 0 0 0 0 0
0 0 0 0 0 0 0 0 0 0 0 0 0 0 0 0 0 0 0 0 0 0 0 0 0 0 0 0 0 0 0 0 0 0 0 0 0 0 0 0 0 0 0 0 0 66 55 40 66 55 40 66 55 40 66 55 40 66 55 40 66 55 40 66 55 40 66 55 40 66 55 40 66 55 40 66 55 40 66 55 40 66 55 40 66 55 40 66 55 40 66 55 40 66 55 40 66 55 40 66 55 40 66 55 40 66 55 40 66 55 40 66 55 40 66 55 40 66 55 40 66 55 40 66 55 40 66 55 40 66 55 40 66 55 40 66 55 40 66 55 40 66 55 40 74 61 44 74 61 44 74 61 44 74 61 44 74 61 44 74 61 44 74 61 44 74 61 44 74 61 44 74 61 44 74 61 44 74 61 44 74 61 44 74 61 44 74 61 44 74 61 44 74 61 44 74 61 44 74 61 44 74 61 44 74 61 44 74 61 44 74 61 44 74 61 44 74 61 44 74 61 44 74 61 44 74 61 44 74 61 44 74 61 44 74 61 44 74 61 44 74 61 44 0 0 0 0 0 0 0 0 0 0 0 0 0 0 0 0 0 0 0 0 0 0 0 0 0 0 0 0 0 0 0 0 0 0 0 0 0 0 0 0 0 0 0 0 0
0 0 0 0 0 0 0 0 0 0 0 0 0 0 0 0 0 0 0 0 0 0 0 0 0 0 0 0 0 0 0 0 0 0 0 0 0 0 0 0 0 0 0 0 0 66 55 40 66 55 40 66 55 40 66 55 40 66 55 40 66 55 40 66 55 40 66 55 40 66 55 40 66 55 40 66 55 40 66 55 40 66 55 40 66 55 40 66 55 40 66 55 40 66 55 40 66 55 40 66 55 40 66 55 40 66 55 40 66 55 40 66 55 40 66 55 40 66 55 40 66 55 40 66 55 40 66 55 40 66 55 40 66 55 40 66 55 40 66 55 40 66 55 40 74 61 44 74 61 44 74 61 44 74 61 44 74 61 44 74 61 44 74 61 44 74 61 44 74 61 44 74 61 44 74 61 44 74 61 44 74 61 44 74 61 44 74 61 44 74 61 44 74 61 44 74 61 44 74 61 44 74 61 44 74 61 44 74 61 44 74 61 44 74 61 44 74 61 44 74 61 44 74 61 44 74 61 44 74 61 44 74 61 44 74 61 44 74 61 44 74 61 44 0 0 0 0 0 0 0 0 0 0 0 0 0 0 0 0 0 0 0 0 0 0 0 0 0 0 0 0 0 0 0 0 0 0 0 0 0 0 0 0 0 0 0 0 0
0 0 0 0 0 0 0 0 0 0 0 0 0 0 0 0 0 0 0 0 0 0 0 0 0 0 0 0 0 0 0 0 0 0 0 0 0 0 0 0 0 0 0 0 0 66 55 40 66 55 40 66 55 40 66 55 40 66 55 40 66 55 40 66 55 40 66 55 40 66 55 40 66 55 40 66 55 40 66 55 40 66 55 40 66 55 40 66 55 40 66 55 40 66 55 40 66 55 40 66 55 40 66 55 40 66 55 40 66 55 40 66 55 40 66 55 40 66 55 40 66 55 40 66 55 40 66 55 40 66 55 40 66 55 40 66 55 40 66 55 40 66 55 40 74 61 44 74 61 44 74 61 44 74 61 44 74 61 44 74 61 44 74 61 44 74 61 44 74 61 44 74 61 44 74 61 44 74 61 44 74 61 44 74 61 44 74 61 44 74 61 44 74 61 44 74 61 44 74 61 44 74 61 44 74 61 44 74 61 44 74 61 44 74 61 44 74 61 44 74 61 44 74 61 44 74 61 44 74 61 44 74 61 44 74 61 44 74 61 44 74 61 44 0 0 0 0 0 0 0 0 0 0 0 0 0 0 0 0 0 0 0 0 0 0 0 0 0 0 0 0 0 0 0 0 0 0 0 0 0 0 0 0 0 0 0 0 0
0 0 0 0 0 0 0 0 0 0 0 0 0 0 0 0 0 0 0 0 0 0 0 0 0 0 0 0 0 0 0 0 0 0 0 0 0 0 0 0 0 0 0 0 0 0 0 0 0 0 0 66 55 40 66 55 40 66 55 40 66 55 40 66 55 40 66 55 40 66 55 40 66 55 40 66 55 40 66 55 40 66 55 40 66 55 40 66 55 40 66 55 40 66 55 40 66 55 40 66 55 40 66 55 40 66 55 40 66 55 40 66 55 40 66 55 40 66 55 40 66 55 40 66 55 40 66 55 40 66 55 40 66 55 40 66 55 40 66 55 40 66 55 40 74 61 44 74 61 44 74 61 44 74 61 44 74 61 44 74 61 44 74 61 44 74 61 44 74 61 44 74 61 44 74 61 44 74 61 44 74 61 44 74 61 44 74 61 44 74 61 44 74 61 44 74 61 44 74 61 44 74 61 44 74 61 44 74 61 44 74 61 44 74 61 44 74 61 44 74 61 44 74 61 44 74 61 44 74 61 44 74 61 44 74 61 44 0 0 0 0 0 0 0 0 0 0 0 0 0 0 0 0 0 0 0 0 0 0 0 0 0 0 0 0 0 0 0 0 0 0 0 0 0 0 0 0 0 0 0 0 0 0 0 0 0 0 0
0 0 0 0 0 0 0 0 0 0 0 0 0 0 0 0 0 0 0 0 0 0 0 0 0 0 0 0 0 0 0 0 0 0 0 0 0 0 0 0 0 0 0 0 0 0 0 0 0 0 0 0 0 0 0 0 0 66 55 40 66 55 40 66 55 40 66 55 40 66 55 40 66 55 40 66 55 40 66 55 40 66 55 40 66 55 40 66 55 40 66 55 40 66 55 40 66 55 40 66 55 40 66 55 40 66 55 40 66 55 40 66 55 40 66 55 40 66 55 40 66 55 40 66 55 40 66 55 40 66 55 40 66 55 40 66 55 40 66 55 40 66 55 40 74 61 44 74 61 44 74 61 44 74 61 44 74 61 44 74 61 44 74 61 44 74 61 44 74 61 44 74 61 44 74 61 44 74 61 44 74 61 44 74 61 44 74 61 44 74 61 44 74 61 44 74 61 44 74 61 44 74 61 44 74 61 44 74 61 44 74 61 44 74 61 44 74 61 44 74 61 44 74 61 44 74 61 44 74 61 44 0 0 0 0 0 0 0 0 0 0 0 0 0 0 0 0 0 0 0 0 0 0 0 0 0 0 0 0 0 0 0 0 0 0 0 0 0 0 0 0 0 0 0 0 0 0 0 0 0 0 0 0 0 0 0 0 0
0 0 0 0 0 0 0 0 0 0 0 0 0 0 0 0 0 0 0 0 0 0 0 0 0 0 0 0 0 0 0 0 0 0 0 0 0 0 0 0 0 0 0 0 0 0 0 0 0 0 0 0 0 0 0 0 0 0 0 0 0 0 0 66 55 40 66 55 40 66 55 40 66 55 40 66 55 40 66 55 40 66 55 40 66 55 40 66 55 40 66 55 40 66 55 40 66 55 40 66 55 40 66 55 40 66 55 40 66 55 40 66 55 40 66 55 40 66 55 40 66 55 40 66 55 40 66 55 40 66 55 40 66 55 40 66 55 40 66 55 40 66 55 40 74 61 44 74 61 44 74 61 44 74 61 44 74 61 44 74 61 44 74 61 44 74 61 44 74 61 44 74 61 44 74 61 44 74 61 44 74 61 44 74 61 44 74 61 44 74 61 44 74 61 44 74 61 44 74 61 44 74 61 44 74 61 44 74 61 44 74 61 44 74 61 44 74 61 44 74 61 44 74 61 44 0 0 0 0 0 0 0 0 0 0 0 0 0 0 0 0 0 0 0 0 0 0 0 0 0 0 0 0 0 0 0 0 0 0 0 0 0 0 0 0 0 0 0 0 0 0 0 0 0 0 0 0 0 0 0 0 0 0 0 0 0 0 0
0 0 0 0 0 0 0 0 0 0 0 0 0 0 0 0 0 0 0 0 0 0 0 0 0 0 0 0 0 0 0 0 0 0 0 0 0 0 0 0 0 0 0 0 0 0 0 0 0 0 0 0 0 0 0 0 0 0 0 0 0 0 0 0 0 0 0 0 0 66 55 40 66 55 40 66 55 40 66 55 40 66 55 40 66 55 40 66 55 40 66 55 40 66 55 40 66 55 40 66 55 40 66 55 40 66 55 40 66 55 40 66 55 40 66 55 40 66 55 40 66 55 40 66 55 40 66 55 40 66 55 40 66 55 40 66 55 40 66 55 40 66 55 40 74 61 44 74 61 44 74 61 44 74 61 44 74 61 44 74 61 44 74 61 44 74 61 44 74 61 44 74 61 44 74 61 44 74 61 44 74 61 44 74 61 44 74 61 44 74 61 44 74 61 44 74 61 44 74 61 44 74 61 44 74 61 44 74 61 44 74 61 44 74 61 44 74 61 44 0 0 0 0 0 0 0 0 0 0 0 0 0 0 0 0 0 0 0 0 0 0 0 0 0 0 0 0 0 0 0 0 0 0 0 0 0 0 0 0 0 0 0 0 0 0 0 0 0 0 0 0 0 0 0 0 0 0 0 0 0 0 0 0 0 0 0 0 0
0 0 0 0 0 0 0 0 0 0 0 0 0 0 0 0 0 0 0 0 0 0 0 0 0 0 0 0 0 0 0 0 0 0 0 0 0 0 0 0 0 0 0 0 0 0 0 0 0 0 0 0 0 0 0 0 0 0 0 0 0 0 0 0 0 0 0 0 0 0 0 0 0 0 0 66 55 40 66 55 40 66 55 40 66 55 40 66 55 40 66 55 40 66 55 40 66 55 40 66 55 40 66 55 40 66 55 40 66 55 40 66 55 40 66 55 40 66 55 40 66 55 40 66 55 40 66 55 40 66 55 40 66 55 40 66 55 40 66 55 40 66 55 40 74 61 44 74 61 44 74 61 44 74 61 44 74 61 44 74 61 44 74 61 44 74 61 44 74 61 44 74 61 44 74 61 44 74 61 44 74 61 44 74 61 44 74 61 44 74 61 44 74 61 44 74 61 44 74 61 44 74 61 44 74 61 44 74 61 44 74 61 44 0 0 0 0 0 0 0 0 0 0 0 0 0 0 0 0 0 0 0 0 0 0 0 0 0 0 0 0 0 0 0 0 0 0 0 0 0 0 0 0 0 0 0 0 0 0 0 0 0 0 0 0 0 0 0 0 0 0 0 0 0 0 0 0 0 0 0 0 0 0 0 0 0 0 0
0 0 0 0 0 0 0 0 0 0 0 0 0 0 0 0 0 0 0 0 0 0 0 0 0 0 0 0 0 0 0 0 0 0 0 0 0 0 0 0 0 0 0 0 0 0 0 0 0 0 0 0 0 0 0 0 0 0 0 0 0 0 0 0 0 0 0 0 0 0 0 0 0 0 0 0 0 0 0 0 0 66 55 40 66 55 40 66 55 40 66 55 40 66 55 40 66 55 40 66 55 40 66 55 40 66 55 40 66 55 40 66 55 40 66 55 40 66 55 40 66 55 40 66 55 40 66 55 40 66 55 40 66 55 40 66 55 40 66 55 40 66 55 40 74 61 44 74 61 44 74 61 44 74 61 44 74 61 44 74 61 44 74 61 44 74 61 44 74 61 44 74 61 44 74 61 44 74 61 44 74 61 44 74 61 44 74 61 44 74 61 44 74 61 44 74 61 44 74 61 44 74 61 44 74 61 44 0 0 0 0 0 0 0 0 0 0 0 0 0 0 0 0 0 0 0 0 0 0 0 0 0 0 0 0 0 0 0 0 0 0 0 0 0 0 0 0 0 0 0 0 0 0 0 0 0 0 0 0 0 0 0 0 0 0 0 0 0 0 0 0 0 0 0 0 0 0 0 0 0 0 0 0 0 0 0 0 0
0 0 0 0 0 0 0 0 0 0 0 0 0 0 0 0 0 0 0 0 0 0 0 0 0 0 0 0 0 0 0 0 0 0 0 0 0 0 0 0 0 0 0 0 0 0 0 0 0 0 0 0 0 0 0 0 0 0 0 0 0 0 0 0 0 0 0 0 0 0 0 0 0 0 0 0 0 0 0 0 0 0 0 0 0 0 0 66 55 40 66 55 40 66 55 40 66 55 40 66 55 40 66 55 40 66 55 40 66 55 40 66 55 40 66 55 40 66 55 40 66 55 40 66 55 40 66 55 40 66 55 40 66 55 40 66 55 40 66 55 40 66 55 40 74 61 44 74 61 44 74 61 44 74 61 44 74 61 44 74 61 44 74 61 44 74 61 44 74 61 44 74 61 44 74 61 44 74 61 44 74 61 44 74 61 44 74 61 44 74 61 44 74 61 44 74 61 44 74 61 44 0 0 0 0 0 0 0 0 0 0 0 0 0 0 0 0 0 0 0 0 0 0 0 0 0 0 0 0 0 0 0 0 0 0 0 0 0 0 0 0 0 0 0 0 0 0 0 0 0 0 0 0 0 0 0 0 0 0 0 0 0 0 0 0 0 0 0 0 0 0 0 0 0 0 0 0 0 0 0 0 0 0 0 0 0 0 0
0 0 0 0 0 0 0 0 0 0 0 0 0 0 0 0 0 0 0 0 0 0 0 0 0 0 0 0 0 0 0 0 0 0 0 0 0 0 0 0 0 0 0 0 0 0 0 0 0 0 0 0 0 0 0 0 0 0 0 0 0 0 0 0 0 0 0 0 0 0 0 0 0 0 0 0 0 0 0 0 0 0 0 0 0 0 0 0 0 0 0 0 0 66 55 40 66 55 40 66 55 40 66 55 40 66 55 40 66 55 40 66 55 40 66 55 40 66 55 40 66 55 40 66 55 40 66 55 40 66 55 40 66 55 40 66 55 40 66 55 40 66 55 40 74 61 44 74 61 44 74 61 44 74 61 44 74 61 44 74 61 44 74 61 44 74 61 44 74 61 44 74 61 44 74 61 44 74 61 44 74 61 44 74 61 44 74 61 44 74 61 44 74 61 44 0 0 0 0 0 0 0 0 0 0 0 0 0 0 0 0 0 0 0 0 0 0 0 0 0 0 0 0 0 0 0 0 0 0 0 0 0 0 0 0 0 0 0 0 0 0 0 0 0 0 0 0 0 0 0 0 0 0 0 0 0 0 0 0 0 0 0 0 0 0 0 0 0 0 0 0 0 0 0 0 0 0 0 0 0 0 0 0 0 0 0 0 0
