P3
96 96
255
0 0 0 0 0 0 0 0 0 0 0 0 0 0 0 0 0 0 0 0 0 0 0 0 0 0 0 0 0 0 0 0 0 0 0 0 0 0 0 0 0 0 0 0 0 0 0 0 0 0 0 0 0 0 0 0 0 0 0 0 0 0 0 0 0 0 0 0 0 0 0 0 0 0 0 0 0 0 0 0 0 0 0 0 0 0 0 0 0 0 0 0 0 0 0 0 0 0 0 0 0 0 0 0 0 0 0 0 0 0 0 0 0 0 0 0 0 0 0 0 0 0 0 0 0 0 0 0 0 0 0 0 0 0 0 0 0 0 0 0 0 0 0 0 0 0 0 0 0 0 0 0 0 0 0 0 0 0 0 0 0 0 0 0 0 0 0 0 0 0 0 0 0 0 0 0 0 0 0 0 0 0 0 0 0 0 0 0 0 0 0 0 0 0 0 0 0 0 0 0 0 0 0 0 0 0 0 0 0 0 0 0 0 0 0 0 0 0 0 0 0 0 0 0 0 0 0 0 0 0 0 0 0 0 0 0 0 0 0 0 0 0 0 0 0 0 0 0 0 0 0 0 0 0 0 0 0 0 0 0 0 0 0 0 0 0 0 0 0 0 0 0 0 0 0 0 0 0 0 0 0 0 0 0 0 0 0 0
0 0 0 0 0 0 0 0 0 0 0 0 0 0 0 0 0 0 0 0 0 0 0 0 0 0 0 0 0 0 0 0 0 0 0 0 0 0 0 0 0 0 0 0 0 0 0 0 0 0 0 0 0 0 0 0 0 0 0 0 0 0 0 0 0 0 0 0 0 0 0 0 0 0 0 0 0 0 0 0 0 0 0 0 0 0 0 0 0 0 0 0 0 0 0 0 0 0 0 0 0 0 0 0 0 0 0 0 0 0 0 0 0 0 0 0 0 0 0 0 0 0 0 0 0 0 0 0 0 0 0 0 0 0 0 0 0 0 0 0 0 0 0 0 0 0 0 0 0 0 0 0 0 0 0 0 0 0 0 0 0 0 0 0 0 0 0 0 0 0 0 0 0 0 0 0 0 0 0 0 0 0 0 0 0 0 0 0 0 0 0 0 0 0 0 0 0 0 0 0 0 0 0 0 0 0 0 0 0 0 0 0 0 0 0 0 0 0 0 0 0 0 0 0 0 0 0 0 0 0 0 0 0 0 0 0 0 0 0 0 0 0 0 0 0 0 0 0 0 0 0 0 0 0 0 0 0 0 0 0 0 0 0 0 0 0 0 0 0 0 0 0 0 0 0 0 0 0 0 0 0 0 0 0 0 0 0 0
0 0 0 0 0 0 0 0 0 0 0 0 0 0 0 0 0 0 0 0 0 0 0 0 0 0 0 0 0 0 0 0 0 0 0 0 0 0 0 0 0 0 0 0 0 0 0 0 0 0 0 0 0 0 0 0 0 0 0 0 0 0 0 0 0 0 0 0 0 0 0 0 0 0 0 0 0 0 0 0 0 0 0 0 0 0 0 0 0 0 0 0 0 0 0 0 0 0 0 0 0 0 0 0 0 0 0 0 0 0 0 0 0 0 0 0 0 0 0 0 0 0 0 0 0 0 0 0 0 0 0 0 0 0 0 0 0 0 0 0 0 0 0 0 0 0 0 0 0 0 0 0 0 0 0 0 0 0 0 0 0 0 0 0 0 0 0 0 0 0 0 0 0 0 0 0 0 0 0 0 0 0 0 0 0 0 0 0 0 0 0 0 0 0 0 0 0 0 0 0 0 0 0 0 0 0 0 0 0 0 0 0 0 0 0 0 0 0 0 0 0 0 0 0 0 0 0 0 0 0 0 0 0 0 0 0 0 0 0 0 0 0 0 0 0 0 0 0 0 0 0 0 0 0 0 0 0 0 0 0 0 0 0 0 0 0 0 0 0 0 0 0 0 0 0 0 0 0 0 0 0 0 0 0 0 0 0 0
0 0 0 0 0 0 0 0 0 0 0 0 0 0 0 0 0 0 0 0 0 0 0 0 0 0 0 0 0 0 0 0 0 0 0 0 0 0 0 0 0 0 0 0 0 0 0 0 0 0 0 0 0 0 0 0 0 0 0 0 0 0 0 0 0 0 0 0 0 0 0 0 0 0 0 0 0 0 0 0 0 0 0 0 0 0 0 0 0 0 0 0 0 0 0 0 0 0 0 0 0 0 0 0 0 0 0 0 0 0 0 0 0 0 0 0 0 0 0 0 0 0 0 0 0 0 0 0 0 0 0 0 0 0 0 0 0 0 0 0 0 0 0 0 0 0 0 0 0 0 0 0 0 0 0 0 0 0 0 0 0 0 0 0 0 0 0 0 0 0 0 0 0 0 0 0 0 0 0 0 0 0 0 0 0 0 0 0 0 0 0 0 0 0 0 0 0 0 0 0 0 0 0 0 0 0 0 0 0 0 0 0 0 0 0 0 0 0 0 0 0 0 0 0 0 0 0 0 0 0 0 0 0 0 0 0 0 0 0 0 0 0 0 0 0 0 0 0 0 0 0 0 0 0 0 0 0 0 0 0 0 0 0 0 0 0 0 0 0 0 0 0 0 0 0 0 0 0 0 0 0 0 0 0 0 0 0 0
0 0 0 0 0 0 0 0 0 0 0 0 0 0 0 0 0 0 0 0 0 0 0 0 0 0 0 0 0 0 0 0 0 0 0 0 0 0 0 0 0 0 0 0 0 0 0 0 0 0 0 0 0 0 0 0 0 0 0 0 0 0 0 0 0 0 0 0 0 0 0 0 0 0 0 0 0 0 0 0 0 0 0 0 0 0 0 0 0 0 0 0 0 0 0 0 0 0 0 0 0 0 0 0 0 0 0 0 0 0 0 0 0 0 0 0 0 0 0 0 0 0 0 0 0 0 0 0 0 0 0 0 0 0 0 0 0 0 0 0 0 0 0 0 0 0 0 0 0 0 0 0 0 0 0 0 0 0 0 0 0 0 0 0 0 0 0 0 0 0 0 0 0 0 0 0 0 0 0 0 0 0 0 0 0 0 0 0 0 0 0 0 0 0 0 0 0 0 0 0 0 0 0 0 0 0 0 0 0 0 0 0 0 0 0 0 0 0 0 0 0 0 0 0 0 0 0 0 0 0 0 0 0 0 0 0 0 0 0 0 0 0 0 0 0 0 0 0 0 0 0 0 0 0 0 0 0 0 0 0 0 0 0 0 0 0 0 0 0 0 0 0 0 0 0 0 0 0 0 0 0 0 0 0 0 0 0 0
0 0 0 0 0 0 0 0 0 0 0 0 0 0 0 0 0 0 0 0 0 0 0 0 0 0 0 0 0 0 0 0 0 0 0 0 0 0 0 0 0 0 0 0 0 0 0 0 0 0 0 0 0 0 0 0 0 0 0 0 0 0 0 0 0 0 0 0 0 0 0 0 0 0 0 0 0 0 0 0 0 0 0 0 0 0 0 0 0 0 0 0 0 0 0 0 0 0 0 0 0 0 0 0 0 0 0 0 0 0 0 0 0 0 0 0 0 0 0 0 0 0 0 0 0 0 0 0 0 0 0 0 0 0 0 0 0 0 0 0 0 0 0 0 0 0 0 0 0 0 0 0 0 0 0 0 0 0 0 0 0 0 0 0 0 0 0 0 0 0 0 0 0 0 0 0 0 0 0 0 0 0 0 0 0 0 0 0 0 0 0 0 0 0 0 0 0 0 0 0 0 0 0 0 0 0 0 0 0 0 0 0 0 0 0 0 0 0 0 0 0 0 0 0 0 0 0 0 0 0 0 0 0 0 0 0 0 0 0 0 0 0 0 0 0 0 0 0 0 0 0 0 0 0 0 0 0 0 0 0 0 0 0 0 0 0 0 0 0 0 0 0 0 0 0 0 0 0 0 0 0 0 0 0 0 0 0 0
0 0 0 0 0 0 0 0 0 0 0 0 0 0 0 0 0 0 0 0 0 0 0 0 0 0 0 0 0 0 0 0 0 0 0 0 0 0 0 0 0 0 0 0 0 0 0 0 0 0 0 0 0 0 0 0 0 0 0 0 0 0 0 0 0 0 0 0 0 0 0 0 0 0 0 0 0 0 0 0 0 0 0 0 0 0 0 0 0 0 0 0 0 0 0 0 0 0 0 0 0 0 0 0 0 0 0 0 0 0 0 0 0 0 0 0 0 0 0 0 0 0 0 0 0 0 0 0 0 0 0 0 0 0 0 0 0 0 0 0 0 0 0 0 0 0 0 0 0 0 0 0 0 0 0 0 0 0 0 0 0 0 0 0 0 0 0 0 0 0 0 0 0 0 0 0 0 0 0 0 0 0 0 0 0 0 0 0 0 0 0 0 0 0 0 0 0 0 0 0 0 0 0 0 0 0 0 0 0 0 0 0 0 0 0 0 0 0 0 0 0 0 0 0 0 0 0 0 0 0 0 0 0 0 0 0 0 0 0 0 0 0 0 0 0 0 0 0 0 0 0 0 0 0 0 0 0 0 0 0 0 0 0 0 0 0 0 0 0 0 0 0 0 0 0 0 0 0 0 0 0 0 0 0 0 0 0 0
0 0 0 0 0 0 0 0 0 0 0 0 0 0 0 0 0 0 0 0 0 0 0 0 0 0 0 0 0 0 0 0 0 0 0 0 0 0 0 0 0 0 0 0 0 0 0 0 0 0 0 0 0 0 0 0 0 0 0 0 0 0 0 0 0 0 0 0 0 0 0 0 0 0 0 0 0 0 0 0 0 0 0 0 0 0 0 0 0 0 0 0 0 0 0 0 0 0 0 0 0 0 0 0 0 0 0 0 0 0 0 0 0 0 0 0 0 0 0 0 0 0 0 0 0 0 0 0 0 0 0 0 0 0 0 0 0 0 0 0 0 0 0 0 0 0 0 0 0 0 0 0 0 0 0 0 0 0 0 0 0 0 0 0 0 0 0 0 0 0 0 0 0 0 0 0 0 0 0 0 0 0 0 0 0 0 0 0 0 0 0 0 0 0 0 0 0 0 0 0 0 0 0 0 0 0 0 0 0 0 0 0 0 0 0 0 0 0 0 0 0 0 0 0 0 0 0 0 0 0 0 0 0 0 0 0 0 0 0 0 0 0 0 0 0 0 0 0 0 0 0 0 0 0 0 0 0 0 0 0 0 0 0 0 0 0 0 0 0 0 0 0 0 0 0 0 0 0 0 0 0 0 0 0 0 0 0 0
0 0 0 0 0 0 0 0 0 0 0 0 0 0 0 0 0 0 0 0 0 0 0 0 0 0 0 0 0 0 0 0 0 0 0 0 0 0 0 0 0 0 0 0 0 0 0 0 0 0 0 0 0 0 0 0 0 0 0 0 0 0 0 0 0 0 0 0 0 0 0 0 0 0 0 0 0 0 0 0 0 0 0 0 0 0 0 0 0 0 0 0 0 0 0 0 0 0 0 0 0 0 0 0 0 0 0 0 0 0 0 0 0 0 0 0 0 0 0 0 0 0 0 0 0 0 0 0 0 0 0 0 0 0 0 0 0 0 0 0 0 0 0 0 0 0 0 0 0 0 0 0 0 0 0 0 0 0 0 0 0 0 0 0 0 0 0 0 0 0 0 0 0 0 0 0 0 0 0 0 0 0 0 0 0 0 0 0 0 0 0 0 0 0 0 0 0 0 0 0 0 0 0 0 0 0 0 0 0 0 0 0 0 0 0 0 0 0 0 0 0 0 0 0 0 0 0 0 0 0 0 0 0 0 0 0 0 0 0 0 0 0 0 0 0 0 0 0 0 0 0 0 0 0 0 0 0 0 0 0 0 0 0 0 0 0 0 0 0 0 0 0 0 0 0 0 0 0 0 0 0 0 0 0 0 0 0 0
0 0 0 0 0 0 0 0 0 0 0 0 0 0 0 0 0 0 0 0 0 0 0 0 0 0 0 0 0 0 0 0 0 0 0 0 0 0 0 0 0 0 0 0 0 0 0 0 0 0 0 0 0 0 0 0 0 0 0 0 0 0 0 0 0 0 0 0 0 0 0 0 0 0 0 0 0 0 0 0 0 0 0 0 0 0 0 0 0 0 0 0 0 0 0 0 0 0 0 0 0 0 0 0 0 0 0 0 0 0 0 0 0 0 0 0 0 0 0 0 0 0 0 0 0 0 0 0 0 0 0 0 0 0 0 0 0 0 0 0 0 0 0 0 0 0 0 0 0 0 0 0 0 0 0 0 0 0 0 0 0 0 0 0 0 0 0 0 0 0 0 0 0 0 0 0 0 0 0 0 0 0 0 0 0 0 0 0 0 0 0 0 0 0 0 0 0 0 0 0 0 0 0 0 0 0 0 0 0 0 0 0 0 0 0 0 0 0 0 0 0 0 0 0 0 0 0 0 0 0 0 0 0 0 0 0 0 0 0 0 0 0 0 0 0 0 0 0 0 0 0 0 0 0 0 0 0 0 0 0 0 0 0 0 0 0 0 0 0 0 0 0 0 0 0 0 0 0 0 0 0 0 0 0 0 0 0 0
0 0 0 0 0 0 0 0 0 0 0 0 0 0 0 0 0 0 0 0 0 0 0 0 0 0 0 0 0 0 0 0 0 0 0 0 0 0 0 0 0 0 0 0 0 0 0 0 0 0 0 0 0 0 0 0 0 0 0 0 0 0 0 0 0 0 0 0 0 0 0 0 0 0 0 0 0 0 0 0 0 0 0 0 0 0 0 0 0 0 0 0 0 0 0 0 0 0 0 0 0 0 0 0 0 0 0 0 0 0 0 0 0 0 0 0 0 0 0 0 0 0 0 0 0 0 0 0 0 0 0 0 0 0 0 0 0 0 0 0 0 0 0 0 0 0 0 0 0 0 0 0 0 0 0 0 0 0 0 0 0 0 0 0 0 0 0 0 0 0 0 0 0 0 0 0 0 0 0 0 0 0 0 0 0 0 0 0 0 0 0 0 0 0 0 0 0 0 0 0 0 0 0 0 0 0 0 0 0 0 0 0 0 0 0 0 0 0 0 0 0 0 0 0 0 0 0 0 0 0 0 0 0 0 0 0 0 0 0 0 0 0 0 0 0 0 0 0 0 0 0 0 0 0 0 0 0 0 0 0 0 0 0 0 0 0 0 0 0 0 0 0 0 0 0 0 0 0 0 0 0 0 0 0 0 0 0 0
0 0 0 0 0 0 0 0 0 0 0 0 0 0 0 0 0 0 0 0 0 0 0 0 0 0 0 0 0 0 0 0 0 0 0 0 0 0 0 0 0 0 0 0 0 0 0 0 0 0 0 0 0 0 0 0 0 0 0 0 0 0 0 0 0 0 0 0 0 0 0 0 0 0 0 0 0 0 0 0 0 0 0 0 0 0 0 0 0 0 0 0 0 0 0 0 0 0 0 0 0 0 0 0 0 0 0 0 0 0 0 0 0 0 0 0 0 0 0 0 0 0 0 0 0 0 0 0 0 0 0 0 0 0 0 0 0 0 0 0 0 0 0 0 0 0 0 0 0 0 0 0 0 0 0 0 0 0 0 0 0 0 0 0 0 0 0 0 0 0 0 0 0 0 0 0 0 0 0 0 0 0 0 0 0 0 0 0 0 0 0 0 0 0 0 0 0 0 0 0 0 0 0 0 0 0 0 0 0 0 0 0 0 0 0 0 0 0 0 0 0 0 0 0 0 0 0 0 0 0 0 0 0 0 0 0 0 0 0 0 0 0 0 0 0 0 0 0 0 0 0 0 0 0 0 0 0 0 0 0 0 0 0 0 0 0 0 0 0 0 0 0 0 0 0 0 0 0 0 0 0 0 0 0 0 0 0 0
0 0 0 0 0 0 0 0 0 0 0 0 0 0 0 0 0 0 0 0 0 0 0 0 0 0 0 0 0 0 0 0 0 0 0 0 0 0 0 0 0 0 0 0 0 0 0 0 0 0 0 0 0 0 0 0 0 0 0 0 0 0 0 0 0 0 0 0 0 0 0 0 0 0 0 0 0 0 0 0 0 0 0 0 0 0 0 0 0 0 0 0 0 0 0 0 0 0 0 0 0 0 0 0 0 0 0 0 0 0 0 0 0 0 0 0 0 0 0 0 0 0 0 0 0 0 0 0 0 0 0 0 0 0 0 0 0 0 0 0 0 0 0 0 0 0 0 0 0 0 0 0 0 0 0 0 0 0 0 0 0 0 0 0 0 0 0 0 0 0 0 0 0 0 0 0 0 0 0 0 0 0 0 0 0 0 0 0 0 0 0 0 0 0 0 0 0 0 0 0 0 0 0 0 0 0 0 0 0 0 0 0 0 0 0 0 0 0 0 0 0 0 0 0 0 0 0 0 0 0 0 0 0 0 0 0 0 0 0 0 0 0 0 0 0 0 0 0 0 0 0 0 0 0 0 0 0 0 0 0 0 0 0 0 0 0 0 0 0 0 0 0 0 0 0 0 0 0 0 0 0 0 0 0 0 0 0 0
0 0 0 0 0 0 0 0 0 0 0 0 0 0 0 0 0 0 0 0 0 0 0 0 0 0 0 0 0 0 0 0 0 0 0 0 0 0 0 0 0 0 0 0 0 0 0 0 0 0 0 0 0 0 0 0 0 0 0 0 0 0 0 0 0 0 0 0 0 0 0 0 0 0 0 0 0 0 0 0 0 0 0 0 0 0 0 0 0 0 0 0 0 0 0 0 0 0 0 0 0 0 0 0 0 0 0 0 0 0 0 0 0 0 0 0 0 0 0 0 0 0 0 0 0 0 0 0 0 0 0 0 0 0 0 0 0 0 0 0 0 0 0 0 0 0 0 0 0 0 0 0 0 0 0 0 0 0 0 0 0 0 0 0 0 0 0 0 0 0 0 0 0 0 0 0 0 0 0 0 0 0 0 0 0 0 0 0 0 0 0 0 0 0 0 0 0 0 0 0 0 0 0 0 0 0 0 0 0 0 0 0 0 0 0 0 0 0 0 0 0 0 0 0 0 0 0 0 0 0 0 0 0 0 0 0 0 0 0 0 0 0 0 0 0 0 0 0 0 0 0 0 0 0 0 0 0 0 0 0 0 0 0 0 0 0 0 0 0 0 0 0 0 0 0 0 0 0 0 0 0 0 0 0 0 0 0 0
0 0 0 0 0 0 0 0 0 0 0 0 0 0 0 0 0 0 0 0 0 0 0 0 0 0 0 0 0 0 0 0 0 0 0 0 0 0 0 0 0 0 0 0 0 0 0 0 0 0 0 0 0 0 0 0 0 0 0 0 0 0 0 0 0 0 0 0 0 0 0 0 0 0 0 0 0 0 0 0 0 0 0 0 0 0 0 0 0 0 0 0 0 0 0 0 0 0 0 0 0 0 0 0 0 0 0 0 0 0 0 0 0 0 0 0 0 0 0 0 0 0 0 0 0 0 0 0 0 0 0 0 0 0 0 0 0 0 0 0 0 0 0 0 0 0 0 0 0 0 0 0 0 0 0 0 0 0 0 0 0 0 0 0 0 0 0 0 0 0 0 0 0 0 0 0 0 0 0 0 0 0 0 0 0 0 0 0 0 0 0 0 0 0 0 0 0 0 0 0 0 0 0 0 0 0 0 0 0 0 0 0 0 0 0 0 0 0 0 0 0 0 0 0 0 0 0 0 0 0 0 0 0 0 0 0 0 0 0 0 0 0 0 0 0 0 0 0 0 0 0 0 0 0 0 0 0 0 0 0 0 0 0 0 0 0 0 0 0 0 0 0 0 0 0 0 0 0 0 0 0 0 0 0 0 0 0 0
0 0 0 0 0 0 0 0 0 0 0 0 0 0 0 0 0 0 0 0 0 0 0 0 0 0 0 0 0 0 0 0 0 0 0 0 0 0 0 0 0 0 0 0 0 0 0 0 0 0 0 0 0 0 0 0 0 0 0 0 0 0 0 0 0 0 0 0 0 0 0 0 0 0 0 0 0 0 0 0 0 0 0 0 0 0 0 0 0 0 0 0 0 0 0 0 0 0 0 0 0 0 0 0 0 0 0 0 0 0 0 0 0 0 0 0 0 0 0 0 0 0 0 0 0 0 0 0 0 0 0 0 0 0 0 0 0 0 0 0 0 0 0 0 0 0 0 0 0 0 0 0 0 0 0 0 0 0 0 0 0 0 0 0 0 0 0 0 0 0 0 0 0 0 0 0 0 0 0 0 0 0 0 0 0 0 0 0 0 0 0 0 0 0 0 0 0 0 0 0 0 0 0 0 0 0 0 0 0 0 0 0 0 0 0 0 0 0 0 0 0 0 0 0 0 0 0 0 0 0 0 0 0 0 0 0 0 0 0 0 0 0 0 0 0 0 0 0 0 0 0 0 0 0 0 0 0 0 0 0 0 0 0 0 0 0 0 0 0 0 0 0 0 0 0 0 0 0 0 0 0 0 0 0 0 0 0 0
0 0 0 0 0 0 0 0 0 0 0 0 0 0 0 0 0 0 0 0 0 0 0 0 0 0 0 0 0 0 0 0 0 0 0 0 0 0 0 0 0 0 0 0 0 0 0 0 0 0 0 0 0 0 0 0 0 0 0 0 0 0 0 0 0 0 0 0 0 0 0 0 0 0 0 0 0 0 0 0 0 0 0 0 0 0 0 0 0 0 0 0 0 0 0 0 0 0 0 0 0 0 0 0 0 0 0 0 0 0 0 0 0 0 0 0 0 0 0 0 0 0 0 0 0 0 0 0 0 0 0 0 0 0 0 0 0 0 0 0 0 0 0 0 0 0 0 0 0 0 0 0 0 0 0 0 0 0 0 0 0 0 0 0 0 47 139 80 0 0 0 0 0 0 0 0 0 0 0 0 0 0 0 0 0 0 0 0 0 0 0 0 0 0 0 0 0 0 0 0 0 0 0 0 0 0 0 0 0 0 0 0 0 0 0 0 0 0 0 0 0 0 0 0 0 0 0 0 0 0 0 0 0 0 0 0 0 0 0 0 0 0 0 0 0 0 0 0 0 0 0 0 0 0 0 0 0 0 0 0 0 0 0 0 0 0 0 0 0 0 0 0 0 0 0 0 0 0 0 0 0 0 0 0 0 0 0 0
0 0 0 0 0 0 0 0 0 0 0 0 0 0 0 0 0 0 0 0 0 0 0 0 0 0 0 0 0 0 0 0 0 0 0 0 0 0 0 0 0 0 0 0 0 0 0 0 0 0 0 0 0 0 0 0 0 0 0 0 0 0 0 0 0 0 0 0 0 0 0 0 0 0 0 0 0 0 0 0 0 0 0 0 0 0 0 0 0 0 0 0 0 0 0 0 0 0 0 0 0 0 0 0 0 0 0 0 0 0 0 0 0 0 0 0 0 0 0 0 0 0 0 0 0 0 0 0 0 0 0 0 0 0 0 0 0 0 47 139 80 47 139 80 47 139 80 47 139 80 47 139 80 47 139 80 47 139 80 47 139 80 47 139 80 47 139 80 47 139 80 47 139 80 47 139 80 47 139 80 47 139 80 47 139 80 47 139 80 47 139 80 47 139 80 0 0 0 0 0 0 0 0 0 0 0 0 0 0 0 0 0 0 0 0 0 0 0 0 0 0 0 0 0 0 0 0 0 0 0 0 0 0 0 0 0 0 0 0 0 0 0 0 0 0 0 0 0 0 0 0 0 0 0 0 0 0 0 0 0 0 0 0 0 0 0 0 0 0 0 0 0 0 0 0 0 0 0 0 0 0 0 0 0 0 0 0 0
0 0 0 0 0 0 0 0 0 0 0 0 0 0 0 0 0 0 0 0 0 0 0 0 0 0 0 0 0 0 0 0 0 0 0 0 0 0 0 0 0 0 0 0 0 0 0 0 0 0 0 0 0 0 0 0 0 0 0 0 0 0 0 0 0 0 0 0 0 0 0 0 0 0 0 0 0 0 0 0 0 0 0 0 0 0 0 0 0 0 0 0 0 0 0 0 0 0 0 0 0 0 0 0 0 0 0 0 0 0 0 0 0 0 0 0 0 0 0 0 0 0 0 0 0 0 0 0 0 47 139 80 47 139 80 47 139 80 47 139 80 47 139 80 47 139 80 47 139 80 47 139 80 47 139 80 47 139 80 47 139 80 47 139 80 47 139 80 47 139 80 47 139 80 47 139 80 47 139 80 47 139 80 47 139 80 47 139 80 47 139 80 47 139 80 47 139 80 47 139 80 47 139 80 0 0 0 0 0 0 0 0 0 0 0 0 0 0 0 0 0 0 0 0 0 0 0 0 0 0 0 0 0 0 0 0 0 0 0 0 0 0 0 0 0 0 0 0 0 0 0 0 0 0 0 0 0 0 0 0 0 0 0 0 0 0 0 0 0 0 0 0 0 0 0 0 0 0 0 0 0 0 0 0 0 0 0 0
0 0 0 0 0 0 0 0 0 0 0 0 0 0 0 0 0 0 0 0 0 0 0 0 0 0 0 0 0 0 0 0 0 0 0 0 0 0 0 0 0 0 0 0 0 0 0 0 0 0 0 0 0 0 0 0 0 0 0 0 0 0 0 0 0 0 0 0 0 0 0 0 0 0 0 0 0 0 0 0 0 0 0 0 0 0 0 0 0 0 0 0 0 0 0 0 0 0 0 0 0 0 0 0 0 0 0 0 0 0 0 0 0 0 0 0 0 0 0 0 47 139 80 47 139 80 47 139 80 47 139 80 47 139 80 47 139 80 47 139 80 47 139 80 47 139 80 47 139 80 47 139 80 47 139 80 47 139 80 47 139 80 47 139 80 47 139 80 47 139 80 47 139 80 47 139 80 47 139 80 47 139 80 47 139 80 47 139 80 47 139 80 47 139 80 47 139 80 47 139 80 47 139 80 47 139 80 47 139 80 47 139 80 0 0 0 0 0 0 0 0 0 0 0 0 0 0 0 0 0 0 0 0 0 0 0 0 0 0 0 0 0 0 0 0 0 0 0 0 0 0 0 0 0 0 0 0 0 0 0 0 0 0 0 0 0 0 0 0 0 0 0 0 0 0 0 0 0 0 0 0 0 0 0 0 0 0 0
0 0 0 0 0 0 0 0 0 0 0 0 0 0 0 0 0 0 0 0 0 0 0 0 0 0 0 0 0 0 0 0 0 0 0 0 0 0 0 0 0 0 0 0 0 0 0 0 0 0 0 0 0 0 0 0 0 0 0 0 0 0 0 0 0 0 0 0 0 0 0 0 0 0 0 0 0 0 0 0 0 0 0 0 0 0 0 0 0 0 0 0 0 0 0 0 0 0 0 0 0 0 0 0 0 0 0 0 0 0 0 0 0 0 47 139 80 47 139 80 47 139 80 47 139 80 47 139 80 47 139 80 47 139 80 47 139 80 47 139 80 47 139 80 47 139 80 47 139 80 47 139 80 47 139 80 47 139 80 47 139 80 47 139 80 47 139 80 47 139 80 47 139 80 47 139 80 47 139 80 47 139 80 47 139 80 47 139 80 47 139 80 47 139 80 47 139 80 47 139 80 47 139 80 47 139 80 47 139 80 47 139 80 47 139 80 47 139 80 0 0 0 0 0 0 0 0 0 0 0 0 0 0 0 0 0 0 0 0 0 0 0 0 0 0 0 0 0 0 0 0 0 0 0 0 0 0 0 0 0 0 0 0 0 0 0 0 0 0 0 0 0 0 0 0 0 0 0 0 0 0 0 0 0 0 0 0 0
0 0 0 0 0 0 0 0 0 0 0 0 0 0 0 0 0 0 0 0 0 0 0 0 0 0 0 0 0 0 0 0 0 0 0 0 0 0 0 0 0 0 0 0 0 0 0 0 0 0 0 0 0 0 0 0 0 0 0 0 0 0 0 0 0 0 0 0 0 0 0 0 0 0 0 0 0 0 0 0 0 0 0 0 0 0 0 0 0 0 0 0 0 0 0 0 0 0 0 0 0 0 0 0 0 0 0 0 47 139 80 47 139 80 47 139 80 47 139 80 47 139 80 47 139 80 47 139 80 47 139 80 47 139 80 47 139 80 47 139 80 47 139 80 47 139 80 47 139 80 47 139 80 47 139 80 47 139 80 47 139 80 120 189 98 47 139 80 47 139 80 47 139 80 47 139 80 47 139 80 47 139 80 47 139 80 47 139 80 47 139 80 47 139 80 47 139 80 47 139 80 47 139 80 47 139 80 47 139 80 47 139 80 47 139 80 47 139 80 47 139 80 47 139 80 0 0 0 0 0 0 0 0 0 0 0 0 0 0 0 0 0 0 0 0 0 0 0 0 0 0 0 0 0 0 0 0 0 0 0 0 0 0 0 0 0 0 0 0 0 0 0 0 0 0 0 0 0 0 0 0 0 0 0 0 0 0 0
0 0 0 0 0 0 0 0 0 0 0 0 0 0 0 0 0 0 0 0 0 0 0 0 0 0 0 0 0 0 0 0 0 0 0 0 0 0 0 0 0 0 0 0 0 0 0 0 0 0 0 0 0 0 0 0 0 0 0 0 0 0 0 0 0 0 0 0 0 0 0 0 0 0 0 0 0 0 0 0 0 0 0 0 0 0 0 0 0 0 0 0 0 0 0 0 0 0 0 0 0 0 0 0 0 47 139 80 47 139 80 47 139 80 47 139 80 47 139 80 47 139 80 47 139 80 47 139 80 47 139 80 47 139 80 47 139 80 47 139 80 47 139 80 47 139 80 120 189 98 120 189 98 120 189 98 120 189 98 120 189 98 120 189 98 120 189 98 120 189 98 120 189 98 120 189 98 120 189 98 47 139 80 47 139 80 47 139 80 47 139 80 47 139 80 47 139 80 47 139 80 47 139 80 47 139 80 47 139 80 47 139 80 47 139 80 47 139 80 47 139 80 47 139 80 47 139 80 0 0 0 0 0 0 0 0 0 0 0 0 0 0 0 0 0 0 0 0 0 0 0 0 0 0 0 0 0 0 0 0 0 0 0 0 0 0 0 0 0 0 0 0 0 0 0 0 0 0 0 0 0 0 0 0 0 0 0 0
0 0 0 0 0 0 0 0 0 0 0 0 0 0 0 0 0 0 0 0 0 0 0 0 0 0 0 0 0 0 0 0 0 0 0 0 0 0 0 0 0 0 0 0 0 0 0 0 0 0 0 0 0 0 0 0 0 0 0 0 0 0 0 0 0 0 0 0 0 0 0 0 0 0 0 0 0 0 0 0 0 0 0 0 0 0 0 0 0 0 0 0 0 0 0 0 0 0 0 47 139 80 47 139 80 47 139 80 47 139 80 47 139 80 47 139 80 47 139 80 47 139 80 47 139 80 47 139 80 47 139 80 47 139 80 47 139 80 47 139 80 47 139 80 120 189 98 120 189 98 120 189 98 120 189 98 120 189 98 120 189 98 120 189 98 120 189 98 120 189 98 120 189 98 120 189 98 120 189 98 120 189 98 47 139 80 47 139 80 47 139 80 47 139 80 47 139 80 47 139 80 47 139 80 47 139 80 47 139 80 47 139 80 47 139 80 47 139 80 47 139 80 47 139 80 47 139 80 47 139 80 47 139 80 0 0 0 0 0 0 0 0 0 0 0 0 0 0 0 0 0 0 0 0 0 0 0 0 0 0 0 0 0 0 0 0 0 0 0 0 0 0 0 0 0 0 0 0 0 0 0 0 0 0 0 0 0 0
0 0 0 0 0 0 0 0 0 0 0 0 0 0 0 0 0 0 0 0 0 0 0 0 0 0 0 0 0 0 0 0 0 0 0 0 0 0 0 0 0 0 0 0 0 0 0 0 0 0 0 0 0 0 0 0 0 0 0 0 0 0 0 0 0 0 0 0 0 0 0 0 0 0 0 0 0 0 0 0 0 0 0 0 0 0 0 0 0 0 0 0 0 0 0 0 47 139 80 47 139 80 47 139 80 47 139 80 47 139 80 47 139 80 47 139 80 47 139 80 47 139 80 47 139 80 47 139 80 47 139 80 47 139 80 47 139 80 47 139 80 120 189 98 120 189 98 120 189 98 120 189 98 120 189 98 120 189 98 120 189 98 120 189 98 120 189 98 120 189 98 120 189 98 120 189 98 120 189 98 120 189 98 120 189 98 47 139 80 47 139 80 47 139 80 47 139 80 47 139 80 47 139 80 47 139 80 47 139 80 47 139 80 47 139 80 47 139 80 47 139 80 47 139 80 47 139 80 47 139 80 47 139 80 47 139 80 0 0 0 0 0 0 0 0 0 0 0 0 0 0 0 0 0 0 0 0 0 0 0 0 0 0 0 0 0 0 0 0 0 0 0 0 0 0 0 0 0 0 0 0 0 0 0 0 0 0 0
0 0 0 0 0 0 0 0 0 0 0 0 0 0 0 0 0 0 0 0 0 0 0 0 0 0 0 0 0 0 0 0 0 0 0 0 0 0 0 0 0 0 0 0 0 0 0 0 0 0 0 0 0 0 0 0 0 0 0 0 0 0 0 0 0 0 0 0 0 0 0 0 0 0 0 0 0 0 0 0 0 0 0 0 0 0 0 0 0 0 0 0 0 47 139 80 47 139 80 47 139 80 47 139 80 47 139 80 47 139 80 47 139 80 47 139 80 47 139 80 47 139 80 47 139 80 47 139 80 47 139 80 47 139 80 47 139 80 120 189 98 120 189 98 120 189 98 120 189 98 120 189 98 120 189 98 120 189 98 120 189 98 120 189 98 120 189 98 120 189 98 120 189 98 120 189 98 120 189 98 120 189 98 120 189 98 120 189 98 47 139 80 47 139 80 47 139 80 47 139 80 47 139 80 47 139 80 47 139 80 47 139 80 47 139 80 47 139 80 47 139 80 47 139 80 47 139 80 47 139 80 47 139 80 47 139 80 47 139 80 0 0 0 0 0 0 0 0 0 0 0 0 0 0 0 0 0 0 0 0 0 0 0 0 0 0 0 0 0 0 0 0 0 0 0 0 0 0 0 0 0 0 0 0 0 0 0 0
0 0 0 0 0 0 0 0 0 0 0 0 0 0 0 0 0 0 0 0 0 0 0 0 0 0 0 0 0 0 0 0 0 0 0 0 0 0 0 0 0 0 0 0 0 0 0 0 0 0 0 0 0 0 0 0 0 0 0 0 0 0 0 0 0 0 0 0 0 0 0 0 0 0 0 0 0 0 0 0 0 0 0 0 0 0 0 0 0 0 47 139 80 47 139 80 47 139 80 47 139 80 47 139 80 47 139 80 47 139 80 47 139 80 47 139 80 47 139 80 47 139 80 47 139 80 47 139 80 47 139 80 47 139 80 47 139 80 47 139 80 120 189 98 120 189 98 120 189 98 120 189 98 120 189 98 120 189 98 120 189 98 120 189 98 120 189 98 120 189 98 120 189 98 120 189 98 120 189 98 120 189 98 120 189 98 47 139 80 47 139 80 47 139 80 47 139 80 47 139 80 47 139 80 47 139 80 47 139 80 47 139 80 47 139 80 47 139 80 47 139 80 47 139 80 47 139 80 47 139 80 47 139 80 47 139 80 47 139 80 47 139 80 0 0 0 0 0 0 0 0 0 0 0 0 0 0 0 0 0 0 0 0 0 0 0 0 0 0 0 0 0 0 0 0 0 0 0 0 0 0 0 0 0 0 0 0 0
0 0 0 0 0 0 0 0 0 0 0 0 0 0 0 0 0 0 0 0 0 0 0 0 0 0 0 0 0 0 0 0 0 0 0 0 0 0 0 0 0 0 0 0 0 0 0 0 0 0 0 0 0 0 0 0 0 0 0 0 0 0 0 0 0 0 0 0 0 0 0 0 0 0 0 0 0 0 0 0 0 0 0 0 0 0 0 0 0 0 47 139 80 47 139 80 47 139 80 47 139 80 47 139 80 47 139 80 47 139 80 47 139 80 47 139 80 47 139 80 47 139 80 47 139 80 47 139 80 47 139 80 47 139 80 47 139 80 47 139 80 47 139 80 120 189 98 120 189 98 120 189 98 120 189 98 120 189 98 120 189 98 120 189 98 120 189 98 120 189 98 120 189 98 120 189 98 120 189 98 120 189 98 47 139 80 47 139 80 47 139 80 47 139 80 47 139 80 47 139 80 47 139 80 47 139 80 47 139 80 47 139 80 47 139 80 47 139 80 47 139 80 47 139 80 47 139 80 47 139 80 47 139 80 47 139 80 47 139 80 47 139 80 0 0 0 0 0 0 0 0 0 0 0 0 0 0 0 0 0 0 0 0 0 0 0 0 0 0 0 0 0 0 0 0 0 0 0 0 0 0 0 0 0 0 0 0 0
0 0 0 0 0 0 0 0 0 0 0 0 0 0 0 0 0 0 0 0 0 0 0 0 0 0 0 0 0 0 0 0 0 0 0 0 0 0 0 0 0 0 0 0 0 0 0 0 0 0 0 0 0 0 0 0 0 0 0 0 0 0 0 0 0 0 0 0 0 0 0 0 0 0 0 0 0 0 0 0 0 0 0 0 0 0 0 47 139 80 47 139 80 47 139 80 47 139 80 47 139 80 47 139 80 47 139 80 47 139 80 47 139 80 47 139 80 47 139 80 47 139 80 47 139 80 47 139 80 47 139 80 47 139 80 47 139 80 47 139 80 47 139 80 47 139 80 120 189 98 120 189 98 120 189 98 120 189 98 120 189 98 120 189 98 120 189 98 120 189 98 120 189 98 120 189 98 120 189 98 47 139 80 47 139 80 47 139 80 47 139 80 47 139 80 47 139 80 47 139 80 47 139 80 47 139 80 47 139 80 47 139 80 47 139 80 47 139 80 47 139 80 47 139 80 47 139 80 47 139 80 47 139 80 47 139 80 47 139 80 47 139 80 47 139 80 0 0 0 0 0 0 0 0 0 0 0 0 0 0 0 0 0 0 0 0 0 0 0 0 0 0 0 0 0 0 0 0 0 0 0 0 0 0 0 0 0 0
0 0 0 0 0 0 0 0 0 0 0 0 0 0 0 0 0 0 0 0 0 0 0 0 0 0 0 0 0 0 0 0 0 0 0 0 0 0 0 0 0 0 0 0 0 0 0 0 0 0 0 0 0 0 0 0 0 0 0 0 0 0 0 0 0 0 0 0 0 0 0 0 0 0 0 0 0 0 0 0 0 31 111 62 31 111 62 47 139 80 47 139 80 47 139 80 47 139 80 47 139 80 47 139 80 47 139 80 47 139 80 47 139 80 47 139 80 47 139 80 47 139 80 47 139 80 47 139 80 47 139 80 47 139 80 47 139 80 47 139 80 47 139 80 47 139 80 47 139 80 47 139 80 47 139 80 47 139 80 47 139 80 120 189 98 47 139 80 47 139 80 47 139 80 47 139 80 47 139 80 47 139 80 47 139 80 47 139 80 47 139 80 47 139 80 47 139 80 47 139 80 47 139 80 47 139 80 47 139 80 47 139 80 47 139 80 47 139 80 47 139 80 47 139 80 47 139 80 47 139 80 47 139 80 47 139 80 47 139 80 47 139 80 47 139 80 0 0 0 0 0 0 0 0 0 0 0 0 0 0 0 0 0 0 0 0 0 0 0 0 0 0 0 0 0 0 0 0 0 0 0 0 0 0 0 0 0 0
0 0 0 0 0 0 0 0 0 0 0 0 0 0 0 0 0 0 0 0 0 0 0 0 0 0 0 0 0 0 0 0 0 0 0 0 0 0 0 0 0 0 0 0 0 0 0 0 0 0 0 0 0 0 0 0 0 0 0 0 0 0 0 0 0 0 0 0 0 0 0 0 31 111 62 31 111 62 31 111 62 31 111 62 47 139 80 47 139 80 47 139 80 47 139 80 47 139 80 120 189 98 47 139 80 47 139 80 47 139 80 47 139 80 47 139 80 47 139 80 47 139 80 47 139 80 47 139 80 47 139 80 47 139 80 47 139 80 47 139 80 47 139 80 47 139 80 47 139 80 47 139 80 47 139 80 47 139 80 47 139 80 47 139 80 47 139 80 47 139 80 47 139 80 47 139 80 47 139 80 47 139 80 47 139 80 47 139 80 47 139 80 47 139 80 47 139 80 47 139 80 47 139 80 47 139 80 47 139 80 47 139 80 47 139 80 47 139 80 47 139 80 47 139 80 47 139 80 47 139 80 47 139 80 47 139 80 47 139 80 47 139 80 47 139 80 47 139 80 0 0 0 0 0 0 0 0 0 0 0 0 0 0 0 0 0 0 0 0 0 0 0 0 0 0 0 0 0 0 0 0 0 0 0 0 0 0 0
0 0 0 0 0 0 0 0 0 0 0 0 0 0 0 0 0 0 0 0 0 0 0 0 0 0 0 0 0 0 0 0 0 0 0 0 0 0 0 0 0 0 0 0 0 0 0 0 0 0 0 0 0 0 0 0 0 0 0 0 0 0 0 31 111 62 31 111 62 31 111 62 31 111 62 31 111 62 31 111 62 31 111 62 120 189 98 120 189 98 120 189 98 120 189 98 120 189 98 120 189 98 120 189 98 120 189 98 120 189 98 120 189 98 120 189 98 47 139 80 47 139 80 47 139 80 47 139 80 47 139 80 47 139 80 47 139 80 47 139 80 47 139 80 47 139 80 47 139 80 47 139 80 47 139 80 47 139 80 47 139 80 47 139 80 47 139 80 47 139 80 47 139 80 47 139 80 47 139 80 47 139 80 47 139 80 47 139 80 47 139 80 47 139 80 47 139 80 47 139 80 47 139 80 47 139 80 47 139 80 47 139 80 47 139 80 47 139 80 47 139 80 47 139 80 47 139 80 47 139 80 47 139 80 47 139 80 47 139 80 47 139 80 47 139 80 47 139 80 0 0 0 0 0 0 0 0 0 0 0 0 0 0 0 0 0 0 0 0 0 0 0 0 0 0 0 0 0 0 0 0 0 0 0 0 0 0 0
0 0 0 0 0 0 0 0 0 0 0 0 0 0 0 0 0 0 0 0 0 0 0 0 0 0 0 0 0 0 0 0 0 0 0 0 0 0 0 0 0 0 0 0 0 0 0 0 0 0 0 0 0 0 0 0 0 31 111 62 31 111 62 31 111 62 31 111 62 31 111 62 31 111 62 31 111 62 31 111 62 120 189 98 120 189 98 120 189 98 120 189 98 120 189 98 120 189 98 120 189 98 120 189 98 120 189 98 120 189 98 120 189 98 120 189 98 120 189 98 47 139 80 47 139 80 47 139 80 47 139 80 47 139 80 47 139 80 47 139 80 47 139 80 47 139 80 47 139 80 47 139 80 47 139 80 47 139 80 47 139 80 47 139 80 47 139 80 47 139 80 47 139 80 47 139 80 47 139 80 47 139 80 47 139 80 47 139 80 47 139 80 47 139 80 47 139 80 47 139 80 35 95 57 47 139 80 47 139 80 47 139 80 47 139 80 47 139 80 47 139 80 47 139 80 47 139 80 47 139 80 47 139 80 47 139 80 47 139 80 47 139 80 47 139 80 47 139 80 0 0 0 0 0 0 0 0 0 0 0 0 0 0 0 0 0 0 0 0 0 0 0 0 0 0 0 0 0 0 0 0 0 0 0 0 0 0 0
0 0 0 0 0 0 0 0 0 0 0 0 0 0 0 0 0 0 0 0 0 0 0 0 0 0 0 0 0 0 0 0 0 0 0 0 0 0 0 0 0 0 0 0 0 0 0 0 0 0 0 0 0 0 31 111 62 31 111 62 31 111 62 31 111 62 31 111 62 31 111 62 31 111 62 31 111 62 120 189 98 120 189 98 120 189 98 120 189 98 120 189 98 120 189 98 120 189 98 120 189 98 120 189 98 120 189 98 120 189 98 120 189 98 120 189 98 120 189 98 120 189 98 47 139 80 47 139 80 47 139 80 47 139 80 47 139 80 47 139 80 47 139 80 47 139 80 47 139 80 47 139 80 47 139 80 47 139 80 47 139 80 47 139 80 47 139 80 47 139 80 47 139 80 47 139 80 35 95 57 35 95 57 35 95 57 35 95 57 35 95 57 35 95 57 35 95 57 35 95 57 35 95 57 35 95 57 35 95 57 35 95 57 35 95 57 35 95 57 35 95 57 35 95 57 35 95 57 47 139 80 47 139 80 47 139 80 47 139 80 47 139 80 47 139 80 47 139 80 0 0 0 0 0 0 0 0 0 0 0 0 0 0 0 0 0 0 0 0 0 0 0 0 0 0 0 0 0 0 0 0 0 0 0 0 0 0 0
0 0 0 0 0 0 0 0 0 0 0 0 0 0 0 0 0 0 0 0 0 0 0 0 0 0 0 0 0 0 0 0 0 0 0 0 0 0 0 0 0 0 0 0 0 0 0 0 31 111 62 31 111 62 31 111 62 31 111 62 31 111 62 31 111 62 31 111 62 31 111 62 31 111 62 120 189 98 120 189 98 120 189 98 120 189 98 120 189 98 120 189 98 120 189 98 120 189 98 120 189 98 120 189 98 120 189 98 120 189 98 120 189 98 120 189 98 120 189 98 120 189 98 120 189 98 47 139 80 47 139 80 47 139 80 47 139 80 47 139 80 47 139 80 47 139 80 47 139 80 47 139 80 47 139 80 47 139 80 47 139 80 47 139 80 47 139 80 35 95 57 35 95 57 35 95 57 35 95 57 35 95 57 35 95 57 35 95 57 35 95 57 35 95 57 35 95 57 35 95 57 35 95 57 35 95 57 35 95 57 35 95 57 35 95 57 35 95 57 35 95 57 35 95 57 35 95 57 35 95 57 35 95 57 35 95 57 47 139 80 47 139 80 47 139 80 47 139 80 47 139 80 0 0 0 0 0 0 0 0 0 0 0 0 0 0 0 0 0 0 0 0 0 0 0 0 0 0 0 0 0 0 0 0 0 0 0 0
0 0 0 0 0 0 0 0 0 0 0 0 0 0 0 0 0 0 0 0 0 0 0 0 0 0 0 0 0 0 0 0 0 0 0 0 0 0 0 0 0 0 0 0 0 31 111 62 31 111 62 31 111 62 31 111 62 31 111 62 31 111 62 31 111 62 31 111 62 31 111 62 31 111 62 31 111 62 120 189 98 120 189 98 120 189 98 120 189 98 120 189 98 120 189 98 120 189 98 120 189 98 120 189 98 120 189 98 120 189 98 120 189 98 120 189 98 120 189 98 120 189 98 47 139 80 47 139 80 47 139 80 47 139 80 47 139 80 47 139 80 47 139 80 47 139 80 47 139 80 47 139 80 47 139 80 47 139 80 47 139 80 35 95 57 35 95 57 35 95 57 35 95 57 35 95 57 35 95 57 35 95 57 35 95 57 35 95 57 35 95 57 35 95 57 35 95 57 35 95 57 35 95 57 35 95 57 35 95 57 35 95 57 35 95 57 35 95 57 35 95 57 35 95 57 35 95 57 35 95 57 35 95 57 35 95 57 35 95 57 35 95 57 47 139 80 47 139 80 0 0 0 0 0 0 0 0 0 0 0 0 0 0 0 0 0 0 0 0 0 0 0 0 0 0 0 0 0 0 0 0 0 0 0 0 0 0 0
0 0 0 0 0 0 0 0 0 0 0 0 0 0 0 0 0 0 0 0 0 0 0 0 0 0 0 0 0 0 0 0 0 0 0 0 0 0 0 0 0 0 31 111 62 31 111 62 31 111 62 31 111 62 31 111 62 31 111 62 31 111 62 31 111 62 31 111 62 31 111 62 31 111 62 31 111 62 31 111 62 120 189 98 120 189 98 120 189 98 120 189 98 120 189 98 120 189 98 120 189 98 120 189 98 120 189 98 120 189 98 120 189 98 120 189 98 120 189 98 47 139 80 47 139 80 47 139 80 47 139 80 47 139 80 47 139 80 47 139 80 47 139 80 52 127 69 47 139 80 47 139 80 47 139 80 35 95 57 35 95 57 35 95 57 35 95 57 35 95 57 35 95 57 35 95 57 35 95 57 35 95 57 35 95 57 35 95 57 35 95 57 35 95 57 35 95 57 35 95 57 35 95 57 35 95 57 35 95 57 35 95 57 35 95 57 35 95 57 35 95 57 35 95 57 35 95 57 35 95 57 35 95 57 35 95 57 35 95 57 35 95 57 35 95 57 35 95 57 0 0 0 0 0 0 0 0 0 0 0 0 0 0 0 0 0 0 0 0 0 0 0 0 0 0 0 0 0 0 0 0 0 0 0 0 0 0 0
0 0 0 0 0 0 0 0 0 0 0 0 0 0 0 0 0 0 0 0 0 0 0 0 0 0 0 0 0 0 0 0 0 0 0 0 0 0 0 31 111 62 31 111 62 31 111 62 31 111 62 31 111 62 31 111 62 31 111 62 31 111 62 31 111 62 31 111 62 31 111 62 31 111 62 31 111 62 31 111 62 31 111 62 120 189 98 120 189 98 120 189 98 120 189 98 120 189 98 120 189 98 120 189 98 120 189 98 120 189 98 120 189 98 120 189 98 52 127 69 52 127 69 52 127 69 52 127 69 52 127 69 52 127 69 52 127 69 52 127 69 52 127 69 52 127 69 52 127 69 52 127 69 52 127 69 52 127 69 52 127 69 52 127 69 52 127 69 52 127 69 52 127 69 52 127 69 52 127 69 52 127 69 35 95 57 35 95 57 35 95 57 35 95 57 35 95 57 35 95 57 120 189 98 35 95 57 35 95 57 35 95 57 35 95 57 35 95 57 35 95 57 35 95 57 35 95 57 35 95 57 35 95 57 35 95 57 35 95 57 35 95 57 35 95 57 35 95 57 35 95 57 35 95 57 0 0 0 0 0 0 0 0 0 0 0 0 0 0 0 0 0 0 0 0 0 0 0 0 0 0 0 0 0 0 0 0 0
0 0 0 0 0 0 0 0 0 0 0 0 0 0 0 0 0 0 0 0 0 0 0 0 0 0 0 0 0 0 0 0 0 0 0 0 0 0 0 31 111 62 31 111 62 31 111 62 31 111 62 31 111 62 31 111 62 31 111 62 31 111 62 31 111 62 31 111 62 31 111 62 31 111 62 31 111 62 31 111 62 31 111 62 47 139 80 47 139 80 47 139 80 47 139 80 52 127 69 120 189 98 52 127 69 52 127 69 52 127 69 52 127 69 52 127 69 52 127 69 52 127 69 52 127 69 52 127 69 52 127 69 52 127 69 52 127 69 52 127 69 52 127 69 52 127 69 52 127 69 52 127 69 52 127 69 52 127 69 52 127 69 52 127 69 52 127 69 52 127 69 52 127 69 52 127 69 52 127 69 52 127 69 52 127 69 120 189 98 120 189 98 120 189 98 120 189 98 120 189 98 120 189 98 120 189 98 120 189 98 120 189 98 120 189 98 120 189 98 35 95 57 35 95 57 35 95 57 35 95 57 35 95 57 35 95 57 35 95 57 35 95 57 35 95 57 35 95 57 35 95 57 35 95 57 35 95 57 0 0 0 0 0 0 0 0 0 0 0 0 0 0 0 0 0 0 0 0 0 0 0 0 0 0 0 0 0 0
0 0 0 0 0 0 0 0 0 0 0 0 0 0 0 0 0 0 0 0 0 0 0 0 0 0 0 0 0 0 0 0 0 0 0 0 31 111 62 31 111 62 31 111 62 31 111 62 31 111 62 31 111 62 31 111 62 31 111 62 31 111 62 31 111 62 31 111 62 31 111 62 31 111 62 31 111 62 31 111 62 31 111 62 52 127 69 52 127 69 52 127 69 52 127 69 52 127 69 52 127 69 52 127 69 52 127 69 52 127 69 52 127 69 52 127 69 52 127 69 52 127 69 52 127 69 52 127 69 52 127 69 52 127 69 52 127 69 52 127 69 52 127 69 52 127 69 52 127 69 52 127 69 52 127 69 52 127 69 52 127 69 52 127 69 52 127 69 52 127 69 52 127 69 52 127 69 52 127 69 52 127 69 120 189 98 120 189 98 120 189 98 120 189 98 120 189 98 120 189 98 120 189 98 120 189 98 120 189 98 120 189 98 120 189 98 120 189 98 120 189 98 35 95 57 35 95 57 35 95 57 35 95 57 35 95 57 35 95 57 35 95 57 35 95 57 35 95 57 35 95 57 35 95 57 35 95 57 35 95 57 0 0 0 0 0 0 0 0 0 0 0 0 0 0 0 0 0 0 0 0 0 0 0 0 0 0 0
0 0 0 0 0 0 0 0 0 0 0 0 0 0 0 0 0 0 0 0 0 0 0 0 0 0 0 0 0 0 0 0 0 0 0 0 31 111 62 31 111 62 31 111 62 31 111 62 31 111 62 31 111 62 31 111 62 31 111 62 31 111 62 31 111 62 31 111 62 31 111 62 31 111 62 52 127 69 52 127 69 52 127 69 52 127 69 52 127 69 52 127 69 52 127 69 52 127 69 52 127 69 52 127 69 52 127 69 52 127 69 52 127 69 52 127 69 52 127 69 52 127 69 52 127 69 52 127 69 52 127 69 52 127 69 52 127 69 52 127 69 52 127 69 52 127 69 52 127 69 52 127 69 52 127 69 52 127 69 52 127 69 52 127 69 52 127 69 52 127 69 52 127 69 52 127 69 52 127 69 120 189 98 120 189 98 120 189 98 120 189 98 120 189 98 120 189 98 120 189 98 120 189 98 120 189 98 120 189 98 120 189 98 120 189 98 120 189 98 120 189 98 120 189 98 35 95 57 35 95 57 35 95 57 35 95 57 35 95 57 35 95 57 35 95 57 35 95 57 35 95 57 35 95 57 35 95 57 35 95 57 35 95 57 0 0 0 0 0 0 0 0 0 0 0 0 0 0 0 0 0 0 0 0 0 0 0 0
0 0 0 0 0 0 0 0 0 0 0 0 0 0 0 0 0 0 0 0 0 0 0 0 0 0 0 0 0 0 0 0 0 0 0 0 31 111 62 31 111 62 31 111 62 31 111 62 31 111 62 31 111 62 31 111 62 31 111 62 31 111 62 31 111 62 31 111 62 52 127 69 52 127 69 52 127 69 52 127 69 52 127 69 52 127 69 52 127 69 52 127 69 52 127 69 52 127 69 52 127 69 52 127 69 52 127 69 52 127 69 52 127 69 52 127 69 52 127 69 52 127 69 52 127 69 52 127 69 52 127 69 52 127 69 52 127 69 52 127 69 52 127 69 52 127 69 52 127 69 52 127 69 52 127 69 52 127 69 52 127 69 52 127 69 52 127 69 52 127 69 52 127 69 52 127 69 120 189 98 120 189 98 120 189 98 120 189 98 120 189 98 120 189 98 120 189 98 120 189 98 120 189 98 120 189 98 120 189 98 120 189 98 120 189 98 120 189 98 120 189 98 120 189 98 120 189 98 35 95 57 35 95 57 35 95 57 35 95 57 35 95 57 35 95 57 35 95 57 35 95 57 35 95 57 35 95 57 35 95 57 35 95 57 35 95 57 0 0 0 0 0 0 0 0 0 0 0 0 0 0 0 0 0 0 0 0 0
0 0 0 0 0 0 0 0 0 0 0 0 0 0 0 0 0 0 0 0 0 0 0 0 0 0 0 0 0 0 0 0 0 0 0 0 31 111 62 31 111 62 31 111 62 31 111 62 31 111 62 31 111 62 31 111 62 31 111 62 31 111 62 52 127 69 52 127 69 52 127 69 52 127 69 52 127 69 52 127 69 52 127 69 52 127 69 52 127 69 52 127 69 52 127 69 52 127 69 52 127 69 52 127 69 52 127 69 52 127 69 52 127 69 52 127 69 52 127 69 52 127 69 52 127 69 52 127 69 52 127 69 52 127 69 52 127 69 52 127 69 52 127 69 27 78 48 52 127 69 52 127 69 52 127 69 52 127 69 52 127 69 52 127 69 52 127 69 52 127 69 52 127 69 52 127 69 52 127 69 120 189 98 120 189 98 120 189 98 120 189 98 120 189 98 120 189 98 120 189 98 120 189 98 120 189 98 120 189 98 120 189 98 120 189 98 120 189 98 120 189 98 120 189 98 52 127 69 35 95 57 35 95 57 35 95 57 35 95 57 35 95 57 35 95 57 35 95 57 35 95 57 35 95 57 35 95 57 35 95 57 35 95 57 35 95 57 35 95 57 0 0 0 0 0 0 0 0 0 0 0 0 0 0 0 0 0 0
0 0 0 0 0 0 0 0 0 0 0 0 0 0 0 0 0 0 0 0 0 0 0 0 0 0 0 0 0 0 0 0 0 31 111 62 31 111 62 31 111 62 31 111 62 31 111 62 31 111 62 31 111 62 31 111 62 52 127 69 52 127 69 52 127 69 52 127 69 52 127 69 52 127 69 52 127 69 52 127 69 52 127 69 52 127 69 52 127 69 52 127 69 52 127 69 52 127 69 52 127 69 52 127 69 52 127 69 52 127 69 52 127 69 52 127 69 52 127 69 52 127 69 52 127 69 52 127 69 27 78 48 27 78 48 27 78 48 27 78 48 27 78 48 27 78 48 27 78 48 27 78 48 27 78 48 27 78 48 27 78 48 52 127 69 52 127 69 52 127 69 52 127 69 52 127 69 52 127 69 52 127 69 120 189 98 120 189 98 120 189 98 120 189 98 120 189 98 120 189 98 120 189 98 120 189 98 120 189 98 120 189 98 120 189 98 120 189 98 120 189 98 52 127 69 52 127 69 52 127 69 52 127 69 35 95 57 35 95 57 35 95 57 35 95 57 35 95 57 35 95 57 35 95 57 35 95 57 35 95 57 35 95 57 35 95 57 35 95 57 0 0 0 0 0 0 0 0 0 0 0 0 0 0 0 0 0 0
0 0 0 0 0 0 0 0 0 0 0 0 0 0 0 0 0 0 0 0 0 0 0 0 0 0 0 0 0 0 0 0 0 0 0 0 31 111 62 31 111 62 31 111 62 31 111 62 31 111 62 31 111 62 52 127 69 52 127 69 52 127 69 52 127 69 52 127 69 52 127 69 52 127 69 52 127 69 52 127 69 52 127 69 52 127 69 52 127 69 52 127 69 52 127 69 52 127 69 52 127 69 52 127 69 52 127 69 52 127 69 52 127 69 52 127 69 52 127 69 52 127 69 52 127 69 27 78 48 27 78 48 27 78 48 27 78 48 27 78 48 27 78 48 27 78 48 27 78 48 27 78 48 27 78 48 27 78 48 27 78 48 27 78 48 52 127 69 52 127 69 52 127 69 52 127 69 52 127 69 52 127 69 52 127 69 120 189 98 120 189 98 120 189 98 120 189 98 120 189 98 120 189 98 120 189 98 120 189 98 120 189 98 120 189 98 120 189 98 52 127 69 52 127 69 52 127 69 52 127 69 52 127 69 52 127 69 35 95 57 35 95 57 35 95 57 35 95 57 35 95 57 35 95 57 35 95 57 35 95 57 35 95 57 35 95 57 35 95 57 35 95 57 0 0 0 0 0 0 0 0 0 0 0 0 0 0 0
0 0 0 0 0 0 0 0 0 0 0 0 0 0 0 0 0 0 0 0 0 0 0 0 0 0 0 0 0 0 0 0 0 0 0 0 31 111 62 31 111 62 31 111 62 31 111 62 31 111 62 52 127 69 52 127 69 52 127 69 52 127 69 52 127 69 52 127 69 52 127 69 52 127 69 52 127 69 52 127 69 52 127 69 52 127 69 52 127 69 52 127 69 52 127 69 52 127 69 52 127 69 52 127 69 52 127 69 52 127 69 52 127 69 52 127 69 52 127 69 52 127 69 27 78 48 27 78 48 27 78 48 27 78 48 27 78 48 27 78 48 27 78 48 27 78 48 27 78 48 27 78 48 27 78 48 27 78 48 27 78 48 27 78 48 27 78 48 52 127 69 52 127 69 52 127 69 52 127 69 52 127 69 52 127 69 52 127 69 52 127 69 52 127 69 52 127 69 52 127 69 120 189 98 52 127 69 52 127 69 52 127 69 52 127 69 52 127 69 52 127 69 52 127 69 52 127 69 52 127 69 52 127 69 52 127 69 52 127 69 35 95 57 35 95 57 35 95 57 35 95 57 35 95 57 35 95 57 35 95 57 35 95 57 35 95 57 35 95 57 35 95 57 0 0 0 0 0 0 0 0 0 0 0 0 0 0 0
0 0 0 0 0 0 0 0 0 0 0 0 0 0 0 0 0 0 0 0 0 0 0 0 0 0 0 0 0 0 0 0 0 0 0 0 31 111 62 31 111 62 31 111 62 31 111 62 52 127 69 52 127 69 52 127 69 52 127 69 52 127 69 52 127 69 52 127 69 52 127 69 52 127 69 52 127 69 52 127 69 52 127 69 52 127 69 52 127 69 52 127 69 52 127 69 52 127 69 52 127 69 52 127 69 52 127 69 52 127 69 52 127 69 52 127 69 52 127 69 27 78 48 27 78 48 27 78 48 27 78 48 27 78 48 27 78 48 27 78 48 27 78 48 27 78 48 27 78 48 27 78 48 27 78 48 27 78 48 27 78 48 27 78 48 27 78 48 27 78 48 52 127 69 52 127 69 52 127 69 52 127 69 52 127 69 52 127 69 52 127 69 52 127 69 52 127 69 52 127 69 52 127 69 52 127 69 52 127 69 52 127 69 52 127 69 52 127 69 52 127 69 52 127 69 52 127 69 52 127 69 52 127 69 52 127 69 52 127 69 52 127 69 35 95 57 35 95 57 35 95 57 35 95 57 35 95 57 35 95 57 35 95 57 35 95 57 35 95 57 35 95 57 0 0 0 0 0 0 0 0 0 0 0 0 0 0 0
0 0 0 0 0 0 0 0 0 0 0 0 0 0 0 0 0 0 0 0 0 0 0 0 0 0 0 0 0 0 0 0 0 0 0 0 31 111 62 31 111 62 31 111 62 52 127 69 52 127 69 52 127 69 52 127 69 52 127 69 52 127 69 52 127 69 52 127 69 52 127 69 52 127 69 52 127 69 52 127 69 52 127 69 52 127 69 52 127 69 52 127 69 52 127 69 52 127 69 52 127 69 52 127 69 52 127 69 52 127 69 52 127 69 52 127 69 52 127 69 52 127 69 27 78 48 27 78 48 27 78 48 27 78 48 27 78 48 27 78 48 27 78 48 27 78 48 27 78 48 27 78 48 27 78 48 27 78 48 27 78 48 27 78 48 27 78 48 52 127 69 52 127 69 52 127 69 52 127 69 52 127 69 52 127 69 52 127 69 52 127 69 52 127 69 52 127 69 52 127 69 52 127 69 52 127 69 52 127 69 52 127 69 52 127 69 52 127 69 52 127 69 52 127 69 52 127 69 52 127 69 52 127 69 52 127 69 52 127 69 52 127 69 52 127 69 35 95 57 35 95 57 35 95 57 35 95 57 35 95 57 35 95 57 35 95 57 35 95 57 35 95 57 0 0 0 0 0 0 0 0 0 0 0 0 0 0 0
0 0 0 0 0 0 0 0 0 0 0 0 0 0 0 0 0 0 0 0 0 0 0 0 0 0 0 0 0 0 0 0 0 0 0 0 0 0 0 31 111 62 52 127 69 52 127 69 52 127 69 52 127 69 52 127 69 52 127 69 52 127 69 52 127 69 52 127 69 52 127 69 52 127 69 52 127 69 52 127 69 52 127 69 52 127 69 52 127 69 52 127 69 52 127 69 52 127 69 52 127 69 52 127 69 52 127 69 52 127 69 52 127 69 52 127 69 52 127 69 52 127 69 52 127 69 27 78 48 27 78 48 27 78 48 27 78 48 27 78 48 27 78 48 27 78 48 27 78 48 27 78 48 27 78 48 27 78 48 27 78 48 27 78 48 52 127 69 52 127 69 52 127 69 52 127 69 52 127 69 52 127 69 52 127 69 52 127 69 52 127 69 52 127 69 52 127 69 52 127 69 52 127 69 52 127 69 52 127 69 52 127 69 52 127 69 52 127 69 52 127 69 52 127 69 52 127 69 52 127 69 52 127 69 52 127 69 52 127 69 52 127 69 52 127 69 52 127 69 35 95 57 35 95 57 35 95 57 35 95 57 35 95 57 35 95 57 35 95 57 35 95 57 35 95 57 0 0 0 0 0 0 0 0 0 0 0 0
0 0 0 0 0 0 0 0 0 0 0 0 0 0 0 0 0 0 0 0 0 0 0 0 0 0 0 0 0 0 0 0 0 0 0 0 0 0 0 52 127 69 52 127 69 52 127 69 52 127 69 52 127 69 52 127 69 52 127 69 52 127 69 52 127 69 52 127 69 52 127 69 52 127 69 52 127 69 52 127 69 52 127 69 52 127 69 52 127 69 52 127 69 52 127 69 52 127 69 52 127 69 52 127 69 52 127 69 52 127 69 52 127 69 52 127 69 52 127 69 52 127 69 52 127 69 52 127 69 27 78 48 27 78 48 27 78 48 27 78 48 27 78 48 27 78 48 27 78 48 27 78 48 27 78 48 27 78 48 27 78 48 52 127 69 52 127 69 52 127 69 52 127 69 52 127 69 52 127 69 52 127 69 52 127 69 52 127 69 52 127 69 52 127 69 52 127 69 52 127 69 52 127 69 52 127 69 52 127 69 52 127 69 52 127 69 52 127 69 52 127 69 52 127 69 52 127 69 52 127 69 52 127 69 52 127 69 52 127 69 52 127 69 52 127 69 52 127 69 52 127 69 35 95 57 35 95 57 35 95 57 35 95 57 35 95 57 35 95 57 35 95 57 0 0 0 0 0 0 0 0 0 0 0 0 0 0 0
0 0 0 0 0 0 0 0 0 0 0 0 0 0 0 0 0 0 0 0 0 0 0 0 0 0 0 0 0 0 0 0 0 0 0 0 0 0 0 52 127 69 52 127 69 52 127 69 52 127 69 52 127 69 52 127 69 52 127 69 52 127 69 52 127 69 52 127 69 52 127 69 52 127 69 52 127 69 52 127 69 52 127 69 52 127 69 52 127 69 52 127 69 52 127 69 52 127 69 52 127 69 52 127 69 52 127 69 52 127 69 52 127 69 52 127 69 52 127 69 52 127 69 52 127 69 52 127 69 52 127 69 52 127 69 52 127 69 52 127 69 52 127 69 27 78 48 52 127 69 52 127 69 52 127 69 52 127 69 52 127 69 52 127 69 52 127 69 52 127 69 52 127 69 52 127 69 52 127 69 52 127 69 52 127 69 52 127 69 52 127 69 52 127 69 52 127 69 52 127 69 52 127 69 52 127 69 52 127 69 52 127 69 52 127 69 52 127 69 52 127 69 52 127 69 52 127 69 52 127 69 52 127 69 52 127 69 52 127 69 52 127 69 52 127 69 52 127 69 52 127 69 35 95 57 35 95 57 35 95 57 35 95 57 35 95 57 35 95 57 35 95 57 0 0 0 0 0 0 0 0 0 0 0 0 0 0 0
0 0 0 0 0 0 0 0 0 0 0 0 0 0 0 0 0 0 0 0 0 0 0 0 0 0 0 0 0 0 0 0 0 0 0 0 0 0 0 52 127 69 52 127 69 52 127 69 52 127 69 52 127 69 52 127 69 52 127 69 52 127 69 52 127 69 52 127 69 52 127 69 52 127 69 52 127 69 52 127 69 52 127 69 52 127 69 52 127 69 52 127 69 52 127 69 52 127 69 52 127 69 52 127 69 52 127 69 52 127 69 52 127 69 52 127 69 52 127 69 52 127 69 52 127 69 52 127 69 52 127 69 52 127 69 52 127 69 52 127 69 52 127 69 52 127 69 52 127 69 52 127 69 52 127 69 52 127 69 52 127 69 52 127 69 52 127 69 52 127 69 52 127 69 52 127 69 52 127 69 52 127 69 52 127 69 52 127 69 52 127 69 52 127 69 52 127 69 52 127 69 52 127 69 52 127 69 52 127 69 52 127 69 52 127 69 52 127 69 52 127 69 52 127 69 52 127 69 52 127 69 52 127 69 52 127 69 52 127 69 52 127 69 52 127 69 52 127 69 52 127 69 35 95 57 35 95 57 35 95 57 35 95 57 35 95 57 35 95 57 35 95 57 0 0 0 0 0 0 0 0 0 0 0 0 0 0 0
0 0 0 0 0 0 0 0 0 0 0 0 0 0 0 0 0 0 0 0 0 0 0 0 0 0 0 0 0 0 0 0 0 0 0 0 0 0 0 52 127 69 52 127 69 52 127 69 52 127 69 52 127 69 52 127 69 52 127 69 52 127 69 52 127 69 52 127 69 52 127 69 52 127 69 52 127 69 52 127 69 52 127 69 52 127 69 52 127 69 52 127 69 52 127 69 52 127 69 52 127 69 52 127 69 52 127 69 52 127 69 52 127 69 52 127 69 52 127 69 52 127 69 52 127 69 52 127 69 52 127 69 52 127 69 52 127 69 52 127 69 52 127 69 52 127 69 52 127 69 52 127 69 52 127 69 52 127 69 52 127 69 52 127 69 52 127 69 52 127 69 52 127 69 52 127 69 52 127 69 52 127 69 52 127 69 52 127 69 52 127 69 52 127 69 52 127 69 52 127 69 52 127 69 52 127 69 52 127 69 52 127 69 52 127 69 52 127 69 52 127 69 52 127 69 52 127 69 52 127 69 52 127 69 52 127 69 52 127 69 52 127 69 52 127 69 52 127 69 52 127 69 35 95 57 35 95 57 35 95 57 35 95 57 35 95 57 35 95 57 35 95 57 0 0 0 0 0 0 0 0 0 0 0 0 0 0 0
0 0 0 0 0 0 0 0 0 0 0 0 0 0 0 0 0 0 0 0 0 0 0 0 0 0 0 0 0 0 0 0 0 0 0 0 52 127 69 52 127 69 52 127 69 52 127 69 52 127 69 52 127 69 52 127 69 52 127 69 52 127 69 52 127 69 52 127 69 52 127 69 52 127 69 52 127 69 52 127 69 52 127 69 52 127 69 52 127 69 52 127 69 52 127 69 52 127 69 52 127 69 52 127 69 52 127 69 52 127 69 52 127 69 52 127 69 52 127 69 52 127 69 52 127 69 52 127 69 52 127 69 52 127 69 52 127 69 52 127 69 52 127 69 52 127 69 52 127 69 52 127 69 52 127 69 52 127 69 52 127 69 52 127 69 52 127 69 52 127 69 52 127 69 52 127 69 52 127 69 52 127 69 52 127 69 52 127 69 52 127 69 52 127 69 52 127 69 52 127 69 52 127 69 52 127 69 52 127 69 52 127 69 52 127 69 52 127 69 52 127 69 52 127 69 52 127 69 52 127 69 52 127 69 52 127 69 52 127 69 52 127 69 52 127 69 52 127 69 52 127 69 52 127 69 35 95 57 35 95 57 35 95 57 35 95 57 35 95 57 0 0 0 0 0 0 0 0 0 0 0 0 0 0 0 0 0 0
0 0 0 0 0 0 0 0 0 0 0 0 0 0 0 0 0 0 0 0 0 0 0 0 0 0 0 0 0 0 0 0 0 0 0 0 0 0 0 52 127 69 52 127 69 52 127 69 52 127 69 52 127 69 52 127 69 52 127 69 52 127 69 52 127 69 52 127 69 52 127 69 52 127 69 52 127 69 52 127 69 52 127 69 52 127 69 52 127 69 52 127 69 52 127 69 52 127 69 52 127 69 52 127 69 52 127 69 52 127 69 52 127 69 52 127 69 52 127 69 52 127 69 52 127 69 52 127 69 52 127 69 52 127 69 52 127 69 52 127 69 52 127 69 52 127 69 52 127 69 52 127 69 52 127 69 52 127 69 52 127 69 52 127 69 52 127 69 52 127 69 52 127 69 52 127 69 52 127 69 52 127 69 52 127 69 52 127 69 52 127 69 52 127 69 52 127 69 52 127 69 52 127 69 52 127 69 52 127 69 52 127 69 52 127 69 52 127 69 52 127 69 52 127 69 52 127 69 52 127 69 52 127 69 52 127 69 52 127 69 52 127 69 52 127 69 52 127 69 52 127 69 35 95 57 35 95 57 35 95 57 35 95 57 35 95 57 35 95 57 0 0 0 0 0 0 0 0 0 0 0 0 0 0 0 0 0 0
0 0 0 0 0 0 0 0 0 0 0 0 0 0 0 0 0 0 0 0 0 0 0 0 0 0 0 0 0 0 0 0 0 0 0 0 0 0 0 52 127 69 52 127 69 52 127 69 52 127 69 52 127 69 52 127 69 52 127 69 52 127 69 52 127 69 52 127 69 52 127 69 52 127 69 52 127 69 52 127 69 52 127 69 52 127 69 52 127 69 52 127 69 52 127 69 52 127 69 52 127 69 52 127 69 52 127 69 52 127 69 52 127 69 52 127 69 52 127 69 52 127 69 52 127 69 52 127 69 52 127 69 52 127 69 52 127 69 52 127 69 52 127 69 52 127 69 52 127 69 52 127 69 52 127 69 52 127 69 52 127 69 52 127 69 52 127 69 52 127 69 52 127 69 52 127 69 52 127 69 52 127 69 52 127 69 52 127 69 52 127 69 52 127 69 52 127 69 52 127 69 52 127 69 52 127 69 52 127 69 52 127 69 52 127 69 52 127 69 52 127 69 52 127 69 52 127 69 52 127 69 52 127 69 52 127 69 52 127 69 52 127 69 52 127 69 52 127 69 52 127 69 35 95 57 35 95 57 35 95 57 35 95 57 35 95 57 0 0 0 0 0 0 0 0 0 0 0 0 0 0 0 0 0 0 0 0 0
0 0 0 0 0 0 0 0 0 0 0 0 0 0 0 0 0 0 0 0 0 0 0 0 0 0 0 0 0 0 0 0 0 0 0 0 0 0 0 52 127 69 52 127 69 52 127 69 52 127 69 52 127 69 52 127 69 52 127 69 52 127 69 52 127 69 52 127 69 52 127 69 52 127 69 52 127 69 52 127 69 52 127 69 52 127 69 52 127 69 52 127 69 52 127 69 52 127 69 52 127 69 52 127 69 52 127 69 52 127 69 52 127 69 52 127 69 52 127 69 52 127 69 52 127 69 52 127 69 52 127 69 52 127 69 52 127 69 52 127 69 52 127 69 52 127 69 52 127 69 52 127 69 52 127 69 52 127 69 52 127 69 52 127 69 52 127 69 52 127 69 52 127 69 52 127 69 52 127 69 52 127 69 52 127 69 52 127 69 52 127 69 52 127 69 52 127 69 52 127 69 52 127 69 52 127 69 52 127 69 52 127 69 52 127 69 52 127 69 52 127 69 52 127 69 52 127 69 52 127 69 52 127 69 52 127 69 52 127 69 52 127 69 52 127 69 52 127 69 52 127 69 35 95 57 35 95 57 35 95 57 35 95 57 0 0 0 0 0 0 0 0 0 0 0 0 0 0 0 0 0 0 0 0 0 0 0 0
0 0 0 0 0 0 0 0 0 0 0 0 0 0 0 0 0 0 0 0 0 0 0 0 0 0 0 0 0 0 0 0 0 0 0 0 0 0 0 52 127 69 52 127 69 52 127 69 52 127 69 52 127 69 52 127 69 52 127 69 52 127 69 52 127 69 52 127 69 52 127 69 52 127 69 52 127 69 52 127 69 52 127 69 52 127 69 52 127 69 52 127 69 52 127 69 52 127 69 52 127 69 52 127 69 52 127 69 52 127 69 52 127 69 52 127 69 52 127 69 52 127 69 52 127 69 52 127 69 52 127 69 52 127 69 52 127 69 52 127 69 52 127 69 52 127 69 52 127 69 52 127 69 52 127 69 52 127 69 52 127 69 52 127 69 52 127 69 52 127 69 52 127 69 52 127 69 52 127 69 52 127 69 52 127 69 52 127 69 52 127 69 52 127 69 52 127 69 52 127 69 52 127 69 52 127 69 52 127 69 52 127 69 52 127 69 52 127 69 52 127 69 52 127 69 52 127 69 52 127 69 52 127 69 52 127 69 52 127 69 52 127 69 52 127 69 52 127 69 52 127 69 35 95 57 35 95 57 35 95 57 0 0 0 0 0 0 0 0 0 0 0 0 0 0 0 0 0 0 0 0 0 0 0 0 0 0 0
0 0 0 0 0 0 0 0 0 0 0 0 0 0 0 0 0 0 0 0 0 0 0 0 0 0 0 0 0 0 0 0 0 0 0 0 0 0 0 0 0 0 52 127 69 52 127 69 52 127 69 52 127 69 52 127 69 52 127 69 52 127 69 52 127 69 52 127 69 52 127 69 52 127 69 52 127 69 52 127 69 52 127 69 52 127 69 52 127 69 52 127 69 52 127 69 52 127 69 52 127 69 52 127 69 52 127 69 52 127 69 52 127 69 52 127 69 52 127 69 52 127 69 52 127 69 52 127 69 52 127 69 52 127 69 52 127 69 52 127 69 52 127 69 52 127 69 52 127 69 52 127 69 52 127 69 52 127 69 52 127 69 52 127 69 52 127 69 52 127 69 52 127 69 52 127 69 52 127 69 52 127 69 52 127 69 52 127 69 52 127 69 52 127 69 52 127 69 52 127 69 52 127 69 52 127 69 52 127 69 52 127 69 52 127 69 52 127 69 52 127 69 52 127 69 52 127 69 52 127 69 52 127 69 52 127 69 52 127 69 52 127 69 52 127 69 52 127 69 35 95 57 35 95 57 35 95 57 0 0 0 0 0 0 0 0 0 0 0 0 0 0 0 0 0 0 0 0 0 0 0 0 0 0 0 0 0 0
0 0 0 0 0 0 0 0 0 0 0 0 0 0 0 0 0 0 0 0 0 0 0 0 0 0 0 0 0 0 0 0 0 0 0 0 0 0 0 0 0 0 0 0 0 52 127 69 52 127 69 52 127 69 52 127 69 52 127 69 52 127 69 52 127 69 52 127 69 52 127 69 52 127 69 52 127 69 52 127 69 52 127 69 52 127 69 52 127 69 52 127 69 52 127 69 52 127 69 52 127 69 52 127 69 52 127 69 52 127 69 52 127 69 52 127 69 52 127 69 52 127 69 52 127 69 52 127 69 52 127 69 52 127 69 52 127 69 52 127 69 52 127 69 52 127 69 52 127 69 52 127 69 52 127 69 52 127 69 52 127 69 52 127 69 52 127 69 52 127 69 52 127 69 52 127 69 52 127 69 52 127 69 52 127 69 52 127 69 52 127 69 52 127 69 52 127 69 52 127 69 52 127 69 52 127 69 52 127 69 52 127 69 52 127 69 52 127 69 52 127 69 52 127 69 52 127 69 52 127 69 52 127 69 52 127 69 52 127 69 52 127 69 52 127 69 35 95 57 35 95 57 35 95 57 0 0 0 0 0 0 0 0 0 0 0 0 0 0 0 0 0 0 0 0 0 0 0 0 0 0 0 0 0 0 0 0 0
0 0 0 0 0 0 0 0 0 0 0 0 0 0 0 0 0 0 0 0 0 0 0 0 0 0 0 0 0 0 0 0 0 0 0 0 0 0 0 0 0 0 0 0 0 0 0 0 52 127 69 52 127 69 52 127 69 52 127 69 52 127 69 52 127 69 52 127 69 52 127 69 52 127 69 52 127 69 52 127 69 52 127 69 52 127 69 52 127 69 52 127 69 52 127 69 52 127 69 52 127 69 52 127 69 52 127 69 52 127 69 52 127 69 52 127 69 52 127 69 52 127 69 52 127 69 52 127 69 52 127 69 52 127 69 52 127 69 52 127 69 52 127 69 52 127 69 52 127 69 52 127 69 52 127 69 52 127 69 52 127 69 52 127 69 52 127 69 52 127 69 52 127 69 52 127 69 52 127 69 52 127 69 52 127 69 52 127 69 52 127 69 52 127 69 52 127 69 52 127 69 52 127 69 52 127 69 52 127 69 52 127 69 52 127 69 52 127 69 52 127 69 52 127 69 52 127 69 52 127 69 52 127 69 52 127 69 52 127 69 52 127 69 35 95 57 35 95 57 0 0 0 0 0 0 0 0 0 0 0 0 0 0 0 0 0 0 0 0 0 0 0 0 0 0 0 0 0 0 0 0 0 0 0 0 0 0 0
0 0 0 0 0 0 0 0 0 0 0 0 0 0 0 0 0 0 0 0 0 0 0 0 0 0 0 0 0 0 0 0 0 0 0 0 0 0 0 0 0 0 0 0 0 0 0 0 0 0 0 52 127 69 52 127 69 52 127 69 52 127 69 52 127 69 52 127 69 52 127 69 52 127 69 52 127 69 52 127 69 52 127 69 52 127 69 52 127 69 52 127 69 52 127 69 52 127 69 52 127 69 52 127 69 52 127 69 52 127 69 52 127 69 52 127 69 52 127 69 52 127 69 52 127 69 52 127 69 52 127 69 52 127 69 52 127 69 52 127 69 52 127 69 52 127 69 52 127 69 52 127 69 52 127 69 52 127 69 52 127 69 52 127 69 52 127 69 52 127 69 52 127 69 52 127 69 52 127 69 52 127 69 52 127 69 52 127 69 52 127 69 52 127 69 52 127 69 52 127 69 52 127 69 52 127 69 52 127 69 52 127 69 52 127 69 52 127 69 52 127 69 52 127 69 52 127 69 52 127 69 52 127 69 52 127 69 52 127 69 35 95 57 0 0 0 0 0 0 0 0 0 0 0 0 0 0 0 0 0 0 0 0 0 0 0 0 0 0 0 0 0 0 0 0 0 0 0 0 0 0 0 0 0 0 0 0 0
0 0 0 0 0 0 0 0 0 0 0 0 0 0 0 0 0 0 0 0 0 0 0 0 0 0 0 0 0 0 0 0 0 0 0 0 0 0 0 0 0 0 0 0 0 0 0 0 0 0 0 0 0 0 52 127 69 52 127 69 52 127 69 52 127 69 52 127 69 52 127 69 52 127 69 52 127 69 52 127 69 52 127 69 52 127 69 52 127 69 52 127 69 52 127 69 52 127 69 52 127 69 52 127 69 52 127 69 52 127 69 52 127 69 52 127 69 52 127 69 52 127 69 52 127 69 52 127 69 52 127 69 52 127 69 52 127 69 52 127 69 52 127 69 52 127 69 52 127 69 52 127 69 52 127 69 52 127 69 52 127 69 52 127 69 52 127 69 52 127 69 52 127 69 52 127 69 52 127 69 52 127 69 52 127 69 52 127 69 52 127 69 52 127 69 52 127 69 52 127 69 52 127 69 52 127 69 52 127 69 52 127 69 52 127 69 52 127 69 52 127 69 52 127 69 52 127 69 52 127 69 52 127 69 52 127 69 0 0 0 0 0 0 0 0 0 0 0 0 0 0 0 0 0 0 0 0 0 0 0 0 0 0 0 0 0 0 0 0 0 0 0 0 0 0 0 0 0 0 0 0 0 0 0 0 0 0 0
0 0 0 0 0 0 0 0 0 0 0 0 0 0 0 0 0 0 0 0 0 0 0 0 0 0 0 0 0 0 0 0 0 0 0 0 0 0 0 0 0 0 0 0 0 0 0 0 0 0 0 0 0 0 0 0 0 52 127 69 52 127 69 52 127 69 52 127 69 52 127 69 52 127 69 52 127 69 52 127 69 52 127 69 52 127 69 52 127 69 52 127 69 52 127 69 52 127 69 52 127 69 52 127 69 52 127 69 52 127 69 52 127 69 52 127 69 52 127 69 52 127 69 52 127 69 52 127 69 52 127 69 52 127 69 52 127 69 52 127 69 52 127 69 52 127 69 52 127 69 52 127 69 52 127 69 52 127 69 52 127 69 52 127 69 52 127 69 52 127 69 52 127 69 52 127 69 52 127 69 52 127 69 52 127 69 52 127 69 52 127 69 52 127 69 52 127 69 52 127 69 52 127 69 52 127 69 52 127 69 52 127 69 52 127 69 52 127 69 52 127 69 52 127 69 52 127 69 52 127 69 52 127 69 0 0 0 0 0 0 0 0 0 0 0 0 0 0 0 0 0 0 0 0 0 0 0 0 0 0 0 0 0 0 0 0 0 0 0 0 0 0 0 0 0 0 0 0 0 0 0 0 0 0 0 0 0 0
0 0 0 0 0 0 0 0 0 0 0 0 0 0 0 0 0 0 0 0 0 0 0 0 0 0 0 0 0 0 0 0 0 0 0 0 0 0 0 0 0 0 0 0 0 0 0 0 0 0 0 0 0 0 0 0 0 0 0 0 0 0 0 52 127 69 52 127 69 52 127 69 52 127 69 52 127 69 52 127 69 52 127 69 52 127 69 52 127 69 52 127 69 52 127 69 52 127 69 52 127 69 52 127 69 52 127 69 52 127 69 52 127 69 52 127 69 52 127 69 52 127 69 52 127 69 52 127 69 52 127 69 52 127 69 52 127 69 52 127 69 52 127 69 52 127 69 52 127 69 52 127 69 52 127 69 52 127 69 52 127 69 52 127 69 52 127 69 52 127 69 52 127 69 52 127 69 52 127 69 52 127 69 52 127 69 52 127 69 52 127 69 52 127 69 52 127 69 52 127 69 52 127 69 52 127 69 52 127 69 52 127 69 52 127 69 52 127 69 52 127 69 52 127 69 52 127 69 0 0 0 0 0 0 0 0 0 0 0 0 0 0 0 0 0 0 0 0 0 0 0 0 0 0 0 0 0 0 0 0 0 0 0 0 0 0 0 0 0 0 0 0 0 0 0 0 0 0 0 0 0 0 0 0 0 0 0 0
0 0 0 0 0 0 0 0 0 0 0 0 0 0 0 0 0 0 0 0 0 0 0 0 0 0 0 0 0 0 0 0 0 0 0 0 0 0 0 0 0 0 0 0 0 0 0 0 0 0 0 0 0 0 0 0 0 0 0 0 0 0 0 0 0 0 0 0 0 52 127 69 52 127 69 52 127 69 52 127 69 52 127 69 52 127 69 52 127 69 52 127 69 52 127 69 52 127 69 52 127 69 52 127 69 52 127 69 52 127 69 52 127 69 52 127 69 52 127 69 52 127 69 52 127 69 52 127 69 52 127 69 52 127 69 52 127 69 52 127 69 52 127 69 52 127 69 52 127 69 52 127 69 52 127 69 52 127 69 52 127 69 52 127 69 52 127 69 52 127 69 52 127 69 52 127 69 52 127 69 52 127 69 52 127 69 52 127 69 52 127 69 52 127 69 52 127 69 52 127 69 52 127 69 52 127 69 52 127 69 52 127 69 52 127 69 52 127 69 52 127 69 0 0 0 0 0 0 0 0 0 0 0 0 0 0 0 0 0 0 0 0 0 0 0 0 0 0 0 0 0 0 0 0 0 0 0 0 0 0 0 0 0 0 0 0 0 0 0 0 0 0 0 0 0 0 0 0 0 0 0 0 0 0 0 0 0 0
0 0 0 0 0 0 0 0 0 0 0 0 0 0 0 0 0 0 0 0 0 0 0 0 0 0 0 0 0 0 0 0 0 0 0 0 0 0 0 0 0 0 0 0 0 0 0 0 0 0 0 0 0 0 0 0 0 0 0 0 0 0 0 0 0 0 0 0 0 0 0 0 0 0 0 52 127 69 52 127 69 52 127 69 52 127 69 52 127 69 52 127 69 52 127 69 52 127 69 52 127 69 52 127 69 52 127 69 52 127 69 52 127 69 52 127 69 52 127 69 52 127 69 52 127 69 52 127 69 52 127 69 52 127 69 52 127 69 52 127 69 52 127 69 52 127 69 52 127 69 52 127 69 52 127 69 52 127 69 52 127 69 52 127 69 52 127 69 52 127 69 52 127 69 52 127 69 52 127 69 52 127 69 52 127 69 52 127 69 52 127 69 52 127 69 52 127 69 52 127 69 52 127 69 52 127 69 52 127 69 52 127 69 52 127 69 0 0 0 0 0 0 0 0 0 0 0 0 0 0 0 0 0 0 0 0 0 0 0 0 0 0 0 0 0 0 0 0 0 0 0 0 0 0 0 0 0 0 0 0 0 0 0 0 0 0 0 0 0 0 0 0 0 0 0 0 0 0 0 0 0 0 0 0 0 0 0 0
0 0 0 0 0 0 0 0 0 0 0 0 0 0 0 0 0 0 0 0 0 0 0 0 0 0 0 0 0 0 0 0 0 0 0 0 0 0 0 0 0 0 0 0 0 0 0 0 0 0 0 0 0 0 0 0 0 0 0 0 0 0 0 0 0 0 0 0 0 0 0 0 0 0 0 0 0 0 0 0 0 0 0 0 52 127 69 52 127 69 52 127 69 52 127 69 52 127 69 52 127 69 52 127 69 52 127 69 52 127 69 52 127 69 52 127 69 52 127 69 52 127 69 52 127 69 52 127 69 52 127 69 52 127 69 52 127 69 52 127 69 52 127 69 52 127 69 52 127 69 52 127 69 52 127 69 52 127 69 52 127 69 52 127 69 52 127 69 52 127 69 52 127 69 52 127 69 52 127 69 52 127 69 52 127 69 52 127 69 52 127 69 52 127 69 52 127 69 52 127 69 52 127 69 52 127 69 0 0 0 0 0 0 0 0 0 0 0 0 0 0 0 0 0 0 0 0 0 0 0 0 0 0 0 0 0 0 0 0 0 0 0 0 0 0 0 0 0 0 0 0 0 0 0 0 0 0 0 0 0 0 0 0 0 0 0 0 0 0 0 0 0 0 0 0 0 0 0 0 0 0 0 0 0 0 0 0 0
0 0 0 0 0 0 0 0 0 0 0 0 0 0 0 0 0 0 0 0 0 0 0 0 0 0 0 0 0 0 0 0 0 0 0 0 0 0 0 0 0 0 0 0 0 0 0 0 0 0 0 0 0 0 0 0 0 0 0 0 0 0 0 0 0 0 0 0 0 0 0 0 0 0 0 0 0 0 0 0 0 0 0 0 0 0 0 0 0 0 0 0 0 0 0 0 52 127 69 52 127 69 52 127 69 52 127 69 52 127 69 52 127 69 52 127 69 52 127 69 52 127 69 52 127 69 52 127 69 52 127 69 52 127 69 52 127 69 52 127 69 52 127 69 52 127 69 52 127 69 52 127 69 52 127 69 52 127 69 52 127 69 52 127 69 52 127 69 52 127 69 52 127 69 52 127 69 52 127 69 52 127 69 52 127 69 52 127 69 52 127 69 52 127 69 0 0 0 0 0 0 0 0 0 0 0 0 0 0 0 0 0 0 0 0 0 0 0 0 0 0 0 0 0 0 0 0 0 0 0 0 0 0 0 0 0 0 0 0 0 0 0 0 0 0 0 0 0 0 0 0 0 0 0 0 0 0 0 0 0 0 0 0 0 0 0 0 0 0 0 0 0 0 0 0 0 0 0 0 0 0 0 0 0 0 0 0 0
0 0 0 0 0 0 0 0 0 0 0 0 0 0 0 0 0 0 0 0 0 0 0 0 0 0 0 0 0 0 0 0 0 0 0 0 0 0 0 0 0 0 0 0 0 0 0 0 0 0 0 0 0 0 0 0 0 0 0 0 0 0 0 0 0 0 0 0 0 0 0 0 0 0 0 0 0 0 0 0 0 0 0 0 0 0 0 0 0 0 0 0 0 0 0 0 0 0 0 79 52 31 79 52 31 79 52 31 52 127 69 52 127 69 52 127 69 52 127 69 52 127 69 52 127 69 52 127 69 52 127 69 52 127 69 52 127 69 52 127 69 52 127 69 52 127 69 52 127 69 52 127 69 52 127 69 52 127 69 52 127 69 52 127 69 52 127 69 52 127 69 52 127 69 52 127 69 52 127 69 52 127 69 79 52 31 79 52 31 79 52 31 0 0 0 0 0 0 0 0 0 0 0 0 0 0 0 0 0 0 0 0 0 0 0 0 0 0 0 0 0 0 0 0 0 0 0 0 0 0 0 0 0 0 0 0 0 0 0 0 0 0 0 0 0 0 0 0 0 0 0 0 0 0 0 0 0 0 0 0 0 0 0 0 0 0 0 0 0 0 0 0 0 0 0 0 0 0 0 0 0 0 0 0 0 0 0 0
0 0 0 0 0 0 0 0 0 0 0 0 0 0 0 0 0 0 0 0 0 0 0 0 0 0 0 0 0 0 0 0 0 0 0 0 0 0 0 0 0 0 0 0 0 0 0 0 0 0 0 0 0 0 0 0 0 0 0 0 0 0 0 0 0 0 0 0 0 0 0 0 0 0 0 0 0 0 0 0 0 0 0 0 0 0 0 0 0 0 0 0 0 0 0 0 0 0 0 79 52 31 79 52 31 79 52 31 79 52 31 79 52 31 79 52 31 79 52 31 0 0 0 0 0 0 0 0 0 0 0 0 91 59 34 91 59 34 91 59 34 91 59 34 52 127 69 91 59 34 91 59 34 91 59 34 0 0 0 0 0 0 0 0 0 0 0 0 0 0 0 79 52 31 79 52 31 79 52 31 79 52 31 79 52 31 79 52 31 79 52 31 0 0 0 0 0 0 0 0 0 0 0 0 0 0 0 0 0 0 0 0 0 0 0 0 0 0 0 0 0 0 0 0 0 0 0 0 0 0 0 0 0 0 0 0 0 0 0 0 0 0 0 0 0 0 0 0 0 0 0 0 0 0 0 0 0 0 0 0 0 0 0 0 0 0 0 0 0 0 0 0 0 0 0 0 0 0 0 0 0 0 0 0 0 0 0 0
0 0 0 0 0 0 0 0 0 0 0 0 0 0 0 0 0 0 0 0 0 0 0 0 0 0 0 0 0 0 0 0 0 0 0 0 0 0 0 0 0 0 0 0 0 0 0 0 0 0 0 0 0 0 0 0 0 0 0 0 0 0 0 0 0 0 0 0 0 0 0 0 0 0 0 0 0 0 0 0 0 0 0 0 0 0 0 0 0 0 0 0 0 0 0 0 0 0 0 79 52 31 79 52 31 79 52 31 79 52 31 79 52 31 79 52 31 79 52 31 0 0 0 0 0 0 0 0 0 0 0 0 91 59 34 91 59 34 91 59 34 91 59 34 91 59 34 91 59 34 91 59 34 91 59 34 0 0 0 0 0 0 0 0 0 0 0 0 0 0 0 79 52 31 79 52 31 79 52 31 79 52 31 79 52 31 79 52 31 79 52 31 0 0 0 0 0 0 0 0 0 0 0 0 0 0 0 0 0 0 0 0 0 0 0 0 0 0 0 0 0 0 0 0 0 0 0 0 0 0 0 0 0 0 0 0 0 0 0 0 0 0 0 0 0 0 0 0 0 0 0 0 0 0 0 0 0 0 0 0 0 0 0 0 0 0 0 0 0 0 0 0 0 0 0 0 0 0 0 0 0 0 0 0 0 0 0 0
0 0 0 0 0 0 0 0 0 0 0 0 0 0 0 0 0 0 0 0 0 0 0 0 0 0 0 0 0 0 0 0 0 0 0 0 0 0 0 0 0 0 0 0 0 0 0 0 0 0 0 0 0 0 0 0 0 0 0 0 0 0 0 0 0 0 0 0 0 0 0 0 0 0 0 0 0 0 0 0 0 0 0 0 0 0 0 0 0 0 0 0 0 0 0 0 0 0 0 79 52 31 79 52 31 79 52 31 79 52 31 79 52 31 79 52 31 79 52 31 0 0 0 0 0 0 0 0 0 0 0 0 91 59 34 91 59 34 91 59 34 91 59 34 91 59 34 91 59 34 91 59 34 91 59 34 0 0 0 0 0 0 0 0 0 0 0 0 0 0 0 79 52 31 79 52 31 79 52 31 79 52 31 79 52 31 79 52 31 79 52 31 0 0 0 0 0 0 0 0 0 0 0 0 0 0 0 0 0 0 0 0 0 0 0 0 0 0 0 0 0 0 0 0 0 0 0 0 0 0 0 0 0 0 0 0 0 0 0 0 0 0 0 0 0 0 0 0 0 0 0 0 0 0 0 0 0 0 0 0 0 0 0 0 0 0 0 0 0 0 0 0 0 0 0 0 0 0 0 0 0 0 0 0 0 0 0 0
0 0 0 0 0 0 0 0 0 0 0 0 0 0 0 0 0 0 0 0 0 0 0 0 0 0 0 0 0 0 0 0 0 0 0 0 0 0 0 0 0 0 0 0 0 0 0 0 0 0 0 0 0 0 0 0 0 0 0 0 0 0 0 0 0 0 0 0 0 0 0 0 0 0 0 0 0 0 0 0 0 0 0 0 0 0 0 0 0 0 0 0 0 0 0 0 0 0 0 79 52 31 79 52 31 79 52 31 79 52 31 79 52 31 79 52 31 79 52 31 0 0 0 0 0 0 0 0 0 0 0 0 91 59 34 91 59 34 91 59 34 91 59 34 91 59 34 91 59 34 91 59 34 91 59 34 0 0 0 0 0 0 0 0 0 0 0 0 0 0 0 79 52 31 79 52 31 79 52 31 79 52 31 79 52 31 79 52 31 79 52 31 0 0 0 0 0 0 0 0 0 0 0 0 0 0 0 0 0 0 0 0 0 0 0 0 0 0 0 0 0 0 0 0 0 0 0 0 0 0 0 0 0 0 0 0 0 0 0 0 0 0 0 0 0 0 0 0 0 0 0 0 0 0 0 0 0 0 0 0 0 0 0 0 0 0 0 0 0 0 0 0 0 0 0 0 0 0 0 0 0 0 0 0 0 0 0 0
0 0 0 0 0 0 0 0 0 0 0 0 0 0 0 0 0 0 0 0 0 0 0 0 0 0 0 0 0 0 0 0 0 0 0 0 0 0 0 0 0 0 0 0 0 0 0 0 0 0 0 0 0 0 0 0 0 0 0 0 0 0 0 0 0 0 0 0 0 0 0 0 0 0 0 0 0 0 0 0 0 0 0 0 0 0 0 0 0 0 0 0 0 0 0 0 0 0 0 79 52 31 79 52 31 79 52 31 79 52 31 79 52 31 79 52 31 79 52 31 0 0 0 0 0 0 0 0 0 0 0 0 91 59 34 91 59 34 91 59 34 91 59 34 91 59 34 91 59 34 91 59 34 91 59 34 0 0 0 0 0 0 0 0 0 0 0 0 0 0 0 79 52 31 79 52 31 79 52 31 79 52 31 79 52 31 79 52 31 79 52 31 0 0 0 0 0 0 0 0 0 0 0 0 0 0 0 0 0 0 0 0 0 0 0 0 0 0 0 0 0 0 0 0 0 0 0 0 0 0 0 0 0 0 0 0 0 0 0 0 0 0 0 0 0 0 0 0 0 0 0 0 0 0 0 0 0 0 0 0 0 0 0 0 0 0 0 0 0 0 0 0 0 0 0 0 0 0 0 0 0 0 0 0 0 0 0 0
0 0 0 0 0 0 0 0 0 0 0 0 0 0 0 0 0 0 0 0 0 0 0 0 0 0 0 0 0 0 0 0 0 0 0 0 0 0 0 0 0 0 0 0 0 0 0 0 0 0 0 0 0 0 0 0 0 0 0 0 0 0 0 0 0 0 0 0 0 0 0 0 0 0 0 0 0 0 0 0 0 0 0 0 8 11 9 8 11 9 8 11 9 8 11 9 8 11 9 79 52 31 79 52 31 79 52 31 79 52 31 79 52 31 79 52 31 79 52 31 8 11 9 8 11 9 8 11 9 8 11 9 91 59 34 91 59 34 91 59 34 91 59 34 91 59 34 91 59 34 91 59 34 91 59 34 8 11 9 8 11 9 8 11 9 8 11 9 8 11 9 79 52 31 79 52 31 79 52 31 79 52 31 79 52 31 79 52 31 79 52 31 8 11 9 8 11 9 8 11 9 8 11 9 8 11 9 0 0 0 0 0 0 0 0 0 0 0 0 0 0 0 0 0 0 0 0 0 0 0 0 0 0 0 0 0 0 0 0 0 0 0 0 0 0 0 0 0 0 0 0 0 0 0 0 0 0 0 0 0 0 0 0 0 0 0 0 0 0 0 0 0 0 0 0 0 0 0 0 0 0 0 0 0 0 0 0 0
0 0 0 0 0 0 0 0 0 0 0 0 0 0 0 0 0 0 0 0 0 0 0 0 0 0 0 0 0 0 0 0 0 0 0 0 0 0 0 0 0 0 0 0 0 0 0 0 0 0 0 0 0 0 0 0 0 0 0 0 0 0 0 8 11 9 8 11 9 8 11 9 8 11 9 8 11 9 8 11 9 8 11 9 8 11 9 8 11 9 8 11 9 8 11 9 8 11 9 79 52 31 79 52 31 79 52 31 79 52 31 79 52 31 79 52 31 79 52 31 8 11 9 8 11 9 8 11 9 8 11 9 91 59 34 91 59 34 91 59 34 91 59 34 91 59 34 91 59 34 91 59 34 91 59 34 8 11 9 8 11 9 8 11 9 8 11 9 8 11 9 79 52 31 79 52 31 79 52 31 79 52 31 79 52 31 79 52 31 79 52 31 8 11 9 8 11 9 8 11 9 8 11 9 8 11 9 8 11 9 8 11 9 8 11 9 8 11 9 8 11 9 8 11 9 8 11 9 0 0 0 0 0 0 0 0 0 0 0 0 0 0 0 0 0 0 0 0 0 0 0 0 0 0 0 0 0 0 0 0 0 0 0 0 0 0 0 0 0 0 0 0 0 0 0 0 0 0 0 0 0 0 0 0 0 0 0 0
0 0 0 0 0 0 0 0 0 0 0 0 0 0 0 0 0 0 0 0 0 0 0 0 0 0 0 0 0 0 0 0 0 0 0 0 0 0 0 0 0 0 0 0 0 0 0 0 8 11 9 8 11 9 8 11 9 8 11 9 8 11 9 8 11 9 8 11 9 8 11 9 8 11 9 8 11 9 8 11 9 8 11 9 8 11 9 8 11 9 8 11 9 8 11 9 8 11 9 79 52 31 79 52 31 79 52 31 79 52 31 79 52 31 79 52 31 79 52 31 8 11 9 8 11 9 8 11 9 8 11 9 91 59 34 91 59 34 91 59 34 91 59 34 91 59 34 91 59 34 91 59 34 91 59 34 8 11 9 8 11 9 8 11 9 8 11 9 8 11 9 79 52 31 79 52 31 79 52 31 79 52 31 79 52 31 79 52 31 79 52 31 8 11 9 8 11 9 8 11 9 8 11 9 8 11 9 8 11 9 8 11 9 8 11 9 8 11 9 8 11 9 8 11 9 8 11 9 8 11 9 8 11 9 8 11 9 8 11 9 8 11 9 0 0 0 0 0 0 0 0 0 0 0 0 0 0 0 0 0 0 0 0 0 0 0 0 0 0 0 0 0 0 0 0 0 0 0 0 0 0 0 0 0 0 0 0 0
0 0 0 0 0 0 0 0 0 0 0 0 0 0 0 0 0 0 0 0 0 0 0 0 0 0 0 0 0 0 0 0 0 0 0 0 8 11 9 8 11 9 8 11 9 8 11 9 8 11 9 8 11 9 8 11 9 8 11 9 8 11 9 8 11 9 8 11 9 8 11 9 8 11 9 8 11 9 8 11 9 8 11 9 8 11 9 8 11 9 8 11 9 8 11 9 8 11 9 79 52 31 79 52 31 79 52 31 79 52 31 79 52 31 79 52 31 79 52 31 8 11 9 8 11 9 8 11 9 8 11 9 91 59 34 91 59 34 91 59 34 91 59 34 91 59 34 91 59 34 91 59 34 91 59 34 8 11 9 8 11 9 8 11 9 8 11 9 8 11 9 79 52 31 79 52 31 79 52 31 79 52 31 79 52 31 79 52 31 79 52 31 8 11 9 8 11 9 8 11 9 8 11 9 8 11 9 8 11 9 8 11 9 8 11 9 8 11 9 8 11 9 8 11 9 8 11 9 8 11 9 8 11 9 8 11 9 8 11 9 8 11 9 8 11 9 8 11 9 8 11 9 8 11 9 0 0 0 0 0 0 0 0 0 0 0 0 0 0 0 0 0 0 0 0 0 0 0 0 0 0 0 0 0 0 0 0 0
0 0 0 0 0 0 0 0 0 0 0 0 0 0 0 0 0 0 0 0 0 0 0 0 0 0 0 0 0 0 8 11 9 8 11 9 8 11 9 8 11 9 8 11 9 8 11 9 8 11 9 8 11 9 8 11 9 8 11 9 8 11 9 8 11 9 8 11 9 8 11 9 8 11 9 8 11 9 8 11 9 8 11 9 8 11 9 8 11 9 8 11 9 8 11 9 8 11 9 79 52 31 79 52 31 79 52 31 79 52 31 79 52 31 79 52 31 79 52 31 8 11 9 8 11 9 8 11 9 8 11 9 91 59 34 91 59 34 91 59 34 91 59 34 91 59 34 91 59 34 91 59 34 91 59 34 8 11 9 8 11 9 8 11 9 8 11 9 8 11 9 79 52 31 79 52 31 79 52 31 79 52 31 79 52 31 79 52 31 79 52 31 8 11 9 8 11 9 8 11 9 8 11 9 8 11 9 8 11 9 8 11 9 8 11 9 8 11 9 8 11 9 8 11 9 8 11 9 8 11 9 8 11 9 8 11 9 8 11 9 8 11 9 8 11 9 8 11 9 8 11 9 8 11 9 8 11 9 8 11 9 0 0 0 0 0 0 0 0 0 0 0 0 0 0 0 0 0 0 0 0 0 0 0 0 0 0 0
0 0 0 0 0 0 0 0 0 0 0 0 0 0 0 0 0 0 0 0 0 0 0 0 8 11 9 8 11 9 8 11 9 8 11 9 8 11 9 8 11 9 8 11 9 8 11 9 8 11 9 8 11 9 8 11 9 8 11 9 8 11 9 8 11 9 8 11 9 8 11 9 8 11 9 8 11 9 8 11 9 8 11 9 8 11 9 8 11 9 8 11 9 8 11 9 8 11 9 79 52 31 79 52 31 79 52 31 79 52 31 79 52 31 79 52 31 79 52 31 8 11 9 8 11 9 8 11 9 8 11 9 91 59 34 91 59 34 91 59 34 91 59 34 91 59 34 91 59 34 91 59 34 91 59 34 8 11 9 8 11 9 8 11 9 8 11 9 8 11 9 79 52 31 79 52 31 79 52 31 79 52 31 79 52 31 79 52 31 79 52 31 8 11 9 8 11 9 8 11 9 8 11 9 8 11 9 8 11 9 8 11 9 8 11 9 8 11 9 8 11 9 8 11 9 8 11 9 8 11 9 8 11 9 8 11 9 8 11 9 8 11 9 8 11 9 8 11 9 8 11 9 8 11 9 8 11 9 8 11 9 8 11 9 8 11 9 0 0 0 0 0 0 0 0 0 0 0 0 0 0 0 0 0 0 0 0 0
0 0 0 0 0 0 0 0 0 0 0 0 0 0 0 0 0 0 0 0 0 8 11 9 8 11 9 8 11 9 8 11 9 8 11 9 8 11 9 8 11 9 8 11 9 8 11 9 8 11 9 8 11 9 8 11 9 8 11 9 8 11 9 8 11 9 8 11 9 8 11 9 8 11 9 8 11 9 8 11 9 8 11 9 8 11 9 8 11 9 8 11 9 8 11 9 8 11 9 79 52 31 79 52 31 79 52 31 79 52 31 79 52 31 79 52 31 79 52 31 8 11 9 8 11 9 8 11 9 8 11 9 91 59 34 91 59 34 91 59 34 91 59 34 91 59 34 91 59 34 91 59 34 91 59 34 8 11 9 8 11 9 8 11 9 8 11 9 8 11 9 79 52 31 79 52 31 79 52 31 79 52 31 79 52 31 79 52 31 79 52 31 8 11 9 8 11 9 8 11 9 8 11 9 8 11 9 8 11 9 8 11 9 8 11 9 8 11 9 8 11 9 8 11 9 8 11 9 8 11 9 8 11 9 8 11 9 8 11 9 8 11 9 8 11 9 8 11 9 8 11 9 8 11 9 8 11 9 8 11 9 8 11 9 8 11 9 8 11 9 0 0 0 0 0 0 0 0 0 0 0 0 0 0 0 0 0 0
0 0 0 0 0 0 0 0 0 0 0 0 0 0 0 0 0 0 8 11 9 8 11 9 8 11 9 8 11 9 8 11 9 8 11 9 8 11 9 8 11 9 8 11 9 8 11 9 8 11 9 8 11 9 8 11 9 8 11 9 8 11 9 8 11 9 8 11 9 8 11 9 8 11 9 8 11 9 8 11 9 8 11 9 8 11 9 8 11 9 8 11 9 8 11 9 8 11 9 79 52 31 79 52 31 79 52 31 79 52 31 79 52 31 79 52 31 79 52 31 8 11 9 8 11 9 8 11 9 8 11 9 91 59 34 91 59 34 91 59 34 91 59 34 91 59 34 91 59 34 91 59 34 91 59 34 8 11 9 8 11 9 8 11 9 8 11 9 8 11 9 79 52 31 79 52 31 79 52 31 79 52 31 79 52 31 79 52 31 79 52 31 8 11 9 8 11 9 8 11 9 8 11 9 8 11 9 8 11 9 8 11 9 8 11 9 8 11 9 8 11 9 8 11 9 8 11 9 8 11 9 8 11 9 8 11 9 8 11 9 8 11 9 8 11 9 8 11 9 8 11 9 8 11 9 8 11 9 8 11 9 8 11 9 8 11 9 8 11 9 8 11 9 0 0 0 0 0 0 0 0 0 0 0 0 0 0 0
0 0 0 0 0 0 0 0 0 0 0 0 0 0 0 0 0 0 0 0 0 8 11 9 8 11 9 8 11 9 8 11 9 8 11 9 8 11 9 8 11 9 8 11 9 8 11 9 8 11 9 8 11 9 8 11 9 8 11 9 8 11 9 8 11 9 8 11 9 8 11 9 8 11 9 8 11 9 8 11 9 8 11 9 8 11 9 8 11 9 8 11 9 8 11 9 8 11 9 79 52 31 79 52 31 79 52 31 79 52 31 79 52 31 79 52 31 79 52 31 8 11 9 8 11 9 8 11 9 8 11 9 91 59 34 91 59 34 91 59 34 91 59 34 91 59 34 91 59 34 91 59 34 91 59 34 8 11 9 8 11 9 8 11 9 8 11 9 8 11 9 79 52 31 79 52 31 79 52 31 79 52 31 79 52 31 79 52 31 79 52 31 8 11 9 8 11 9 8 11 9 8 11 9 8 11 9 8 11 9 8 11 9 8 11 9 8 11 9 8 11 9 8 11 9 8 11 9 8 11 9 8 11 9 8 11 9 8 11 9 8 11 9 8 11 9 8 11 9 8 11 9 8 11 9 8 11 9 8 11 9 8 11 9 8 11 9 8 11 9 0 0 0 0 0 0 0 0 0 0 0 0 0 0 0 0 0 0
0 0 0 0 0 0 0 0 0 0 0 0 0 0 0 0 0 0 0 0 0 0 0 0 8 11 9 8 11 9 8 11 9 8 11 9 8 11 9 8 11 9 8 11 9 8 11 9 8 11 9 8 11 9 8 11 9 8 11 9 8 11 9 8 11 9 8 11 9 8 11 9 8 11 9 8 11 9 8 11 9 8 11 9 8 11 9 8 11 9 8 11 9 8 11 9 8 11 9 8 11 9 8 11 9 8 11 9 8 11 9 8 11 9 8 11 9 8 11 9 8 11 9 8 11 9 8 11 9 8 11 9 91 59 34 91 59 34 91 59 34 91 59 34 91 59 34 91 59 34 91 59 34 91 59 34 8 11 9 8 11 9 8 11 9 8 11 9 8 11 9 8 11 9 8 11 9 8 11 9 8 11 9 8 11 9 8 11 9 8 11 9 8 11 9 8 11 9 8 11 9 8 11 9 8 11 9 8 11 9 8 11 9 8 11 9 8 11 9 8 11 9 8 11 9 8 11 9 8 11 9 8 11 9 8 11 9 8 11 9 8 11 9 8 11 9 8 11 9 8 11 9 8 11 9 8 11 9 8 11 9 8 11 9 8 11 9 0 0 0 0 0 0 0 0 0 0 0 0 0 0 0 0 0 0 0 0 0
0 0 0 0 0 0 0 0 0 0 0 0 0 0 0 0 0 0 0 0 0 0 0 0 0 0 0 0 0 0 8 11 9 8 11 9 8 11 9 8 11 9 8 11 9 8 11 9 8 11 9 8 11 9 8 11 9 8 11 9 8 11 9 8 11 9 8 11 9 8 11 9 8 11 9 8 11 9 8 11 9 8 11 9 8 11 9 8 11 9 8 11 9 8 11 9 8 11 9 8 11 9 8 11 9 8 11 9 8 11 9 8 11 9 8 11 9 8 11 9 8 11 9 8 11 9 8 11 9 8 11 9 91 59 34 91 59 34 91 59 34 91 59 34 91 59 34 91 59 34 91 59 34 91 59 34 8 11 9 8 11 9 8 11 9 8 11 9 8 11 9 8 11 9 8 11 9 8 11 9 8 11 9 8 11 9 8 11 9 8 11 9 8 11 9 8 11 9 8 11 9 8 11 9 8 11 9 8 11 9 8 11 9 8 11 9 8 11 9 8 11 9 8 11 9 8 11 9 8 11 9 8 11 9 8 11 9 8 11 9 8 11 9 8 11 9 8 11 9 8 11 9 8 11 9 8 11 9 8 11 9 0 0 0 0 0 0 0 0 0 0 0 0 0 0 0 0 0 0 0 0 0 0 0 0 0 0 0
0 0 0 0 0 0 0 0 0 0 0 0 0 0 0 0 0 0 0 0 0 0 0 0 0 0 0 0 0 0 0 0 0 0 0 0 8 11 9 8 11 9 8 11 9 8 11 9 8 11 9 8 11 9 8 11 9 8 11 9 8 11 9 8 11 9 8 11 9 8 11 9 8 11 9 8 11 9 8 11 9 8 11 9 8 11 9 8 11 9 8 11 9 8 11 9 8 11 9 8 11 9 8 11 9 8 11 9 8 11 9 8 11 9 8 11 9 8 11 9 8 11 9 8 11 9 8 11 9 8 11 9 8 11 9 8 11 9 8 11 9 8 11 9 8 11 9 8 11 9 8 11 9 8 11 9 8 11 9 8 11 9 8 11 9 8 11 9 8 11 9 8 11 9 8 11 9 8 11 9 8 11 9 8 11 9 8 11 9 8 11 9 8 11 9 8 11 9 8 11 9 8 11 9 8 11 9 8 11 9 8 11 9 8 11 9 8 11 9 8 11 9 8 11 9 8 11 9 8 11 9 8 11 9 8 11 9 8 11 9 8 11 9 8 11 9 8 11 9 8 11 9 8 11 9 0 0 0 0 0 0 0 0 0 0 0 0 0 0 0 0 0 0 0 0 0 0 0 0 0 0 0 0 0 0 0 0 0
0 0 0 0 0 0 0 0 0 0 0 0 0 0 0 0 0 0 0 0 0 0 0 0 0 0 0 0 0 0 0 0 0 0 0 0 0 0 0 0 0 0 0 0 0 0 0 0 8 11 9 8 11 9 8 11 9 8 11 9 8 11 9 8 11 9 8 11 9 8 11 9 8 11 9 8 11 9 8 11 9 8 11 9 8 11 9 8 11 9 8 11 9 8 11 9 8 11 9 8 11 9 8 11 9 8 11 9 8 11 9 8 11 9 8 11 9 8 11 9 8 11 9 8 11 9 8 11 9 8 11 9 8 11 9 8 11 9 8 11 9 8 11 9 8 11 9 8 11 9 8 11 9 8 11 9 8 11 9 8 11 9 8 11 9 8 11 9 8 11 9 8 11 9 8 11 9 8 11 9 8 11 9 8 11 9 8 11 9 8 11 9 8 11 9 8 11 9 8 11 9 8 11 9 8 11 9 8 11 9 8 11 9 8 11 9 8 11 9 8 11 9 8 11 9 8 11 9 8 11 9 8 11 9 8 11 9 8 11 9 8 11 9 0 0 0 0 0 0 0 0 0 0 0 0 0 0 0 0 0 0 0 0 0 0 0 0 0 0 0 0 0 0 0 0 0 0 0 0 0 0 0 0 0 0 0 0 0
0 0 0 0 0 0 0 0 0 0 0 0 0 0 0 0 0 0 0 0 0 0 0 0 0 0 0 0 0 0 0 0 0 0 0 0 0 0 0 0 0 0 0 0 0 0 0 0 0 0 0 0 0 0 0 0 0 0 0 0 0 0 0 8 11 9 8 11 9 8 11 9 8 11 9 8 11 9 8 11 9 8 11 9 8 11 9 8 11 9 8 11 9 8 11 9 8 11 9 8 11 9 8 11 9 8 11 9 8 11 9 8 11 9 8 11 9 8 11 9 8 11 9 8 11 9 8 11 9 8 11 9 8 11 9 8 11 9 8 11 9 8 11 9 8 11 9 8 11 9 8 11 9 8 11 9 8 11 9 8 11 9 8 11 9 8 11 9 8 11 9 8 11 9 8 11 9 8 11 9 8 11 9 8 11 9 8 11 9 8 11 9 8 11 9 8 11 9 8 11 9 8 11 9 8 11 9 8 11 9 8 11 9 8 11 9 8 11 9 8 11 9 8 11 9 8 11 9 0 0 0 0 0 0 0 0 0 0 0 0 0 0 0 0 0 0 0 0 0 0 0 0 0 0 0 0 0 0 0 0 0 0 0 0 0 0 0 0 0 0 0 0 0 0 0 0 0 0 0 0 0 0 0 0 0 0 0 0
0 0 0 0 0 0 0 0 0 0 0 0 0 0 0 0 0 0 0 0 0 0 0 0 0 0 0 0 0 0 0 0 0 0 0 0 0 0 0 0 0 0 0 0 0 0 0 0 0 0 0 0 0 0 0 0 0 0 0 0 0 0 0 0 0 0 0 0 0 0 0 0 0 0 0 0 0 0 0 0 0 0 0 0 8 11 9 8 11 9 8 11 9 8 11 9 8 11 9 8 11 9 8 11 9 8 11 9 8 11 9 8 11 9 8 11 9 8 11 9 8 11 9 8 11 9 8 11 9 8 11 9 8 11 9 8 11 9 8 11 9 8 11 9 8 11 9 8 11 9 8 11 9 8 11 9 8 11 9 8 11 9 8 11 9 8 11 9 8 11 9 8 11 9 8 11 9 8 11 9 8 11 9 8 11 9 8 11 9 8 11 9 8 11 9 8 11 9 8 11 9 8 11 9 8 11 9 0 0 0 0 0 0 0 0 0 0 0 0 0 0 0 0 0 0 0 0 0 0 0 0 0 0 0 0 0 0 0 0 0 0 0 0 0 0 0 0 0 0 0 0 0 0 0 0 0 0 0 0 0 0 0 0 0 0 0 0 0 0 0 0 0 0 0 0 0 0 0 0 0 0 0 0 0 0 0 0 0
0 0 0 0 0 0 0 0 0 0 0 0 0 0 0 0 0 0 0 0 0 0 0 0 0 0 0 0 0 0 0 0 0 0 0 0 0 0 0 0 0 0 0 0 0 0 0 0 0 0 0 0 0 0 0 0 0 0 0 0 0 0 0 0 0 0 0 0 0 0 0 0 0 0 0 0 0 0 0 0 0 0 0 0 0 0 0 0 0 0 0 0 0 0 0 0 0 0 0 0 0 0 0 0 0 0 0 0 0 0 0 0 0 0 0 0 0 0 0 0 0 0 0 0 0 0 0 0 0 0 0 0 0 0 0 0 0 0 0 0 0 0 0 0 8 11 9 0 0 0 0 0 0 0 0 0 0 0 0 0 0 0 0 0 0 0 0 0 0 0 0 0 0 0 0 0 0 0 0 0 0 0 0 0 0 0 0 0 0 0 0 0 0 0 0 0 0 0 0 0 0 0 0 0 0 0 0 0 0 0 0 0 0 0 0 0 0 0 0 0 0 0 0 0 0 0 0 0 0 0 0 0 0 0 0 0 0 0 0 0 0 0 0 0 0 0 0 0 0 0 0 0 0 0 0 0 0 0 0 0 0 0 0 0 0 0 0 0 0 0 0 0 0 0 0 0 0 0 0 0 0 0 0 0 0 0 0 0
0 0 0 0 0 0 0 0 0 0 0 0 0 0 0 0 0 0 0 0 0 0 0 0 0 0 0 0 0 0 0 0 0 0 0 0 0 0 0 0 0 0 0 0 0 0 0 0 0 0 0 0 0 0 0 0 0 0 0 0 0 0 0 0 0 0 0 0 0 0 0 0 0 0 0 0 0 0 0 0 0 0 0 0 0 0 0 0 0 0 0 0 0 0 0 0 0 0 0 0 0 0 0 0 0 0 0 0 0 0 0 0 0 0 0 0 0 0 0 0 0 0 0 0 0 0 0 0 0 0 0 0 0 0 0 0 0 0 0 0 0 0 0 0 0 0 0 0 0 0 0 0 0 0 0 0 0 0 0 0 0 0 0 0 0 0 0 0 0 0 0 0 0 0 0 0 0 0 0 0 0 0 0 0 0 0 0 0 0 0 0 0 0 0 0 0 0 0 0 0 0 0 0 0 0 0 0 0 0 0 0 0 0 0 0 0 0 0 0 0 0 0 0 0 0 0 0 0 0 0 0 0 0 0 0 0 0 0 0 0 0 0 0 0 0 0 0 0 0 0 0 0 0 0 0 0 0 0 0 0 0 0 0 0 0 0 0 0 0 0 0 0 0 0 0 0 0 0 0 0 0 0 0 0 0 0 0 0
0 0 0 0 0 0 0 0 0 0 0 0 0 0 0 0 0 0 0 0 0 0 0 0 0 0 0 0 0 0 0 0 0 0 0 0 0 0 0 0 0 0 0 0 0 0 0 0 0 0 0 0 0 0 0 0 0 0 0 0 0 0 0 0 0 0 0 0 0 0 0 0 0 0 0 0 0 0 0 0 0 0 0 0 0 0 0 0 0 0 0 0 0 0 0 0 0 0 0 0 0 0 0 0 0 0 0 0 0 0 0 0 0 0 0 0 0 0 0 0 0 0 0 0 0 0 0 0 0 0 0 0 0 0 0 0 0 0 0 0 0 0 0 0 0 0 0 0 0 0 0 0 0 0 0 0 0 0 0 0 0 0 0 0 0 0 0 0 0 0 0 0 0 0 0 0 0 0 0 0 0 0 0 0 0 0 0 0 0 0 0 0 0 0 0 0 0 0 0 0 0 0 0 0 0 0 0 0 0 0 0 0 0 0 0 0 0 0 0 0 0 0 0 0 0 0 0 0 0 0 0 0 0 0 0 0 0 0 0 0 0 0 0 0 0 0 0 0 0 0 0 0 0 0 0 0 0 0 0 0 0 0 0 0 0 0 0 0 0 0 0 0 0 0 0 0 0 0 0 0 0 0 0 0 0 0 0 0
0 0 0 0 0 0 0 0 0 0 0 0 0 0 0 0 0 0 0 0 0 0 0 0 0 0 0 0 0 0 0 0 0 0 0 0 0 0 0 0 0 0 0 0 0 0 0 0 0 0 0 0 0 0 0 0 0 0 0 0 0 0 0 0 0 0 0 0 0 0 0 0 0 0 0 0 0 0 0 0 0 0 0 0 0 0 0 0 0 0 0 0 0 0 0 0 0 0 0 0 0 0 0 0 0 0 0 0 0 0 0 0 0 0 0 0 0 0 0 0 0 0 0 0 0 0 0 0 0 0 0 0 0 0 0 0 0 0 0 0 0 0 0 0 0 0 0 0 0 0 0 0 0 0 0 0 0 0 0 0 0 0 0 0 0 0 0 0 0 0 0 0 0 0 0 0 0 0 0 0 0 0 0 0 0 0 0 0 0 0 0 0 0 0 0 0 0 0 0 0 0 0 0 0 0 0 0 0 0 0 0 0 0 0 0 0 0 0 0 0 0 0 0 0 0 0 0 0 0 0 0 0 0 0 0 0 0 0 0 0 0 0 0 0 0 0 0 0 0 0 0 0 0 0 0 0 0 0 0 0 0 0 0 0 0 0 0 0 0 0 0 0 0 0 0 0 0 0 0 0 0 0 0 0 0 0 0 0
0 0 0 0 0 0 0 0 0 0 0 0 0 0 0 0 0 0 0 0 0 0 0 0 0 0 0 0 0 0 0 0 0 0 0 0 0 0 0 0 0 0 0 0 0 0 0 0 0 0 0 0 0 0 0 0 0 0 0 0 0 0 0 0 0 0 0 0 0 0 0 0 0 0 0 0 0 0 0 0 0 0 0 0 0 0 0 0 0 0 0 0 0 0 0 0 0 0 0 0 0 0 0 0 0 0 0 0 0 0 0 0 0 0 0 0 0 0 0 0 0 0 0 0 0 0 0 0 0 0 0 0 0 0 0 0 0 0 0 0 0 0 0 0 0 0 0 0 0 0 0 0 0 0 0 0 0 0 0 0 0 0 0 0 0 0 0 0 0 0 0 0 0 0 0 0 0 0 0 0 0 0 0 0 0 0 0 0 0 0 0 0 0 0 0 0 0 0 0 0 0 0 0 0 0 0 0 0 0 0 0 0 0 0 0 0 0 0 0 0 0 0 0 0 0 0 0 0 0 0 0 0 0 0 0 0 0 0 0 0 0 0 0 0 0 0 0 0 0 0 0 0 0 0 0 0 0 0 0 0 0 0 0 0 0 0 0 0 0 0 0 0 0 0 0 0 0 0 0 0 0 0 0 0 0 0 0 0
0 0 0 0 0 0 0 0 0 0 0 0 0 0 0 0 0 0 0 0 0 0 0 0 0 0 0 0 0 0 0 0 0 0 0 0 0 0 0 0 0 0 0 0 0 0 0 0 0 0 0 0 0 0 0 0 0 0 0 0 0 0 0 0 0 0 0 0 0 0 0 0 0 0 0 0 0 0 0 0 0 0 0 0 0 0 0 0 0 0 0 0 0 0 0 0 0 0 0 0 0 0 0 0 0 0 0 0 0 0 0 0 0 0 0 0 0 0 0 0 0 0 0 0 0 0 0 0 0 0 0 0 0 0 0 0 0 0 0 0 0 0 0 0 0 0 0 0 0 0 0 0 0 0 0 0 0 0 0 0 0 0 0 0 0 0 0 0 0 0 0 0 0 0 0 0 0 0 0 0 0 0 0 0 0 0 0 0 0 0 0 0 0 0 0 0 0 0 0 0 0 0 0 0 0 0 0 0 0 0 0 0 0 0 0 0 0 0 0 0 0 0 0 0 0 0 0 0 0 0 0 0 0 0 0 0 0 0 0 0 0 0 0 0 0 0 0 0 0 0 0 0 0 0 0 0 0 0 0 0 0 0 0 0 0 0 0 0 0 0 0 0 0 0 0 0 0 0 0 0 0 0 0 0 0 0 0 0
