P3
96 96
255
0 0 0 0 0 0 0 0 0 0 0 0 0 0 0 0 0 0 0 0 0 0 0 0 0 0 0 0 0 0 0 0 0 0 0 0 0 0 0 0 0 0 0 0 0 0 0 0 0 0 0 0 0 0 0 0 0 0 0 0 0 0 0 0 0 0 0 0 0 0 0 0 0 0 0 0 0 0 0 0 0 0 0 0 0 0 0 0 0 0 0 0 0 0 0 0 0 0 0 0 0 0 0 0 0 0 0 0 0 0 0 0 0 0 0 0 0 0 0 0 0 0 0 0 0 0 0 0 0 0 0 0 0 0 0 0 0 0 0 0 0 0 0 0 0 0 0 0 0 0 0 0 0 0 0 0 0 0 0 0 0 0 0 0 0 0 0 0 0 0 0 0 0 0 0 0 0 0 0 0 0 0 0 0 0 0 0 0 0 0 0 0 0 0 0 0 0 0 0 0 0 0 0 0 0 0 0 0 0 0 0 0 0 0 0 0 0 0 0 0 0 0 0 0 0 0 0 0 0 0 0 0 0 0 0 0 0 0 0 0 0 0 0 0 0 0 0 0 0 0 0 0 0 0 0 0 0 0 0 0 0 0 0 0 0 0 0 0 0 0 0 0 0 0 0 0 0 0 0 0 0 0 0 0 0 0 0 0
0 0 0 0 0 0 0 0 0 0 0 0 0 0 0 0 0 0 0 0 0 0 0 0 0 0 0 0 0 0 0 0 0 0 0 0 0 0 0 0 0 0 0 0 0 0 0 0 0 0 0 0 0 0 0 0 0 0 0 0 0 0 0 0 0 0 0 0 0 0 0 0 0 0 0 0 0 0 0 0 0 0 0 0 0 0 0 0 0 0 0 0 0 0 0 0 0 0 0 0 0 0 0 0 0 0 0 0 0 0 0 0 0 0 0 0 0 0 0 0 0 0 0 0 0 0 0 0 0 0 0 0 0 0 0 0 0 0 0 0 0 0 0 0 0 0 0 0 0 0 0 0 0 0 0 0 0 0 0 0 0 0 0 0 0 0 0 0 0 0 0 0 0 0 0 0 0 0 0 0 0 0 0 0 0 0 0 0 0 0 0 0 0 0 0 0 0 0 0 0 0 0 0 0 0 0 0 0 0 0 0 0 0 0 0 0 0 0 0 0 0 0 0 0 0 0 0 0 0 0 0 0 0 0 0 0 0 0 0 0 0 0 0 0 0 0 0 0 0 0 0 0 0 0 0 0 0 0 0 0 0 0 0 0 0 0 0 0 0 0 0 0 0 0 0 0 0 0 0 0 0 0 0 0 0 0 0 0
0 0 0 0 0 0 0 0 0 0 0 0 0 0 0 0 0 0 0 0 0 0 0 0 0 0 0 0 0 0 0 0 0 0 0 0 0 0 0 0 0 0 0 0 0 0 0 0 0 0 0 0 0 0 0 0 0 0 0 0 0 0 0 0 0 0 0 0 0 0 0 0 0 0 0 0 0 0 0 0 0 0 0 0 0 0 0 0 0 0 0 0 0 0 0 0 0 0 0 0 0 0 0 0 0 0 0 0 0 0 0 0 0 0 0 0 0 0 0 0 0 0 0 0 0 0 0 0 0 0 0 0 0 0 0 0 0 0 0 0 0 0 0 0 0 0 0 0 0 0 0 0 0 0 0 0 0 0 0 0 0 0 0 0 0 0 0 0 0 0 0 0 0 0 0 0 0 0 0 0 0 0 0 0 0 0 0 0 0 0 0 0 0 0 0 0 0 0 0 0 0 0 0 0 0 0 0 0 0 0 0 0 0 0 0 0 0 0 0 0 0 0 0 0 0 0 0 0 0 0 0 0 0 0 0 0 0 0 0 0 0 0 0 0 0 0 0 0 0 0 0 0 0 0 0 0 0 0 0 0 0 0 0 0 0 0 0 0 0 0 0 0 0 0 0 0 0 0 0 0 0 0 0 0 0 0 0 0
0 0 0 0 0 0 0 0 0 0 0 0 0 0 0 0 0 0 0 0 0 0 0 0 0 0 0 0 0 0 0 0 0 0 0 0 0 0 0 0 0 0 0 0 0 0 0 0 0 0 0 0 0 0 0 0 0 0 0 0 0 0 0 0 0 0 0 0 0 0 0 0 0 0 0 0 0 0 0 0 0 0 0 0 0 0 0 0 0 0 0 0 0 0 0 0 0 0 0 0 0 0 0 0 0 0 0 0 0 0 0 0 0 0 0 0 0 0 0 0 0 0 0 0 0 0 0 0 0 0 0 0 0 0 0 0 0 0 0 0 0 0 0 0 0 0 0 0 0 0 0 0 0 0 0 0 0 0 0 0 0 0 0 0 0 0 0 0 0 0 0 0 0 0 0 0 0 0 0 0 0 0 0 0 0 0 0 0 0 0 0 0 0 0 0 0 0 0 0 0 0 0 0 0 0 0 0 0 0 0 0 0 0 0 0 0 0 0 0 0 0 0 0 0 0 0 0 0 0 0 0 0 0 0 0 0 0 0 0 0 0 0 0 0 0 0 0 0 0 0 0 0 0 0 0 0 0 0 0 0 0 0 0 0 0 0 0 0 0 0 0 0 0 0 0 0 0 0 0 0 0 0 0 0 0 0 0 0
0 0 0 0 0 0 0 0 0 0 0 0 0 0 0 0 0 0 0 0 0 0 0 0 0 0 0 0 0 0 0 0 0 0 0 0 0 0 0 0 0 0 0 0 0 0 0 0 0 0 0 0 0 0 0 0 0 0 0 0 0 0 0 0 0 0 0 0 0 0 0 0 0 0 0 0 0 0 0 0 0 0 0 0 0 0 0 0 0 0 0 0 0 0 0 0 0 0 0 0 0 0 0 0 0 0 0 0 0 0 0 0 0 0 0 0 0 0 0 0 0 0 0 0 0 0 0 0 0 0 0 0 0 0 0 0 0 0 0 0 0 0 0 0 0 0 0 0 0 0 0 0 0 0 0 0 0 0 0 0 0 0 0 0 0 0 0 0 0 0 0 0 0 0 0 0 0 0 0 0 0 0 0 0 0 0 0 0 0 0 0 0 0 0 0 0 0 0 0 0 0 0 0 0 0 0 0 0 0 0 0 0 0 0 0 0 0 0 0 0 0 0 0 0 0 0 0 0 0 0 0 0 0 0 0 0 0 0 0 0 0 0 0 0 0 0 0 0 0 0 0 0 0 0 0 0 0 0 0 0 0 0 0 0 0 0 0 0 0 0 0 0 0 0 0 0 0 0 0 0 0 0 0 0 0 0 0 0
0 0 0 0 0 0 0 0 0 0 0 0 0 0 0 0 0 0 0 0 0 0 0 0 0 0 0 0 0 0 0 0 0 0 0 0 0 0 0 0 0 0 0 0 0 0 0 0 0 0 0 0 0 0 0 0 0 0 0 0 0 0 0 0 0 0 0 0 0 0 0 0 0 0 0 0 0 0 0 0 0 0 0 0 0 0 0 0 0 0 0 0 0 0 0 0 0 0 0 0 0 0 0 0 0 0 0 0 0 0 0 0 0 0 0 0 0 0 0 0 0 0 0 0 0 0 0 0 0 0 0 0 0 0 0 0 0 0 0 0 0 0 0 0 0 0 0 0 0 0 0 0 0 0 0 0 0 0 0 0 0 0 0 0 0 0 0 0 0 0 0 0 0 0 0 0 0 0 0 0 0 0 0 0 0 0 0 0 0 0 0 0 0 0 0 0 0 0 0 0 0 0 0 0 0 0 0 0 0 0 0 0 0 0 0 0 0 0 0 0 0 0 0 0 0 0 0 0 0 0 0 0 0 0 0 0 0 0 0 0 0 0 0 0 0 0 0 0 0 0 0 0 0 0 0 0 0 0 0 0 0 0 0 0 0 0 0 0 0 0 0 0 0 0 0 0 0 0 0 0 0 0 0 0 0 0 0 0
0 0 0 0 0 0 0 0 0 0 0 0 0 0 0 0 0 0 0 0 0 0 0 0 0 0 0 0 0 0 0 0 0 0 0 0 0 0 0 0 0 0 0 0 0 0 0 0 0 0 0 0 0 0 0 0 0 0 0 0 0 0 0 0 0 0 0 0 0 0 0 0 0 0 0 0 0 0 0 0 0 0 0 0 0 0 0 0 0 0 0 0 0 0 0 0 0 0 0 0 0 0 0 0 0 0 0 0 0 0 0 0 0 0 0 0 0 0 0 0 0 0 0 0 0 0 0 0 0 0 0 0 0 0 0 0 0 0 0 0 0 0 0 0 0 0 0 0 0 0 0 0 0 0 0 0 0 0 0 0 0 0 0 0 0 0 0 0 0 0 0 0 0 0 0 0 0 0 0 0 0 0 0 0 0 0 0 0 0 0 0 0 0 0 0 0 0 0 0 0 0 0 0 0 0 0 0 0 0 0 0 0 0 0 0 0 0 0 0 0 0 0 0 0 0 0 0 0 0 0 0 0 0 0 0 0 0 0 0 0 0 0 0 0 0 0 0 0 0 0 0 0 0 0 0 0 0 0 0 0 0 0 0 0 0 0 0 0 0 0 0 0 0 0 0 0 0 0 0 0 0 0 0 0 0 0 0 0
0 0 0 0 0 0 0 0 0 0 0 0 0 0 0 0 0 0 0 0 0 0 0 0 0 0 0 0 0 0 0 0 0 0 0 0 0 0 0 0 0 0 0 0 0 0 0 0 0 0 0 0 0 0 0 0 0 0 0 0 0 0 0 0 0 0 0 0 0 0 0 0 0 0 0 0 0 0 0 0 0 0 0 0 0 0 0 0 0 0 0 0 0 0 0 0 0 0 0 0 0 0 0 0 0 0 0 0 0 0 0 0 0 0 0 0 0 0 0 0 0 0 0 0 0 0 0 0 0 0 0 0 0 0 0 0 0 0 0 0 0 0 0 0 0 0 0 0 0 0 0 0 0 0 0 0 0 0 0 0 0 0 0 0 0 0 0 0 0 0 0 0 0 0 0 0 0 0 0 0 0 0 0 0 0 0 0 0 0 0 0 0 0 0 0 0 0 0 0 0 0 0 0 0 0 0 0 0 0 0 0 0 0 0 0 0 0 0 0 0 0 0 0 0 0 0 0 0 0 0 0 0 0 0 0 0 0 0 0 0 0 0 0 0 0 0 0 0 0 0 0 0 0 0 0 0 0 0 0 0 0 0 0 0 0 0 0 0 0 0 0 0 0 0 0 0 0 0 0 0 0 0 0 0 0 0 0 0
0 0 0 0 0 0 0 0 0 0 0 0 0 0 0 0 0 0 0 0 0 0 0 0 0 0 0 0 0 0 0 0 0 0 0 0 0 0 0 0 0 0 0 0 0 0 0 0 0 0 0 0 0 0 0 0 0 0 0 0 0 0 0 0 0 0 0 0 0 0 0 0 0 0 0 0 0 0 0 0 0 0 0 0 0 0 0 0 0 0 0 0 0 0 0 0 0 0 0 0 0 0 0 0 0 0 0 0 0 0 0 0 0 0 0 0 0 0 0 0 0 0 0 0 0 0 0 0 0 0 0 0 0 0 0 0 0 0 0 0 0 0 0 0 0 0 0 0 0 0 0 0 0 0 0 0 0 0 0 0 0 0 0 0 0 0 0 0 0 0 0 0 0 0 0 0 0 0 0 0 0 0 0 0 0 0 0 0 0 0 0 0 0 0 0 0 0 0 0 0 0 0 0 0 0 0 0 0 0 0 0 0 0 0 0 0 0 0 0 0 0 0 0 0 0 0 0 0 0 0 0 0 0 0 0 0 0 0 0 0 0 0 0 0 0 0 0 0 0 0 0 0 0 0 0 0 0 0 0 0 0 0 0 0 0 0 0 0 0 0 0 0 0 0 0 0 0 0 0 0 0 0 0 0 0 0 0 0
0 0 0 0 0 0 0 0 0 0 0 0 0 0 0 0 0 0 0 0 0 0 0 0 0 0 0 0 0 0 0 0 0 0 0 0 0 0 0 0 0 0 0 0 0 0 0 0 0 0 0 0 0 0 0 0 0 0 0 0 0 0 0 0 0 0 0 0 0 0 0 0 0 0 0 0 0 0 0 0 0 0 0 0 0 0 0 0 0 0 0 0 0 0 0 0 0 0 0 0 0 0 0 0 0 0 0 0 0 0 0 0 0 0 0 0 0 0 0 0 0 0 0 0 0 0 0 0 0 0 0 0 0 0 0 0 0 0 0 0 0 0 0 0 0 0 0 0 0 0 0 0 0 0 0 0 0 0 0 0 0 0 0 0 0 0 0 0 0 0 0 0 0 0 0 0 0 0 0 0 0 0 0 0 0 0 0 0 0 0 0 0 0 0 0 0 0 0 0 0 0 0 0 0 0 0 0 0 0 0 0 0 0 0 0 0 0 0 0 0 0 0 0 0 0 0 0 0 0 0 0 0 0 0 0 0 0 0 0 0 0 0 0 0 0 0 0 0 0 0 0 0 0 0 0 0 0 0 0 0 0 0 0 0 0 0 0 0 0 0 0 0 0 0 0 0 0 0 0 0 0 0 0 0 0 0 0 0
0 0 0 0 0 0 0 0 0 0 0 0 0 0 0 0 0 0 0 0 0 0 0 0 0 0 0 0 0 0 0 0 0 0 0 0 0 0 0 0 0 0 0 0 0 0 0 0 0 0 0 0 0 0 0 0 0 0 0 0 0 0 0 0 0 0 0 0 0 0 0 0 0 0 0 0 0 0 0 0 0 0 0 0 0 0 0 0 0 0 0 0 0 0 0 0 0 0 0 0 0 0 0 0 0 0 0 0 0 0 0 0 0 0 0 0 0 0 0 0 0 0 0 0 0 0 0 0 0 0 0 0 0 0 0 0 0 0 0 0 0 0 0 0 0 0 0 0 0 0 0 0 0 0 0 0 0 0 0 0 0 0 0 0 0 0 0 0 0 0 0 0 0 0 0 0 0 0 0 0 0 0 0 0 0 0 0 0 0 0 0 0 0 0 0 0 0 0 0 0 0 0 0 0 0 0 0 0 0 0 0 0 0 0 0 0 0 0 0 0 0 0 0 0 0 0 0 0 0 0 0 0 0 0 0 0 0 0 0 0 0 0 0 0 0 0 0 0 0 0 0 0 0 0 0 0 0 0 0 0 0 0 0 0 0 0 0 0 0 0 0 0 0 0 0 0 0 0 0 0 0 0 0 0 0 0 0 0
0 0 0 0 0 0 0 0 0 0 0 0 0 0 0 0 0 0 0 0 0 0 0 0 0 0 0 0 0 0 0 0 0 0 0 0 0 0 0 0 0 0 0 0 0 0 0 0 0 0 0 0 0 0 0 0 0 0 0 0 0 0 0 0 0 0 0 0 0 0 0 0 0 0 0 0 0 0 0 0 0 0 0 0 0 0 0 0 0 0 0 0 0 0 0 0 0 0 0 0 0 0 0 0 0 0 0 0 0 0 0 0 0 0 0 0 0 0 0 0 0 0 0 0 0 0 0 0 0 0 0 0 0 0 0 0 0 0 0 0 0 0 0 0 0 0 0 0 0 0 0 0 0 0 0 0 0 0 0 0 0 0 0 0 0 0 0 0 0 0 0 0 0 0 0 0 0 0 0 0 0 0 0 0 0 0 0 0 0 0 0 0 0 0 0 0 0 0 0 0 0 0 0 0 0 0 0 0 0 0 0 0 0 0 0 0 0 0 0 0 0 0 0 0 0 0 0 0 0 0 0 0 0 0 0 0 0 0 0 0 0 0 0 0 0 0 0 0 0 0 0 0 0 0 0 0 0 0 0 0 0 0 0 0 0 0 0 0 0 0 0 0 0 0 0 0 0 0 0 0 0 0 0 0 0 0 0 0
0 0 0 0 0 0 0 0 0 0 0 0 0 0 0 0 0 0 0 0 0 0 0 0 0 0 0 0 0 0 0 0 0 0 0 0 0 0 0 0 0 0 0 0 0 0 0 0 0 0 0 0 0 0 0 0 0 0 0 0 0 0 0 0 0 0 0 0 0 0 0 0 0 0 0 0 0 0 0 0 0 0 0 0 0 0 0 0 0 0 0 0 0 0 0 0 0 0 0 0 0 0 0 0 0 0 0 0 0 0 0 0 0 0 0 0 0 0 0 0 0 0 0 0 0 0 0 0 0 0 0 0 0 0 0 0 0 0 0 0 0 0 0 0 0 0 0 0 0 0 0 0 0 0 0 0 0 0 0 0 0 0 0 0 0 0 0 0 0 0 0 0 0 0 0 0 0 0 0 0 0 0 0 0 0 0 0 0 0 0 0 0 0 0 0 0 0 0 0 0 0 0 0 0 0 0 0 0 0 0 0 0 0 0 0 0 0 0 0 0 0 0 0 0 0 0 0 0 0 0 0 0 0 0 0 0 0 0 0 0 0 0 0 0 0 0 0 0 0 0 0 0 0 0 0 0 0 0 0 0 0 0 0 0 0 0 0 0 0 0 0 0 0 0 0 0 0 0 0 0 0 0 0 0 0 0 0 0
0 0 0 0 0 0 0 0 0 0 0 0 0 0 0 0 0 0 0 0 0 0 0 0 0 0 0 0 0 0 0 0 0 0 0 0 0 0 0 0 0 0 0 0 0 0 0 0 0 0 0 0 0 0 0 0 0 0 0 0 0 0 0 0 0 0 0 0 0 0 0 0 0 0 0 0 0 0 0 0 0 0 0 0 0 0 0 0 0 0 0 0 0 0 0 0 0 0 0 0 0 0 0 0 0 0 0 0 0 0 0 0 0 0 0 0 0 0 0 0 0 0 0 0 0 0 0 0 0 0 0 0 0 0 0 0 0 0 0 0 0 0 0 0 0 0 0 0 0 0 0 0 0 0 0 0 0 0 0 0 0 0 0 0 0 0 0 0 0 0 0 0 0 0 0 0 0 0 0 0 0 0 0 0 0 0 0 0 0 0 0 0 0 0 0 0 0 0 0 0 0 0 0 0 0 0 0 0 0 0 0 0 0 0 0 0 0 0 0 0 0 0 0 0 0 0 0 0 0 0 0 0 0 0 0 0 0 0 0 0 0 0 0 0 0 0 0 0 0 0 0 0 0 0 0 0 0 0 0 0 0 0 0 0 0 0 0 0 0 0 0 0 0 0 0 0 0 0 0 0 0 0 0 0 0 0 0 0
0 0 0 0 0 0 0 0 0 0 0 0 0 0 0 0 0 0 0 0 0 0 0 0 0 0 0 0 0 0 0 0 0 0 0 0 0 0 0 0 0 0 0 0 0 0 0 0 0 0 0 0 0 0 0 0 0 0 0 0 0 0 0 0 0 0 0 0 0 0 0 0 0 0 0 0 0 0 0 0 0 0 0 0 0 0 0 0 0 0 0 0 0 0 0 0 0 0 0 0 0 0 0 0 0 0 0 0 0 0 0 0 0 0 0 0 0 0 0 0 0 0 0 0 0 0 0 0 0 0 0 0 0 0 0 0 0 0 0 0 0 0 0 0 0 0 0 0 0 0 0 0 0 0 0 0 0 0 0 0 0 0 0 0 0 0 0 0 0 0 0 0 0 0 0 0 0 0 0 0 0 0 0 0 0 0 0 0 0 0 0 0 0 0 0 0 0 0 0 0 0 0 0 0 0 0 0 0 0 0 0 0 0 0 0 0 0 0 0 0 0 0 0 0 0 0 0 0 0 0 0 0 0 0 0 0 0 0 0 0 0 0 0 0 0 0 0 0 0 0 0 0 0 0 0 0 0 0 0 0 0 0 0 0 0 0 0 0 0 0 0 0 0 0 0 0 0 0 0 0 0 0 0 0 0 0 0 0
0 0 0 0 0 0 0 0 0 0 0 0 0 0 0 0 0 0 0 0 0 0 0 0 0 0 0 0 0 0 0 0 0 0 0 0 0 0 0 0 0 0 0 0 0 0 0 0 0 0 0 0 0 0 0 0 0 0 0 0 0 0 0 0 0 0 0 0 0 0 0 0 0 0 0 0 0 0 0 0 0 0 0 0 0 0 0 0 0 0 0 0 0 0 0 0 0 0 0 0 0 0 0 0 0 0 0 0 0 0 0 0 0 0 0 0 0 0 0 0 0 0 0 0 0 0 0 0 0 0 0 0 0 0 0 0 0 0 0 0 0 0 0 0 0 0 0 0 0 0 0 0 0 0 0 0 0 0 0 0 0 0 0 0 0 0 0 0 0 0 0 0 0 0 0 0 0 0 0 0 0 0 0 0 0 0 0 0 0 0 0 0 0 0 0 0 0 0 0 0 0 0 0 0 0 0 0 0 0 0 0 0 0 0 0 0 0 0 0 0 0 0 0 0 0 0 0 0 0 0 0 0 0 0 0 0 0 0 0 0 0 0 0 0 0 0 0 0 0 0 0 0 0 0 0 0 0 0 0 0 0 0 0 0 0 0 0 0 0 0 0 0 0 0 0 0 0 0 0 0 0 0 0 0 0 0 0 0
0 0 0 0 0 0 0 0 0 0 0 0 0 0 0 0 0 0 0 0 0 0 0 0 0 0 0 0 0 0 0 0 0 0 0 0 0 0 0 0 0 0 0 0 0 0 0 0 0 0 0 0 0 0 0 0 0 0 0 0 0 0 0 0 0 0 0 0 0 0 0 0 0 0 0 0 0 0 0 0 0 0 0 0 0 0 0 0 0 0 0 0 0 0 0 0 0 0 0 0 0 0 0 0 0 0 0 0 0 0 0 0 0 0 0 0 0 0 0 0 0 0 0 0 0 0 0 0 0 0 0 0 0 0 0 0 0 0 0 0 0 0 0 0 0 0 0 0 0 0 0 0 0 0 0 0 0 0 0 0 0 0 0 0 0 0 0 0 0 0 0 0 0 0 0 0 0 0 0 0 0 0 0 0 0 0 0 0 0 0 0 0 0 0 0 0 0 0 0 0 0 0 0 0 0 0 0 0 0 0 0 0 0 0 0 0 0 0 0 0 0 0 0 0 0 0 0 0 0 0 0 0 0 0 0 0 0 0 0 0 0 0 0 0 0 0 0 0 0 0 0 0 0 0 0 0 0 0 0 0 0 0 0 0 0 0 0 0 0 0 0 0 0 0 0 0 0 0 0 0 0 0 0 0 0 0 0 0
0 0 0 0 0 0 0 0 0 0 0 0 0 0 0 0 0 0 0 0 0 0 0 0 0 0 0 0 0 0 0 0 0 0 0 0 0 0 0 0 0 0 0 0 0 0 0 0 0 0 0 0 0 0 0 0 0 0 0 0 0 0 0 0 0 0 0 0 0 0 0 0 0 0 0 0 0 0 0 0 0 0 0 0 0 0 0 0 0 0 0 0 0 0 0 0 0 0 0 0 0 0 0 0 0 0 0 0 0 0 0 0 0 0 0 0 0 0 0 0 0 0 0 0 0 0 0 0 0 0 0 0 0 0 0 0 0 0 0 0 0 0 0 0 0 0 0 0 0 0 0 0 0 0 0 0 0 0 0 0 0 0 0 0 0 0 0 0 0 0 0 0 0 0 0 0 0 0 0 0 0 0 0 0 0 0 0 0 0 0 0 0 0 0 0 0 0 0 0 0 0 0 0 0 0 0 0 0 0 0 0 0 0 0 0 0 0 0 0 0 0 0 0 0 0 0 0 0 0 0 0 0 0 0 0 0 0 0 0 0 0 0 0 0 0 0 0 0 0 0 0 0 0 0 0 0 0 0 0 0 0 0 0 0 0 0 0 0 0 0 0 0 0 0 0 0 0 0 0 0 0 0 0 0 0 0 0 0
0 0 0 0 0 0 0 0 0 0 0 0 0 0 0 0 0 0 0 0 0 0 0 0 0 0 0 0 0 0 0 0 0 0 0 0 0 0 0 0 0 0 0 0 0 0 0 0 0 0 0 0 0 0 0 0 0 0 0 0 0 0 0 0 0 0 0 0 0 0 0 0 0 0 0 0 0 0 0 0 0 0 0 0 0 0 0 0 0 0 0 0 0 0 0 0 0 0 0 0 0 0 0 0 0 0 0 0 0 0 0 0 0 0 0 0 0 0 0 0 0 0 0 0 0 0 0 0 0 0 0 0 0 0 0 0 0 0 0 0 0 0 0 0 0 0 0 0 0 0 0 0 0 0 0 0 0 0 0 0 0 0 0 0 0 0 0 0 0 0 0 0 0 0 0 0 0 0 0 0 0 0 0 0 0 0 0 0 0 0 0 0 0 0 0 0 0 0 0 0 0 0 0 0 0 0 0 0 0 0 0 0 0 0 0 0 0 0 0 0 0 0 0 0 0 0 0 0 0 0 0 0 0 0 0 0 0 0 0 0 0 0 0 0 0 0 0 0 0 0 0 0 0 0 0 0 0 0 0 0 0 0 0 0 0 0 0 0 0 0 0 0 0 0 0 0 0 0 0 0 0 0 0 0 0 0 0 0
0 0 0 0 0 0 0 0 0 0 0 0 0 0 0 0 0 0 0 0 0 0 0 0 0 0 0 0 0 0 0 0 0 0 0 0 0 0 0 0 0 0 0 0 0 0 0 0 0 0 0 0 0 0 0 0 0 0 0 0 0 0 0 0 0 0 0 0 0 0 0 0 0 0 0 0 0 0 0 0 0 0 0 0 0 0 0 0 0 0 0 0 0 0 0 0 0 0 0 0 0 0 0 0 0 0 0 0 0 0 0 0 0 0 0 0 0 0 0 0 0 0 0 0 0 0 0 0 0 0 0 0 0 0 0 0 0 0 0 0 0 0 0 0 0 0 0 0 0 0 0 0 0 0 0 0 0 0 0 0 0 0 0 0 0 0 0 0 0 0 0 0 0 0 0 0 0 0 0 0 0 0 0 0 0 0 0 0 0 0 0 0 0 0 0 0 0 0 0 0 0 0 0 0 0 0 0 0 0 0 0 0 0 0 0 0 0 0 0 0 0 0 0 0 0 0 0 0 0 0 0 0 0 0 0 0 0 0 0 0 0 0 0 0 0 0 0 0 0 0 0 0 0 0 0 0 0 0 0 0 0 0 0 0 0 0 0 0 0 0 0 0 0 0 0 0 0 0 0 0 0 0 0 0 0 0 0 0
0 0 0 0 0 0 0 0 0 0 0 0 0 0 0 0 0 0 0 0 0 0 0 0 0 0 0 0 0 0 0 0 0 0 0 0 0 0 0 0 0 0 0 0 0 0 0 0 0 0 0 0 0 0 0 0 0 0 0 0 0 0 0 0 0 0 0 0 0 0 0 0 0 0 0 0 0 0 0 0 0 0 0 0 0 0 0 0 0 0 0 0 0 0 0 0 0 0 0 0 0 0 0 0 0 0 0 0 0 0 0 0 0 0 0 0 0 0 0 0 0 0 0 0 0 0 0 0 0 0 0 0 0 0 0 0 0 0 0 0 0 0 0 0 0 0 0 0 0 0 0 0 0 0 0 0 0 0 0 0 0 0 0 0 0 0 0 0 0 0 0 0 0 0 0 0 0 0 0 0 0 0 0 0 0 0 0 0 0 0 0 0 0 0 0 0 0 0 0 0 0 0 0 0 0 0 0 0 0 0 0 0 0 0 0 0 0 0 0 0 0 0 0 0 0 0 0 0 0 0 0 0 0 0 0 0 0 0 0 0 0 0 0 0 0 0 0 0 0 0 0 0 0 0 0 0 0 0 0 0 0 0 0 0 0 0 0 0 0 0 0 0 0 0 0 0 0 0 0 0 0 0 0 0 0 0 0 0
0 0 0 0 0 0 0 0 0 0 0 0 0 0 0 0 0 0 0 0 0 0 0 0 0 0 0 0 0 0 0 0 0 0 0 0 0 0 0 0 0 0 0 0 0 0 0 0 0 0 0 0 0 0 0 0 0 0 0 0 0 0 0 0 0 0 0 0 0 0 0 0 0 0 0 0 0 0 0 0 0 0 0 0 0 0 0 0 0 0 0 0 0 0 0 0 0 0 0 0 0 0 0 0 0 0 0 0 0 0 0 0 0 0 0 0 0 0 0 0 0 0 0 0 0 0 0 0 0 0 0 0 0 0 0 0 0 0 0 0 0 0 0 0 0 0 0 0 0 0 0 0 0 0 0 0 0 0 0 0 0 0 0 0 0 0 0 0 0 0 0 0 0 0 0 0 0 0 0 0 0 0 0 0 0 0 0 0 0 0 0 0 0 0 0 0 0 0 0 0 0 0 0 0 0 0 0 0 0 0 0 0 0 0 0 0 0 0 0 0 0 0 0 0 0 0 0 0 0 0 0 0 0 0 0 0 0 0 0 0 0 0 0 0 0 0 0 0 0 0 0 0 0 0 0 0 0 0 0 0 0 0 0 0 0 0 0 0 0 0 0 0 0 0 0 0 0 0 0 0 0 0 0 0 0 0 0 0
0 0 0 0 0 0 0 0 0 0 0 0 0 0 0 0 0 0 0 0 0 0 0 0 0 0 0 0 0 0 0 0 0 0 0 0 0 0 0 0 0 0 0 0 0 0 0 0 0 0 0 0 0 0 0 0 0 0 0 0 0 0 0 0 0 0 0 0 0 0 0 0 0 0 0 0 0 0 0 0 0 0 0 0 0 0 0 0 0 0 0 0 0 0 0 0 0 0 0 0 0 0 0 0 0 0 0 0 0 0 0 0 0 0 0 0 0 0 0 0 0 0 0 0 0 0 0 0 0 0 0 0 0 0 0 0 0 0 0 0 0 0 0 0 0 0 0 0 0 0 0 0 0 0 0 0 0 0 0 0 0 0 0 0 0 0 0 0 0 0 0 0 0 0 0 0 0 0 0 0 0 0 0 0 0 0 0 0 0 0 0 0 0 0 0 0 0 0 0 0 0 0 0 0 0 0 0 0 0 0 0 0 0 0 0 0 0 0 0 0 0 0 0 0 0 0 0 0 0 0 0 0 0 0 0 0 0 0 0 0 0 0 0 0 0 0 0 0 0 0 0 0 0 0 0 0 0 0 0 0 0 0 0 0 0 0 0 0 0 0 0 0 0 0 0 0 0 0 0 0 0 0 0 0 0 0 0 0
0 0 0 0 0 0 0 0 0 0 0 0 0 0 0 0 0 0 0 0 0 0 0 0 0 0 0 0 0 0 0 0 0 0 0 0 0 0 0 0 0 0 0 0 0 0 0 0 0 0 0 0 0 0 0 0 0 0 0 0 0 0 0 0 0 0 0 0 0 0 0 0 0 0 0 0 0 0 0 0 0 0 0 0 0 0 0 0 0 0 0 0 0 0 0 0 0 0 0 0 0 0 0 0 0 0 0 0 0 0 0 0 0 0 0 0 0 0 0 0 0 0 0 0 0 0 0 0 0 0 0 0 0 0 0 0 0 0 0 0 0 0 0 0 0 0 0 0 0 0 0 0 0 0 0 0 0 0 0 0 0 0 0 0 0 0 0 0 0 0 0 0 0 0 0 0 0 0 0 0 0 0 0 0 0 0 0 0 0 0 0 0 0 0 0 0 0 0 0 0 0 0 0 0 0 0 0 0 0 0 0 0 0 0 0 0 0 0 0 0 0 0 0 0 0 0 0 0 0 0 0 0 0 0 0 0 0 0 0 0 0 0 0 0 0 0 0 0 0 0 0 0 0 0 0 0 0 0 0 0 0 0 0 0 0 0 0 0 0 0 0 0 0 0 0 0 0 0 0 0 0 0 0 0 0 0 0 0
0 0 0 0 0 0 0 0 0 0 0 0 0 0 0 0 0 0 0 0 0 0 0 0 0 0 0 0 0 0 0 0 0 0 0 0 0 0 0 0 0 0 0 0 0 0 0 0 0 0 0 0 0 0 0 0 0 0 0 0 0 0 0 0 0 0 0 0 0 0 0 0 0 0 0 0 0 0 0 0 0 0 0 0 0 0 0 0 0 0 0 0 0 0 0 0 0 0 0 0 0 0 0 0 0 0 0 0 0 0 0 0 0 0 0 0 0 0 0 0 0 0 0 0 0 0 0 0 0 0 0 0 0 0 0 0 0 0 0 0 0 0 0 0 0 0 0 0 0 0 0 0 0 0 0 0 0 0 0 0 0 0 0 0 0 0 0 0 0 0 0 0 0 0 0 0 0 0 0 0 0 0 0 0 0 0 0 0 0 0 0 0 0 0 0 0 0 0 0 0 0 0 0 0 0 0 0 0 0 0 0 0 0 0 0 0 0 0 0 0 0 0 0 0 0 0 0 0 0 0 0 0 0 0 0 0 0 0 0 0 0 0 0 0 0 0 0 0 0 0 0 0 0 0 0 0 0 0 0 0 0 0 0 0 0 0 0 0 0 0 0 0 0 0 0 0 0 0 0 0 0 0 0 0 0 0 0 0
0 0 0 0 0 0 0 0 0 0 0 0 0 0 0 0 0 0 0 0 0 0 0 0 0 0 0 0 0 0 0 0 0 0 0 0 0 0 0 0 0 0 0 0 0 0 0 0 0 0 0 0 0 0 0 0 0 0 0 0 0 0 0 0 0 0 0 0 0 0 0 0 0 0 0 0 0 0 0 0 0 0 0 0 0 0 0 0 0 0 0 0 0 0 0 0 0 0 0 0 0 0 0 0 0 0 0 0 0 0 0 0 0 0 0 0 0 0 0 0 0 0 0 0 0 0 0 0 0 0 0 0 0 0 0 0 0 0 0 0 0 0 0 0 0 0 0 0 0 0 0 0 0 0 0 0 0 0 0 0 0 0 0 0 0 0 0 0 0 0 0 0 0 0 0 0 0 0 0 0 0 0 0 0 0 0 0 0 0 0 0 0 0 0 0 0 0 0 0 0 0 0 0 0 0 0 0 0 0 0 0 0 0 0 0 0 0 0 0 0 0 0 0 0 0 0 0 0 0 0 0 0 0 0 0 0 0 0 0 0 0 0 0 0 0 0 0 0 0 0 0 0 0 0 0 0 0 0 0 0 0 0 0 0 0 0 0 0 0 0 0 0 0 0 0 0 0 0 0 0 0 0 0 0 0 0 0 0
0 0 0 0 0 0 0 0 0 0 0 0 0 0 0 0 0 0 0 0 0 0 0 0 0 0 0 0 0 0 0 0 0 0 0 0 0 0 0 0 0 0 0 0 0 0 0 0 0 0 0 0 0 0 0 0 0 0 0 0 0 0 0 0 0 0 0 0 0 0 0 0 0 0 0 0 0 0 0 0 0 0 0 0 0 0 0 0 0 0 0 0 0 0 0 0 0 0 0 0 0 0 0 0 0 0 0 0 0 0 0 0 0 0 0 0 0 0 0 0 0 0 0 0 0 0 0 0 0 0 0 0 0 0 0 0 0 0 0 0 0 0 0 0 0 0 0 0 0 0 0 0 0 0 0 0 0 0 0 0 0 0 0 0 0 0 0 0 0 0 0 0 0 0 0 0 0 0 0 0 0 0 0 0 0 0 0 0 0 0 0 0 0 0 0 0 0 0 0 0 0 0 0 0 0 0 0 0 0 0 0 0 0 0 0 0 0 0 0 0 0 0 0 0 0 0 0 0 0 0 0 0 0 0 0 0 0 0 0 0 0 0 0 0 0 0 0 0 0 0 0 0 0 0 0 0 0 0 0 0 0 0 0 0 0 0 0 0 0 0 0 0 0 0 0 0 0 0 0 0 0 0 0 0 0 0 0 0
0 0 0 0 0 0 0 0 0 0 0 0 0 0 0 0 0 0 0 0 0 0 0 0 0 0 0 0 0 0 0 0 0 0 0 0 0 0 0 0 0 0 0 0 0 0 0 0 0 0 0 0 0 0 0 0 0 0 0 0 0 0 0 0 0 0 0 0 0 0 0 0 0 0 0 0 0 0 0 0 0 0 0 0 0 0 0 0 0 0 0 0 0 0 0 0 0 0 0 0 0 0 0 0 0 0 0 0 0 0 0 0 0 0 0 0 0 0 0 0 0 0 0 0 0 0 0 0 0 0 0 0 0 0 0 0 0 0 0 0 0 0 0 0 0 0 0 0 0 0 0 0 0 0 0 0 0 0 0 0 0 0 0 0 0 0 0 0 0 0 0 0 0 0 0 0 0 0 0 0 0 0 0 0 0 0 0 0 0 0 0 0 0 0 0 0 0 0 0 0 0 0 0 0 0 0 0 0 0 0 0 0 0 0 0 0 0 0 0 0 0 0 0 0 0 0 0 0 0 0 0 0 0 0 0 0 0 0 0 0 0 0 0 0 0 0 0 0 0 0 0 0 0 0 0 0 0 0 0 0 0 0 0 0 0 0 0 0 0 0 0 0 0 0 0 0 0 0 0 0 0 0 0 0 0 0 0 0
0 0 0 0 0 0 0 0 0 0 0 0 0 0 0 0 0 0 0 0 0 0 0 0 0 0 0 0 0 0 0 0 0 0 0 0 0 0 0 0 0 0 0 0 0 0 0 0 0 0 0 0 0 0 0 0 0 0 0 0 0 0 0 0 0 0 0 0 0 0 0 0 0 0 0 0 0 0 0 0 0 0 0 0 0 0 0 0 0 0 0 0 0 0 0 0 0 0 0 0 0 0 0 0 0 0 0 0 0 0 0 0 0 0 0 0 0 0 0 0 0 0 0 0 0 0 0 0 0 0 0 0 0 0 0 0 0 0 0 0 0 0 0 0 0 0 0 0 0 0 0 0 0 0 0 0 0 0 0 0 0 0 0 0 0 0 0 0 0 0 0 0 0 0 0 0 0 0 0 0 0 0 0 0 0 0 0 0 0 0 0 0 0 0 0 0 0 0 0 0 0 0 0 0 0 0 0 0 0 0 0 0 0 0 0 0 0 0 0 0 0 0 0 0 0 0 0 0 0 0 0 0 0 0 0 0 0 0 0 0 0 0 0 0 0 0 0 0 0 0 0 0 0 0 0 0 0 0 0 0 0 0 0 0 0 0 0 0 0 0 0 0 0 0 0 0 0 0 0 0 0 0 0 0 0 0 0 0
0 0 0 0 0 0 0 0 0 0 0 0 0 0 0 0 0 0 0 0 0 0 0 0 0 0 0 0 0 0 0 0 0 0 0 0 0 0 0 0 0 0 0 0 0 0 0 0 0 0 0 0 0 0 0 0 0 0 0 0 0 0 0 0 0 0 0 0 0 0 0 0 0 0 0 0 0 0 0 0 0 0 0 0 0 0 0 0 0 0 0 0 0 0 0 0 0 0 0 0 0 0 0 0 0 0 0 0 0 0 0 0 0 0 0 0 0 0 0 0 0 0 0 0 0 0 0 0 0 0 0 0 0 0 0 0 0 0 0 0 0 0 0 0 0 0 0 0 0 0 0 0 0 0 0 0 0 0 0 0 0 0 0 0 0 0 0 0 0 0 0 0 0 0 0 0 0 0 0 0 0 0 0 0 0 0 0 0 0 0 0 0 0 0 0 0 0 0 0 0 0 0 0 0 0 0 0 0 0 0 0 0 0 0 0 0 0 0 0 0 0 0 0 0 0 0 0 0 0 0 0 0 0 0 0 0 0 0 0 0 0 0 0 0 0 0 0 0 0 0 0 0 0 0 0 0 0 0 0 0 0 0 0 0 0 0 0 0 0 0 0 0 0 0 0 0 0 0 0 0 0 0 0 0 0 0 0 0
0 0 0 0 0 0 0 0 0 0 0 0 0 0 0 0 0 0 0 0 0 0 0 0 0 0 0 0 0 0 0 0 0 0 0 0 0 0 0 0 0 0 0 0 0 0 0 0 0 0 0 0 0 0 0 0 0 0 0 0 0 0 0 0 0 0 0 0 0 0 0 0 0 0 0 0 0 0 0 0 0 0 0 0 0 0 0 0 0 0 0 0 0 0 0 0 0 0 0 0 0 0 0 0 0 0 0 0 0 0 0 0 0 0 0 0 0 0 0 0 0 0 0 0 0 0 0 0 0 0 0 0 0 0 0 0 0 0 0 0 0 0 0 0 0 0 0 0 0 0 0 0 0 0 0 0 0 0 0 0 0 0 0 0 0 0 0 0 0 0 0 0 0 0 0 0 0 0 0 0 0 0 0 0 0 0 0 0 0 0 0 0 0 0 0 0 0 0 0 0 0 0 0 0 0 0 0 0 0 0 0 0 0 0 0 0 0 0 0 0 0 0 0 0 0 0 0 0 0 0 0 0 0 0 0 0 0 0 0 0 0 0 0 0 0 0 0 0 0 0 0 0 0 0 0 0 0 0 0 0 0 0 0 0 0 0 0 0 0 0 0 0 0 0 0 0 0 0 0 0 0 0 0 0 0 0 0 0
0 0 0 0 0 0 0 0 0 0 0 0 0 0 0 0 0 0 0 0 0 0 0 0 0 0 0 0 0 0 0 0 0 0 0 0 0 0 0 0 0 0 0 0 0 0 0 0 0 0 0 0 0 0 0 0 0 0 0 0 0 0 0 0 0 0 0 0 0 0 0 0 0 0 0 0 0 0 0 0 0 0 0 0 0 0 0 0 0 0 0 0 0 0 0 0 0 0 0 0 0 0 0 0 0 0 0 0 0 0 0 0 0 0 0 0 0 0 0 0 0 0 0 0 0 0 0 0 0 0 0 0 0 0 0 0 0 0 0 0 0 0 0 0 180 124 127 0 0 0 0 0 0 0 0 0 0 0 0 0 0 0 0 0 0 0 0 0 0 0 0 0 0 0 0 0 0 0 0 0 0 0 0 0 0 0 0 0 0 0 0 0 0 0 0 0 0 0 0 0 0 0 0 0 0 0 0 0 0 0 0 0 0 0 0 0 0 0 0 0 0 0 0 0 0 0 0 0 0 0 0 0 0 0 0 0 0 0 0 0 0 0 0 0 0 0 0 0 0 0 0 0 0 0 0 0 0 0 0 0 0 0 0 0 0 0 0 0 0 0 0 0 0 0 0 0 0 0 0 0 0 0 0 0 0 0 0 0
0 0 0 0 0 0 0 0 0 0 0 0 0 0 0 0 0 0 0 0 0 0 0 0 0 0 0 0 0 0 0 0 0 0 0 0 0 0 0 0 0 0 0 0 0 0 0 0 0 0 0 0 0 0 0 0 0 0 0 0 0 0 0 0 0 0 0 0 0 0 0 0 0 0 0 0 0 0 0 0 0 0 0 0 0 0 0 0 0 0 0 0 0 0 0 0 0 0 0 0 0 0 0 0 0 0 0 0 0 0 0 0 0 0 0 0 0 0 0 0 0 0 0 0 0 0 0 0 0 0 0 0 0 0 0 97 55 57 178 121 124 178 121 124 178 121 124 178 121 124 178 121 124 97 55 57 0 0 0 0 0 0 0 0 0 0 0 0 0 0 0 0 0 0 0 0 0 0 0 0 0 0 0 0 0 0 0 0 0 0 0 0 0 0 0 0 0 0 0 0 0 0 0 0 0 0 0 0 0 0 0 0 0 0 0 0 0 0 0 0 0 0 0 0 0 0 0 0 0 0 0 0 0 0 0 0 0 0 0 0 0 0 0 0 0 0 0 0 0 0 0 0 0 0 0 0 0 0 0 0 0 0 0 0 0 0 0 0 0 0 0 0 0 0 0 0 0 0 0 0 0 0 0 0 0 0 0 0
0 0 0 0 0 0 0 0 0 0 0 0 0 0 0 0 0 0 0 0 0 0 0 0 0 0 0 0 0 0 0 0 0 0 0 0 0 0 0 0 0 0 0 0 0 0 0 0 0 0 0 0 0 0 0 0 0 0 0 0 0 0 0 0 0 0 0 0 0 0 0 0 0 0 0 0 0 0 0 0 0 0 0 0 0 0 0 0 0 0 0 0 0 0 0 0 0 0 0 0 0 0 0 0 0 0 0 0 0 0 0 0 0 0 0 0 0 0 0 0 0 0 0 0 0 0 97 55 57 177 118 121 177 118 121 177 118 121 177 118 121 177 118 121 177 118 121 177 118 121 177 118 121 177 118 121 177 118 121 177 118 121 97 55 57 0 0 0 0 0 0 0 0 0 0 0 0 0 0 0 0 0 0 0 0 0 0 0 0 0 0 0 0 0 0 0 0 0 0 0 0 0 0 0 0 0 0 0 0 0 0 0 0 0 0 0 0 0 0 0 0 0 0 0 0 0 0 0 0 0 0 0 0 0 0 0 0 0 0 0 0 0 0 0 0 0 0 0 0 0 0 0 0 0 0 0 0 0 0 0 0 0 0 0 0 0 0 0 0 0 0 0 0 0 0 0 0 0 0 0 0 0 0 0 0 0 0 0
0 0 0 0 0 0 0 0 0 0 0 0 0 0 0 0 0 0 0 0 0 0 0 0 0 0 0 0 0 0 0 0 0 0 0 0 0 0 0 0 0 0 0 0 0 0 0 0 0 0 0 0 0 0 0 0 0 0 0 0 0 0 0 0 0 0 0 0 0 0 0 0 0 0 0 0 0 0 0 0 0 0 0 0 0 0 0 0 0 0 0 0 0 0 0 0 0 0 0 0 0 0 0 0 0 0 0 0 0 0 0 0 0 0 0 0 0 97 55 57 175 116 119 175 116 119 175 116 119 175 116 119 175 116 119 175 116 119 175 116 119 175 116 119 175 116 119 175 116 119 175 116 119 175 116 119 175 116 119 175 116 119 175 116 119 175 116 119 175 116 119 97 55 57 204 188 122 204 188 122 204 188 122 204 188 122 204 188 122 204 188 122 204 188 122 204 188 122 204 188 122 204 188 122 204 188 122 204 188 122 204 188 122 204 188 122 204 188 122 204 188 122 0 0 0 0 0 0 0 0 0 0 0 0 0 0 0 0 0 0 0 0 0 0 0 0 0 0 0 0 0 0 0 0 0 0 0 0 0 0 0 0 0 0 0 0 0 0 0 0 0 0 0 0 0 0 0 0 0 0 0 0 0 0 0 0 0 0
0 0 0 0 0 0 0 0 0 0 0 0 0 0 0 0 0 0 0 0 0 0 0 0 0 0 0 0 0 0 0 0 0 0 0 0 0 0 0 0 0 0 0 0 0 0 0 0 0 0 0 0 0 0 0 0 0 0 0 0 0 0 0 0 0 0 0 0 0 0 0 0 0 0 0 0 0 0 0 0 0 0 0 0 0 0 0 0 0 0 0 0 0 0 0 0 0 0 0 0 0 0 0 0 0 0 0 0 97 55 57 174 113 116 174 113 116 174 113 116 174 113 116 174 113 116 174 113 116 174 113 116 174 113 116 174 113 116 174 113 116 174 113 116 174 113 116 174 113 116 174 113 116 174 113 116 174 113 116 174 113 116 174 113 116 174 113 116 174 113 116 174 113 116 204 188 122 204 188 122 204 188 122 204 188 122 204 188 122 204 188 122 204 188 122 204 188 122 204 188 122 204 188 122 204 188 122 204 188 122 204 188 122 204 188 122 204 188 122 204 188 122 0 0 0 0 0 0 0 0 0 0 0 0 0 0 0 0 0 0 0 0 0 0 0 0 0 0 0 0 0 0 0 0 0 0 0 0 0 0 0 0 0 0 0 0 0 0 0 0 0 0 0 0 0 0 0 0 0 0 0 0 0 0 0 0 0 0
0 0 0 0 0 0 0 0 0 0 0 0 0 0 0 0 0 0 0 0 0 0 0 0 0 0 0 0 0 0 0 0 0 0 0 0 0 0 0 0 0 0 0 0 0 0 0 0 0 0 0 0 0 0 0 0 0 0 0 0 0 0 0 0 0 0 0 0 0 0 0 0 0 0 0 0 0 0 0 0 0 0 0 0 0 0 0 0 0 0 0 0 0 0 0 0 0 0 0 97 55 57 172 110 113 172 110 113 172 110 113 172 110 113 172 110 113 172 110 113 172 110 113 172 110 113 172 110 113 172 110 113 172 110 113 172 110 113 172 110 113 172 110 113 172 110 113 172 110 113 172 110 113 172 110 113 172 110 113 172 110 113 172 110 113 172 110 113 172 110 113 172 110 113 204 188 122 204 188 122 204 188 122 204 188 122 204 188 122 204 188 122 204 188 122 204 188 122 204 188 122 204 188 122 204 188 122 204 188 122 204 188 122 204 188 122 204 188 122 204 188 122 0 0 0 0 0 0 0 0 0 0 0 0 0 0 0 0 0 0 0 0 0 0 0 0 0 0 0 0 0 0 0 0 0 0 0 0 0 0 0 0 0 0 0 0 0 0 0 0 0 0 0 0 0 0 0 0 0 0 0 0 0 0 0 0 0 0
0 0 0 0 0 0 0 0 0 0 0 0 0 0 0 0 0 0 0 0 0 0 0 0 0 0 0 0 0 0 0 0 0 0 0 0 0 0 0 0 0 0 0 0 0 0 0 0 0 0 0 0 0 0 0 0 0 0 0 0 0 0 0 0 0 0 0 0 0 0 0 0 0 0 0 0 0 0 0 0 0 0 0 0 0 0 0 0 0 0 97 55 57 171 108 111 171 108 111 171 108 111 171 108 111 171 108 111 171 108 111 171 108 111 171 108 111 171 108 111 171 108 111 171 108 111 171 108 111 171 108 111 171 108 111 171 108 111 171 108 111 171 108 111 171 108 111 171 108 111 171 108 111 171 108 111 171 108 111 171 108 111 171 108 111 171 108 111 171 108 111 171 108 111 171 108 111 171 108 111 171 108 111 171 108 111 171 108 111 171 108 111 18 16 6 18 16 6 18 16 6 18 16 6 0 0 0 0 0 0 0 0 0 0 0 0 0 0 0 0 0 0 0 0 0 0 0 0 0 0 0 0 0 0 0 0 0 0 0 0 0 0 0 0 0 0 0 0 0 0 0 0 0 0 0 0 0 0 0 0 0 0 0 0 0 0 0 0 0 0 0 0 0 0 0 0 0 0 0 0 0 0 0 0 0 0 0 0
0 0 0 0 0 0 0 0 0 0 0 0 0 0 0 0 0 0 0 0 0 0 0 0 0 0 0 0 0 0 0 0 0 0 0 0 0 0 0 0 0 0 0 0 0 0 0 0 0 0 0 0 0 0 0 0 0 0 0 0 0 0 0 0 0 0 0 0 0 0 0 0 0 0 0 0 0 0 0 0 0 97 55 57 169 105 108 169 105 108 169 105 108 169 105 108 169 105 108 169 105 108 169 105 108 169 105 108 169 105 108 169 105 108 169 105 108 169 105 108 169 105 108 169 105 108 169 105 108 169 105 108 169 105 108 169 105 108 169 105 108 169 105 108 169 105 108 169 105 108 169 105 108 169 105 108 169 105 108 169 105 108 169 105 108 169 105 108 169 105 108 169 105 108 169 105 108 169 105 108 169 105 108 169 105 108 169 105 108 169 105 108 18 16 6 18 16 6 18 16 6 18 16 6 169 105 108 97 55 57 0 0 0 0 0 0 0 0 0 0 0 0 0 0 0 0 0 0 0 0 0 0 0 0 0 0 0 0 0 0 0 0 0 0 0 0 0 0 0 0 0 0 0 0 0 0 0 0 0 0 0 0 0 0 0 0 0 0 0 0 0 0 0 0 0 0 0 0 0 0 0 0 0 0 0 0 0 0
0 0 0 0 0 0 0 0 0 0 0 0 0 0 0 0 0 0 0 0 0 0 0 0 0 0 0 0 0 0 0 0 0 0 0 0 0 0 0 0 0 0 0 0 0 0 0 0 0 0 0 0 0 0 0 0 0 0 0 0 0 0 0 0 0 0 0 0 0 0 0 0 97 55 57 168 102 105 168 102 105 168 102 105 168 102 105 168 102 105 168 102 105 168 102 105 168 102 105 168 102 105 168 102 105 168 102 105 168 102 105 168 102 105 168 102 105 168 102 105 168 102 105 168 102 105 168 102 105 168 102 105 168 102 105 168 102 105 168 102 105 168 102 105 168 102 105 168 102 105 168 102 105 168 102 105 168 102 105 168 102 105 168 102 105 168 102 105 168 102 105 168 102 105 168 102 105 168 102 105 168 102 105 168 102 105 168 102 105 168 102 105 18 16 6 18 16 6 18 16 6 18 16 6 168 102 105 168 102 105 168 102 105 168 102 105 97 55 57 0 0 0 0 0 0 0 0 0 0 0 0 0 0 0 0 0 0 0 0 0 0 0 0 0 0 0 0 0 0 0 0 0 0 0 0 0 0 0 0 0 0 0 0 0 0 0 0 0 0 0 0 0 0 0 0 0 0 0 0 0 0 0 0 0 0 0 0 0
0 0 0 0 0 0 0 0 0 0 0 0 0 0 0 0 0 0 0 0 0 0 0 0 0 0 0 0 0 0 0 0 0 0 0 0 0 0 0 0 0 0 0 0 0 0 0 0 0 0 0 0 0 0 0 0 0 0 0 0 0 0 0 97 55 57 216 177 90 216 177 90 216 177 90 216 177 90 216 177 90 216 177 90 216 177 90 216 177 90 216 177 90 216 177 90 216 177 90 216 177 90 166 100 103 166 100 103 166 100 103 166 100 103 166 100 103 166 100 103 166 100 103 166 100 103 166 100 103 166 100 103 166 100 103 166 100 103 166 100 103 166 100 103 166 100 103 166 100 103 166 100 103 166 100 103 166 100 103 166 100 103 166 100 103 166 100 103 166 100 103 166 100 103 166 100 103 166 100 103 166 100 103 166 100 103 166 100 103 166 100 103 18 16 6 18 16 6 18 16 6 18 16 6 166 100 103 166 100 103 166 100 103 166 100 103 166 100 103 166 100 103 166 100 103 97 55 57 0 0 0 0 0 0 0 0 0 0 0 0 0 0 0 0 0 0 0 0 0 0 0 0 0 0 0 0 0 0 0 0 0 0 0 0 0 0 0 0 0 0 0 0 0 0 0 0 0 0 0 0 0 0 0 0 0 0 0 0
0 0 0 0 0 0 0 0 0 0 0 0 0 0 0 0 0 0 0 0 0 0 0 0 0 0 0 0 0 0 0 0 0 0 0 0 0 0 0 0 0 0 0 0 0 0 0 0 0 0 0 0 0 0 97 55 57 165 97 100 165 97 100 165 97 100 216 177 90 216 177 90 216 177 90 216 177 90 216 177 90 216 177 90 216 177 90 216 177 90 216 177 90 216 177 90 216 177 90 216 177 90 165 97 100 165 97 100 165 97 100 165 97 100 165 97 100 165 97 100 165 97 100 165 97 100 165 97 100 165 97 100 165 97 100 165 97 100 165 97 100 165 97 100 165 97 100 165 97 100 165 97 100 165 97 100 165 97 100 165 97 100 165 97 100 165 97 100 165 97 100 165 97 100 165 97 100 165 97 100 165 97 100 165 97 100 165 97 100 165 97 100 18 16 6 18 16 6 18 16 6 18 16 6 165 97 100 165 97 100 165 97 100 165 97 100 165 97 100 165 97 100 165 97 100 165 97 100 165 97 100 165 97 100 97 55 57 0 0 0 0 0 0 0 0 0 0 0 0 0 0 0 0 0 0 0 0 0 0 0 0 0 0 0 0 0 0 0 0 0 0 0 0 0 0 0 0 0 0 0 0 0 0 0 0 0 0 0
0 0 0 0 0 0 0 0 0 0 0 0 0 0 0 0 0 0 0 0 0 0 0 0 0 0 0 0 0 0 0 0 0 0 0 0 0 0 0 0 0 0 0 0 0 97 55 57 163 94 97 163 94 97 163 94 97 163 94 97 163 94 97 163 94 97 216 177 90 216 177 90 216 177 90 216 177 90 216 177 90 216 177 90 216 177 90 216 177 90 216 177 90 216 177 90 216 177 90 216 177 90 163 94 97 163 94 97 163 94 97 163 94 97 163 94 97 163 94 97 163 94 97 163 94 97 163 94 97 163 94 97 163 94 97 163 94 97 163 94 97 163 94 97 163 94 97 163 94 97 163 94 97 163 94 97 163 94 97 163 94 97 163 94 97 163 94 97 163 94 97 163 94 97 163 94 97 163 94 97 163 94 97 163 94 97 163 94 97 163 94 97 18 16 6 18 16 6 18 16 6 18 16 6 163 94 97 163 94 97 163 94 97 163 94 97 163 94 97 163 94 97 163 94 97 163 94 97 163 94 97 163 94 97 163 94 97 163 94 97 163 94 97 97 55 57 0 0 0 0 0 0 0 0 0 0 0 0 0 0 0 0 0 0 0 0 0 0 0 0 0 0 0 0 0 0 0 0 0 0 0 0 0 0 0 0 0 0
0 0 0 0 0 0 0 0 0 0 0 0 0 0 0 0 0 0 0 0 0 0 0 0 0 0 0 0 0 0 0 0 0 97 55 57 162 92 95 162 92 95 162 92 95 162 92 95 162 92 95 162 92 95 162 92 95 162 92 95 162 92 95 162 92 95 162 92 95 162 92 95 162 92 95 162 92 95 162 92 95 68 58 51 137 122 113 68 58 51 162 92 95 162 92 95 162 92 95 162 92 95 162 92 95 162 92 95 162 92 95 162 92 95 162 92 95 162 92 95 162 92 95 162 92 95 162 92 95 162 92 95 162 92 95 162 92 95 162 92 95 162 92 95 162 92 95 162 92 95 162 92 95 162 92 95 162 92 95 162 92 95 162 92 95 162 92 95 162 92 95 162 92 95 162 92 95 162 92 95 162 92 95 162 92 95 162 92 95 162 92 95 18 16 6 18 16 6 18 16 6 18 16 6 162 92 95 162 92 95 162 92 95 162 92 95 162 92 95 162 92 95 162 92 95 162 92 95 162 92 95 162 92 95 162 92 95 162 92 95 162 92 95 162 92 95 162 92 95 162 92 95 162 92 95 97 55 57 0 0 0 0 0 0 0 0 0 0 0 0 0 0 0 0 0 0 0 0 0 0 0 0 0 0 0 0 0 0
0 0 0 0 0 0 0 0 0 0 0 0 0 0 0 0 0 0 0 0 0 0 0 0 0 0 0 0 0 0 0 0 0 83 31 33 83 31 33 0 0 0 0 0 0 97 55 57 156 88 91 156 88 91 156 88 91 156 88 91 156 88 91 156 88 91 156 88 91 156 88 91 156 88 91 68 58 51 132 117 108 132 117 108 132 117 108 132 117 108 132 117 108 68 58 51 156 88 91 156 88 91 156 88 91 156 88 91 156 88 91 156 88 91 156 88 91 156 88 91 156 88 91 156 88 91 156 88 91 156 88 91 156 88 91 156 88 91 156 88 91 156 88 91 156 88 91 156 88 91 156 88 91 156 88 91 156 88 91 156 88 91 156 88 91 156 88 91 156 88 91 156 88 91 156 88 91 156 88 91 156 88 91 156 88 91 156 88 91 156 88 91 18 16 6 18 16 6 18 16 6 18 16 6 156 88 91 156 88 91 156 88 91 156 88 91 156 88 91 156 88 91 156 88 91 156 88 91 156 88 91 156 88 91 156 88 91 156 88 91 156 88 91 97 55 57 0 0 0 92 34 37 92 34 37 0 0 0 0 0 0 0 0 0 0 0 0 0 0 0 0 0 0 0 0 0 0 0 0 0 0 0 0 0 0 0 0 0
0 0 0 0 0 0 0 0 0 0 0 0 0 0 0 0 0 0 0 0 0 0 0 0 0 0 0 0 0 0 0 0 0 83 31 33 83 31 33 83 31 33 83 31 33 83 31 33 0 0 0 0 0 0 97 55 57 151 85 88 151 85 88 151 85 88 151 85 88 151 85 88 68 58 51 128 112 102 128 112 102 128 112 102 128 112 102 128 112 102 128 112 102 128 112 102 68 58 51 151 85 88 151 85 88 151 85 88 151 85 88 151 85 88 151 85 88 151 85 88 151 85 88 151 85 88 151 85 88 151 85 88 151 85 88 151 85 88 151 85 88 151 85 88 151 85 88 151 85 88 151 85 88 151 85 88 151 85 88 151 85 88 151 85 88 151 85 88 151 85 88 151 85 88 151 85 88 151 85 88 151 85 88 151 85 88 151 85 88 151 85 88 18 16 6 18 16 6 18 16 6 18 16 6 151 85 88 151 85 88 151 85 88 151 85 88 151 85 88 151 85 88 151 85 88 151 85 88 151 85 88 151 85 88 97 55 57 0 0 0 92 34 37 92 34 37 92 34 37 92 34 37 92 34 37 0 0 0 0 0 0 0 0 0 0 0 0 0 0 0 0 0 0 0 0 0 0 0 0 0 0 0 0 0 0 0 0 0
0 0 0 0 0 0 0 0 0 0 0 0 0 0 0 0 0 0 0 0 0 0 0 0 0 0 0 0 0 0 0 0 0 83 31 33 83 31 33 83 31 33 83 31 33 83 31 33 83 31 33 83 31 33 83 31 33 0 0 0 0 0 0 97 55 57 68 58 51 123 107 97 123 107 97 123 107 97 123 107 97 123 107 97 123 107 97 123 107 97 123 107 97 123 107 97 123 107 97 123 107 97 68 58 51 145 82 85 145 82 85 145 82 85 145 82 85 145 82 85 145 82 85 145 82 85 145 82 85 145 82 85 145 82 85 145 82 85 145 82 85 145 82 85 145 82 85 145 82 85 145 82 85 145 82 85 145 82 85 145 82 85 145 82 85 145 82 85 145 82 85 145 82 85 145 82 85 145 82 85 145 82 85 145 82 85 145 82 85 145 82 85 18 16 6 18 16 6 18 16 6 18 16 6 145 82 85 145 82 85 145 82 85 145 82 85 145 82 85 145 82 85 145 82 85 97 55 57 0 0 0 92 34 37 92 34 37 92 34 37 92 34 37 92 34 37 92 34 37 92 34 37 92 34 37 0 0 0 0 0 0 0 0 0 0 0 0 0 0 0 0 0 0 0 0 0 0 0 0 0 0 0 0 0 0 0 0 0
0 0 0 0 0 0 0 0 0 0 0 0 0 0 0 0 0 0 0 0 0 0 0 0 0 0 0 0 0 0 0 0 0 83 31 33 83 31 33 83 31 33 83 31 33 83 31 33 83 31 33 83 31 33 83 31 33 83 31 33 83 31 33 68 58 51 118 102 91 118 102 91 118 102 91 118 102 91 118 102 91 118 102 91 118 102 91 118 102 91 118 102 91 118 102 91 118 102 91 118 102 91 118 102 91 68 58 51 140 79 82 140 79 82 140 79 82 140 79 82 140 79 82 140 79 82 140 79 82 140 79 82 140 79 82 140 79 82 140 79 82 140 79 82 140 79 82 140 79 82 140 79 82 140 79 82 140 79 82 140 79 82 140 79 82 140 79 82 140 79 82 140 79 82 140 79 82 140 79 82 140 79 82 140 79 82 140 79 82 140 79 82 18 16 6 18 16 6 18 16 6 18 16 6 140 79 82 140 79 82 140 79 82 140 79 82 97 55 57 0 0 0 92 34 37 92 34 37 92 34 37 92 34 37 92 34 37 92 34 37 92 34 37 92 34 37 92 34 37 92 34 37 92 34 37 0 0 0 0 0 0 0 0 0 0 0 0 0 0 0 0 0 0 0 0 0 0 0 0 0 0 0 0 0 0 0 0 0
0 0 0 0 0 0 0 0 0 0 0 0 0 0 0 0 0 0 0 0 0 0 0 0 0 0 0 0 0 0 0 0 0 83 31 33 83 31 33 83 31 33 83 31 33 83 31 33 83 31 33 83 31 33 83 31 33 68 58 51 114 97 86 114 97 86 114 97 86 114 97 86 114 97 86 114 97 86 114 97 86 114 97 86 114 97 86 114 97 86 114 97 86 114 97 86 114 97 86 114 97 86 114 97 86 114 97 86 114 97 86 68 58 51 134 76 79 134 76 79 134 76 79 134 76 79 134 76 79 134 76 79 134 76 79 134 76 79 134 76 79 134 76 79 134 76 79 134 76 79 134 76 79 134 76 79 134 76 79 134 76 79 134 76 79 134 76 79 134 76 79 216 177 90 216 177 90 216 177 90 216 177 90 216 177 90 216 177 90 216 177 90 18 16 6 18 16 6 18 16 6 18 16 6 216 177 90 216 177 90 216 177 90 216 177 90 216 177 90 216 177 90 216 177 90 216 177 90 216 177 90 216 177 90 216 177 90 92 34 37 92 34 37 92 34 37 92 34 37 92 34 37 92 34 37 0 0 0 0 0 0 0 0 0 0 0 0 0 0 0 0 0 0 0 0 0 0 0 0 0 0 0 0 0 0 0 0 0
0 0 0 0 0 0 0 0 0 0 0 0 0 0 0 0 0 0 0 0 0 0 0 0 0 0 0 0 0 0 0 0 0 83 31 33 83 31 33 83 31 33 83 31 33 83 31 33 83 31 33 83 31 33 83 31 33 47 34 26 83 31 33 68 58 51 106 90 80 106 90 80 106 90 80 106 90 80 106 90 80 106 90 80 106 90 80 106 90 80 106 90 80 106 90 80 106 90 80 106 90 80 106 90 80 68 58 51 52 38 29 129 73 76 129 73 76 129 73 76 129 73 76 129 73 76 129 73 76 129 73 76 129 73 76 129 73 76 129 73 76 129 73 76 129 73 76 129 73 76 129 73 76 129 73 76 129 73 76 129 73 76 129 73 76 129 73 76 129 73 76 216 177 90 216 177 90 216 177 90 216 177 90 216 177 90 216 177 90 216 177 90 18 16 6 18 16 6 18 16 6 18 16 6 216 177 90 216 177 90 216 177 90 216 177 90 216 177 90 216 177 90 216 177 90 216 177 90 216 177 90 216 177 90 216 177 90 92 34 37 92 34 37 92 34 37 92 34 37 92 34 37 92 34 37 0 0 0 0 0 0 0 0 0 0 0 0 0 0 0 0 0 0 0 0 0 0 0 0 0 0 0 0 0 0 0 0 0
0 0 0 0 0 0 0 0 0 0 0 0 0 0 0 0 0 0 0 0 0 0 0 0 0 0 0 0 0 0 0 0 0 83 31 33 83 31 33 83 31 33 83 31 33 83 31 33 83 31 33 204 188 122 204 188 122 47 34 26 47 34 26 47 34 26 68 58 51 98 84 74 98 84 74 98 84 74 98 84 74 98 84 74 98 84 74 98 84 74 98 84 74 98 84 74 98 84 74 98 84 74 68 58 51 52 38 29 52 38 29 124 70 72 124 70 72 124 70 72 124 70 72 124 70 72 124 70 72 124 70 72 124 70 72 124 70 72 124 70 72 124 70 72 124 70 72 124 70 72 124 70 72 124 70 72 124 70 72 124 70 72 124 70 72 124 70 72 124 70 72 216 177 90 216 177 90 216 177 90 216 177 90 216 177 90 216 177 90 216 177 90 18 16 6 18 16 6 18 16 6 18 16 6 216 177 90 216 177 90 216 177 90 216 177 90 216 177 90 216 177 90 216 177 90 216 177 90 216 177 90 216 177 90 216 177 90 92 34 37 92 34 37 92 34 37 92 34 37 92 34 37 92 34 37 0 0 0 0 0 0 0 0 0 0 0 0 0 0 0 0 0 0 0 0 0 0 0 0 0 0 0 0 0 0 0 0 0
0 0 0 0 0 0 0 0 0 0 0 0 0 0 0 0 0 0 0 0 0 0 0 0 0 0 0 0 0 0 0 0 0 83 31 33 83 31 33 83 31 33 83 31 33 83 31 33 83 31 33 204 188 122 204 188 122 47 34 26 47 34 26 47 34 26 47 34 26 204 188 122 68 58 51 91 77 68 91 77 68 91 77 68 91 77 68 91 77 68 91 77 68 91 77 68 68 58 51 52 38 29 52 38 29 52 38 29 52 38 29 118 67 69 118 67 69 118 67 69 118 67 69 118 67 69 118 67 69 118 67 69 118 67 69 118 67 69 118 67 69 118 67 69 118 67 69 118 67 69 118 67 69 118 67 69 118 67 69 118 67 69 118 67 69 118 67 69 118 67 69 216 177 90 216 177 90 216 177 90 216 177 90 216 177 90 216 177 90 216 177 90 18 16 6 18 16 6 18 16 6 18 16 6 216 177 90 216 177 90 216 177 90 216 177 90 216 177 90 216 177 90 216 177 90 216 177 90 216 177 90 216 177 90 216 177 90 92 34 37 92 34 37 92 34 37 92 34 37 92 34 37 92 34 37 0 0 0 0 0 0 0 0 0 0 0 0 0 0 0 0 0 0 0 0 0 0 0 0 0 0 0 0 0 0 0 0 0
0 0 0 0 0 0 0 0 0 0 0 0 0 0 0 0 0 0 0 0 0 0 0 0 0 0 0 0 0 0 0 0 0 83 31 33 83 31 33 83 31 33 83 31 33 83 31 33 83 31 33 204 188 122 204 188 122 47 34 26 47 34 26 47 34 26 47 34 26 47 34 26 47 34 26 68 58 51 83 71 62 83 71 62 83 71 62 83 71 62 83 71 62 68 58 51 52 38 29 52 38 29 52 38 29 52 38 29 52 38 29 132 137 138 132 137 138 97 55 57 113 64 66 113 64 66 113 64 66 113 64 66 113 64 66 113 64 66 113 64 66 113 64 66 113 64 66 113 64 66 113 64 66 113 64 66 113 64 66 113 64 66 113 64 66 113 64 66 113 64 66 216 177 90 216 177 90 216 177 90 216 177 90 216 177 90 216 177 90 216 177 90 18 16 6 18 16 6 18 16 6 18 16 6 216 177 90 216 177 90 216 177 90 216 177 90 216 177 90 216 177 90 216 177 90 216 177 90 216 177 90 216 177 90 216 177 90 92 34 37 92 34 37 92 34 37 92 34 37 92 34 37 92 34 37 0 0 0 0 0 0 0 0 0 0 0 0 0 0 0 0 0 0 0 0 0 0 0 0 0 0 0 0 0 0 0 0 0
0 0 0 0 0 0 0 0 0 0 0 0 0 0 0 0 0 0 0 0 0 0 0 0 0 0 0 0 0 0 0 0 0 83 31 33 83 31 33 83 31 33 83 31 33 83 31 33 83 31 33 204 188 122 204 188 122 47 34 26 47 34 26 47 34 26 47 34 26 47 34 26 47 34 26 47 34 26 204 188 122 68 58 51 75 64 56 68 58 51 52 38 29 52 38 29 52 38 29 52 38 29 52 38 29 52 38 29 52 38 29 83 31 33 83 31 33 131 135 136 131 135 136 131 135 136 97 55 57 107 61 63 107 61 63 107 61 63 107 61 63 107 61 63 107 61 63 107 61 63 107 61 63 107 61 63 107 61 63 107 61 63 97 55 57 131 135 136 131 135 136 92 34 37 43 27 23 43 27 23 43 27 23 43 27 23 43 27 23 43 27 23 18 16 6 18 16 6 18 16 6 18 16 6 43 27 23 43 27 23 43 27 23 43 27 23 43 27 23 43 27 23 43 27 23 43 27 23 92 34 37 92 34 37 92 34 37 92 34 37 92 34 37 92 34 37 92 34 37 92 34 37 92 34 37 0 0 0 0 0 0 0 0 0 0 0 0 0 0 0 0 0 0 0 0 0 0 0 0 0 0 0 0 0 0 0 0 0
0 0 0 0 0 0 0 0 0 0 0 0 0 0 0 0 0 0 0 0 0 0 0 0 0 0 0 0 0 0 0 0 0 83 31 33 83 31 33 83 31 33 83 31 33 83 31 33 83 31 33 204 188 122 204 188 122 47 34 26 47 34 26 47 34 26 47 34 26 47 34 26 47 34 26 47 34 26 47 34 26 47 34 26 52 38 29 52 38 29 52 38 29 52 38 29 52 38 29 52 38 29 52 38 29 52 38 29 52 38 29 83 31 33 83 31 33 83 31 33 83 31 33 83 31 33 129 134 135 129 134 135 129 134 135 97 55 57 102 58 60 102 58 60 102 58 60 102 58 60 102 58 60 97 55 57 129 134 135 129 134 135 92 34 37 92 34 37 92 34 37 92 34 37 43 27 23 43 27 23 43 27 23 43 27 23 43 27 23 43 27 23 43 27 23 43 27 23 43 27 23 43 27 23 43 27 23 43 27 23 43 27 23 43 27 23 43 27 23 43 27 23 43 27 23 43 27 23 92 34 37 92 34 37 92 34 37 92 34 37 92 34 37 92 34 37 92 34 37 92 34 37 92 34 37 0 0 0 0 0 0 0 0 0 0 0 0 0 0 0 0 0 0 0 0 0 0 0 0 0 0 0 0 0 0 0 0 0
0 0 0 0 0 0 0 0 0 0 0 0 0 0 0 0 0 0 0 0 0 0 0 0 0 0 0 0 0 0 0 0 0 83 31 33 83 31 33 83 31 33 83 31 33 83 31 33 83 31 33 204 188 122 204 188 122 47 34 26 47 34 26 47 34 26 47 34 26 47 34 26 47 34 26 47 34 26 47 34 26 47 34 26 52 38 29 52 38 29 52 38 29 52 38 29 52 38 29 52 38 29 52 38 29 52 38 29 52 38 29 83 31 33 83 31 33 83 31 33 83 31 33 83 31 33 83 31 33 83 31 33 83 31 33 128 132 133 128 132 133 128 132 133 97 55 57 128 132 133 128 132 133 92 34 37 92 34 37 92 34 37 92 34 37 92 34 37 92 34 37 92 34 37 43 27 23 43 27 23 43 27 23 43 27 23 43 27 23 43 27 23 43 27 23 43 27 23 43 27 23 43 27 23 43 27 23 43 27 23 43 27 23 43 27 23 43 27 23 43 27 23 43 27 23 43 27 23 92 34 37 92 34 37 92 34 37 92 34 37 92 34 37 92 34 37 92 34 37 92 34 37 92 34 37 0 0 0 0 0 0 0 0 0 0 0 0 0 0 0 0 0 0 0 0 0 0 0 0 0 0 0 0 0 0 0 0 0
0 0 0 0 0 0 0 0 0 0 0 0 0 0 0 0 0 0 0 0 0 0 0 0 0 0 0 0 0 0 0 0 0 83 31 33 83 31 33 83 31 33 83 31 33 83 31 33 83 31 33 83 31 33 83 31 33 47 34 26 47 34 26 47 34 26 47 34 26 47 34 26 47 34 26 47 34 26 47 34 26 47 34 26 52 38 29 52 38 29 52 38 29 52 38 29 52 38 29 52 38 29 52 38 29 52 38 29 52 38 29 83 31 33 83 31 33 83 31 33 83 31 33 83 31 33 83 31 33 83 31 33 83 31 33 83 31 33 83 31 33 83 31 33 92 34 37 92 34 37 92 34 37 92 34 37 92 34 37 92 34 37 92 34 37 92 34 37 92 34 37 92 34 37 92 34 37 92 34 37 92 34 37 92 34 37 92 34 37 92 34 37 92 34 37 92 34 37 92 34 37 92 34 37 92 34 37 92 34 37 92 34 37 92 34 37 92 34 37 92 34 37 92 34 37 92 34 37 92 34 37 92 34 37 92 34 37 92 34 37 92 34 37 92 34 37 92 34 37 92 34 37 92 34 37 0 0 0 0 0 0 0 0 0 0 0 0 0 0 0 0 0 0 0 0 0 0 0 0 0 0 0 0 0 0 0 0 0
0 0 0 0 0 0 0 0 0 0 0 0 0 0 0 0 0 0 0 0 0 0 0 0 0 0 0 0 0 0 0 0 0 83 31 33 83 31 33 83 31 33 83 31 33 83 31 33 83 31 33 83 31 33 83 31 33 47 34 26 47 34 26 47 34 26 47 34 26 47 34 26 47 34 26 47 34 26 47 34 26 47 34 26 52 38 29 52 38 29 52 38 29 52 38 29 52 38 29 52 38 29 52 38 29 52 38 29 52 38 29 83 31 33 83 31 33 83 31 33 83 31 33 83 31 33 83 31 33 83 31 33 83 31 33 83 31 33 83 31 33 83 31 33 92 34 37 92 34 37 92 34 37 92 34 37 92 34 37 92 34 37 92 34 37 92 34 37 92 34 37 92 34 37 92 34 37 92 34 37 92 34 37 92 34 37 92 34 37 92 34 37 92 34 37 92 34 37 92 34 37 92 34 37 92 34 37 92 34 37 92 34 37 92 34 37 92 34 37 92 34 37 92 34 37 92 34 37 92 34 37 92 34 37 92 34 37 92 34 37 92 34 37 92 34 37 92 34 37 92 34 37 92 34 37 0 0 0 0 0 0 0 0 0 0 0 0 0 0 0 0 0 0 0 0 0 0 0 0 0 0 0 0 0 0 0 0 0
0 0 0 0 0 0 0 0 0 0 0 0 0 0 0 0 0 0 0 0 0 0 0 0 0 0 0 0 0 0 0 0 0 0 0 0 0 0 0 0 0 0 83 31 33 83 31 33 83 31 33 83 31 33 83 31 33 47 34 26 47 34 26 47 34 26 47 34 26 47 34 26 47 34 26 47 34 26 47 34 26 47 34 26 52 38 29 52 38 29 52 38 29 52 38 29 52 38 29 52 38 29 52 38 29 52 38 29 52 38 29 83 31 33 83 31 33 83 31 33 83 31 33 83 31 33 83 31 33 83 31 33 83 31 33 83 31 33 83 31 33 83 31 33 92 34 37 92 34 37 92 34 37 92 34 37 92 34 37 92 34 37 92 34 37 92 34 37 92 34 37 92 34 37 92 34 37 92 34 37 92 34 37 92 34 37 92 34 37 92 34 37 92 34 37 92 34 37 92 34 37 92 34 37 92 34 37 92 34 37 92 34 37 92 34 37 92 34 37 92 34 37 92 34 37 92 34 37 92 34 37 92 34 37 92 34 37 92 34 37 92 34 37 92 34 37 0 0 0 0 0 0 0 0 0 0 0 0 0 0 0 0 0 0 0 0 0 0 0 0 0 0 0 0 0 0 0 0 0 0 0 0 0 0 0 0 0 0
0 0 0 0 0 0 0 0 0 0 0 0 0 0 0 0 0 0 0 0 0 0 0 0 0 0 0 0 0 0 0 0 0 0 0 0 0 0 0 0 0 0 0 0 0 0 0 0 0 0 0 83 31 33 83 31 33 47 34 26 47 34 26 47 34 26 47 34 26 47 34 26 47 34 26 47 34 26 47 34 26 47 34 26 52 38 29 52 38 29 52 38 29 52 38 29 52 38 29 52 38 29 52 38 29 52 38 29 52 38 29 83 31 33 83 31 33 83 31 33 83 31 33 83 31 33 83 31 33 83 31 33 83 31 33 83 31 33 83 31 33 83 31 33 92 34 37 92 34 37 92 34 37 92 34 37 92 34 37 92 34 37 92 34 37 92 34 37 92 34 37 92 34 37 92 34 37 92 34 37 92 34 37 92 34 37 92 34 37 92 34 37 92 34 37 92 34 37 92 34 37 92 34 37 92 34 37 92 34 37 92 34 37 92 34 37 92 34 37 92 34 37 92 34 37 92 34 37 92 34 37 92 34 37 92 34 37 0 0 0 0 0 0 0 0 0 0 0 0 0 0 0 0 0 0 0 0 0 0 0 0 0 0 0 0 0 0 0 0 0 0 0 0 0 0 0 0 0 0 0 0 0 0 0 0 0 0 0
0 0 0 0 0 0 0 0 0 0 0 0 0 0 0 0 0 0 0 0 0 0 0 0 0 0 0 0 0 0 0 0 0 0 0 0 0 0 0 0 0 0 0 0 0 0 0 0 0 0 0 55 59 60 55 59 60 47 34 26 47 34 26 47 34 26 47 34 26 47 34 26 47 34 26 47 34 26 47 34 26 47 34 26 52 38 29 52 38 29 52 38 29 52 38 29 52 38 29 52 38 29 52 38 29 52 38 29 52 38 29 83 31 33 83 31 33 83 31 33 83 31 33 83 31 33 83 31 33 83 31 33 83 31 33 83 31 33 83 31 33 83 31 33 92 34 37 92 34 37 92 34 37 92 34 37 92 34 37 92 34 37 92 34 37 92 34 37 92 34 37 92 34 37 92 34 37 92 34 37 92 34 37 92 34 37 92 34 37 92 34 37 92 34 37 92 34 37 92 34 37 92 34 37 92 34 37 92 34 37 92 34 37 92 34 37 92 34 37 92 34 37 92 34 37 92 34 37 62 66 67 62 66 67 62 66 67 0 0 0 0 0 0 0 0 0 0 0 0 0 0 0 0 0 0 0 0 0 0 0 0 0 0 0 0 0 0 0 0 0 0 0 0 0 0 0 0 0 0 0 0 0 0 0 0 0 0 0
0 0 0 0 0 0 0 0 0 0 0 0 0 0 0 0 0 0 0 0 0 0 0 0 0 0 0 0 0 0 0 0 0 0 0 0 0 0 0 0 0 0 0 0 0 0 0 0 0 0 0 55 59 60 55 59 60 47 34 26 47 34 26 47 34 26 47 34 26 47 34 26 47 34 26 47 34 26 47 34 26 47 34 26 52 38 29 52 38 29 52 38 29 52 38 29 52 38 29 52 38 29 52 38 29 52 38 29 52 38 29 83 31 33 83 31 33 83 31 33 83 31 33 83 31 33 83 31 33 83 31 33 83 31 33 83 31 33 83 31 33 83 31 33 92 34 37 92 34 37 92 34 37 92 34 37 92 34 37 92 34 37 92 34 37 92 34 37 92 34 37 92 34 37 92 34 37 92 34 37 92 34 37 92 34 37 92 34 37 92 34 37 92 34 37 92 34 37 92 34 37 92 34 37 92 34 37 92 34 37 92 34 37 92 34 37 92 34 37 62 66 67 62 66 67 62 66 67 62 66 67 62 66 67 62 66 67 0 0 0 0 0 0 0 0 0 0 0 0 0 0 0 0 0 0 0 0 0 0 0 0 0 0 0 0 0 0 0 0 0 0 0 0 0 0 0 0 0 0 0 0 0 0 0 0 0 0 0
0 0 0 0 0 0 0 0 0 0 0 0 0 0 0 0 0 0 0 0 0 0 0 0 0 0 0 0 0 0 0 0 0 0 0 0 0 0 0 0 0 0 0 0 0 0 0 0 0 0 0 55 59 60 55 59 60 47 34 26 47 34 26 47 34 26 47 34 26 47 34 26 47 34 26 47 34 26 47 34 26 47 34 26 52 38 29 52 38 29 52 38 29 52 38 29 52 38 29 52 38 29 52 38 29 52 38 29 52 38 29 83 31 33 83 31 33 83 31 33 83 31 33 83 31 33 83 31 33 83 31 33 83 31 33 83 31 33 83 31 33 83 31 33 92 34 37 92 34 37 92 34 37 92 34 37 92 34 37 92 34 37 92 34 37 92 34 37 92 34 37 92 34 37 92 34 37 92 34 37 92 34 37 92 34 37 92 34 37 92 34 37 92 34 37 92 34 37 92 34 37 92 34 37 92 34 37 92 34 37 62 66 67 62 66 67 62 66 67 62 66 67 62 66 67 62 66 67 62 66 67 62 66 67 62 66 67 0 0 0 0 0 0 0 0 0 0 0 0 0 0 0 0 0 0 0 0 0 0 0 0 0 0 0 0 0 0 0 0 0 0 0 0 0 0 0 0 0 0 0 0 0 0 0 0 0 0 0
0 0 0 0 0 0 0 0 0 0 0 0 0 0 0 0 0 0 0 0 0 0 0 0 0 0 0 0 0 0 0 0 0 0 0 0 0 0 0 0 0 0 0 0 0 0 0 0 0 0 0 55 59 60 55 59 60 47 34 26 47 34 26 47 34 26 47 34 26 47 34 26 47 34 26 47 34 26 47 34 26 47 34 26 52 38 29 52 38 29 52 38 29 52 38 29 52 38 29 52 38 29 52 38 29 52 38 29 52 38 29 83 31 33 83 31 33 83 31 33 83 31 33 83 31 33 83 31 33 83 31 33 83 31 33 83 31 33 83 31 33 83 31 33 92 34 37 92 34 37 92 34 37 92 34 37 92 34 37 92 34 37 92 34 37 92 34 37 92 34 37 92 34 37 92 34 37 92 34 37 92 34 37 92 34 37 92 34 37 92 34 37 92 34 37 92 34 37 92 34 37 107 111 112 75 78 78 62 66 67 62 66 67 62 66 67 62 66 67 62 66 67 62 66 67 62 66 67 62 66 67 62 66 67 62 66 67 0 0 0 0 0 0 0 0 0 0 0 0 0 0 0 0 0 0 0 0 0 0 0 0 0 0 0 0 0 0 0 0 0 0 0 0 0 0 0 0 0 0 0 0 0 0 0 0 0 0 0
0 0 0 0 0 0 0 0 0 0 0 0 0 0 0 0 0 0 0 0 0 0 0 0 0 0 0 0 0 0 0 0 0 0 0 0 0 0 0 0 0 0 0 0 0 0 0 0 0 0 0 55 59 60 55 59 60 47 34 26 47 34 26 47 34 26 47 34 26 47 34 26 47 34 26 47 34 26 47 34 26 47 34 26 52 38 29 52 38 29 52 38 29 52 38 29 52 38 29 52 38 29 52 38 29 52 38 29 52 38 29 83 31 33 83 31 33 83 31 33 83 31 33 83 31 33 83 31 33 83 31 33 83 31 33 83 31 33 83 31 33 83 31 33 92 34 37 92 34 37 92 34 37 92 34 37 92 34 37 92 34 37 92 34 37 92 34 37 92 34 37 92 34 37 92 34 37 92 34 37 92 34 37 92 34 37 92 34 37 92 34 37 92 34 37 104 108 109 75 78 78 62 66 67 62 66 67 62 66 67 62 66 67 62 66 67 62 66 67 62 66 67 62 66 67 62 66 67 62 66 67 62 66 67 62 66 67 0 0 0 0 0 0 0 0 0 0 0 0 0 0 0 0 0 0 0 0 0 0 0 0 0 0 0 0 0 0 0 0 0 0 0 0 0 0 0 0 0 0 0 0 0 0 0 0 0 0 0
0 0 0 0 0 0 0 0 0 0 0 0 0 0 0 0 0 0 0 0 0 0 0 0 0 0 0 0 0 0 0 0 0 0 0 0 0 0 0 0 0 0 0 0 0 0 0 0 0 0 0 55 59 60 55 59 60 47 34 26 47 34 26 47 34 26 47 34 26 47 34 26 47 34 26 47 34 26 47 34 26 47 34 26 52 38 29 52 38 29 52 38 29 52 38 29 52 38 29 52 38 29 52 38 29 52 38 29 52 38 29 83 31 33 83 31 33 83 31 33 83 31 33 83 31 33 83 31 33 83 31 33 83 31 33 83 31 33 83 31 33 83 31 33 92 34 37 92 34 37 92 34 37 92 34 37 92 34 37 92 34 37 92 34 37 92 34 37 92 34 37 92 34 37 92 34 37 92 34 37 92 34 37 92 34 37 101 105 106 101 105 106 75 78 78 62 66 67 62 66 67 62 66 67 62 66 67 62 66 67 62 66 67 62 66 67 62 66 67 62 66 67 62 66 67 62 66 67 62 66 67 62 66 67 62 66 67 0 0 0 0 0 0 0 0 0 0 0 0 0 0 0 0 0 0 0 0 0 0 0 0 0 0 0 0 0 0 0 0 0 0 0 0 0 0 0 0 0 0 0 0 0 0 0 0 0 0 0
0 0 0 0 0 0 0 0 0 0 0 0 0 0 0 0 0 0 0 0 0 0 0 0 0 0 0 0 0 0 0 0 0 0 0 0 0 0 0 0 0 0 0 0 0 0 0 0 0 0 0 55 59 60 55 59 60 47 34 26 47 34 26 47 34 26 47 34 26 47 34 26 47 34 26 47 34 26 47 34 26 47 34 26 52 38 29 52 38 29 52 38 29 52 38 29 52 38 29 52 38 29 52 38 29 52 38 29 52 38 29 83 31 33 83 31 33 83 31 33 83 31 33 83 31 33 83 31 33 83 31 33 83 31 33 83 31 33 83 31 33 83 31 33 92 34 37 92 34 37 92 34 37 92 34 37 92 34 37 92 34 37 92 34 37 92 34 37 92 34 37 92 34 37 92 34 37 98 102 102 98 102 102 98 102 102 75 78 78 62 66 67 62 66 67 62 66 67 62 66 67 62 66 67 62 66 67 62 66 67 62 66 67 62 66 67 62 66 67 62 66 67 62 66 67 62 66 67 62 66 67 62 66 67 62 66 67 0 0 0 0 0 0 0 0 0 0 0 0 0 0 0 0 0 0 0 0 0 0 0 0 0 0 0 0 0 0 0 0 0 0 0 0 0 0 0 0 0 0 0 0 0 0 0 0 0 0 0
0 0 0 0 0 0 0 0 0 0 0 0 0 0 0 0 0 0 0 0 0 0 0 0 0 0 0 0 0 0 0 0 0 0 0 0 0 0 0 0 0 0 0 0 0 0 0 0 0 0 0 55 59 60 55 59 60 47 34 26 47 34 26 47 34 26 47 34 26 47 34 26 47 34 26 47 34 26 47 34 26 47 34 26 52 38 29 52 38 29 52 38 29 52 38 29 52 38 29 52 38 29 52 38 29 52 38 29 52 38 29 95 99 99 95 99 99 95 99 99 83 31 33 83 31 33 83 31 33 83 31 33 83 31 33 83 31 33 83 31 33 83 31 33 92 34 37 92 34 37 92 34 37 92 34 37 92 34 37 92 34 37 92 34 37 92 34 37 95 99 99 95 99 99 95 99 99 95 99 99 75 78 78 62 66 67 62 66 67 62 66 67 62 66 67 62 66 67 62 66 67 62 66 67 62 66 67 62 66 67 62 66 67 62 66 67 62 66 67 62 66 67 62 66 67 62 66 67 62 66 67 62 66 67 62 66 67 0 0 0 0 0 0 0 0 0 0 0 0 0 0 0 0 0 0 0 0 0 0 0 0 0 0 0 0 0 0 0 0 0 0 0 0 0 0 0 0 0 0 0 0 0 0 0 0 0 0 0
0 0 0 0 0 0 0 0 0 0 0 0 0 0 0 0 0 0 0 0 0 0 0 0 0 0 0 0 0 0 0 0 0 0 0 0 0 0 0 0 0 0 0 0 0 0 0 0 0 0 0 55 59 60 55 59 60 47 34 26 47 34 26 47 34 26 47 34 26 47 34 26 47 34 26 47 34 26 47 34 26 47 34 26 52 38 29 52 38 29 52 38 29 52 38 29 52 38 29 52 38 29 52 38 29 52 38 29 52 38 29 0 0 0 75 78 78 92 96 96 92 96 96 92 96 96 92 96 96 83 31 33 83 31 33 83 31 33 83 31 33 83 31 33 92 34 37 92 34 37 92 34 37 92 34 37 92 34 37 92 96 96 92 96 96 92 96 96 92 96 96 92 96 96 75 78 78 62 66 67 62 66 67 62 66 67 62 66 67 62 66 67 62 66 67 62 66 67 62 66 67 62 66 67 62 66 67 62 66 67 62 66 67 62 66 67 62 66 67 62 66 67 62 66 67 62 66 67 62 66 67 62 66 67 62 66 67 0 0 0 0 0 0 0 0 0 0 0 0 0 0 0 0 0 0 0 0 0 0 0 0 0 0 0 0 0 0 0 0 0 0 0 0 0 0 0 0 0 0 0 0 0 0 0 0 0 0 0
0 0 0 0 0 0 0 0 0 0 0 0 0 0 0 0 0 0 0 0 0 0 0 0 0 0 0 0 0 0 0 0 0 0 0 0 0 0 0 0 0 0 0 0 0 0 0 0 0 0 0 55 59 60 55 59 60 47 34 26 47 34 26 47 34 26 47 34 26 47 34 26 47 34 26 47 34 26 47 34 26 47 34 26 52 38 29 52 38 29 52 38 29 52 38 29 52 38 29 52 38 29 52 38 29 52 38 29 52 38 29 55 59 60 0 0 0 75 78 78 89 93 93 89 93 93 89 93 93 89 93 93 89 93 93 89 93 93 83 31 33 83 31 33 92 34 37 92 34 37 89 93 93 89 93 93 89 93 93 89 93 93 89 93 93 89 93 93 89 93 93 75 78 78 62 66 67 62 66 67 62 66 67 62 66 67 62 66 67 62 66 67 62 66 67 62 66 67 62 66 67 62 66 67 62 66 67 62 66 67 62 66 67 62 66 67 62 66 67 62 66 67 62 66 67 62 66 67 62 66 67 62 66 67 62 66 67 0 0 0 0 0 0 0 0 0 0 0 0 0 0 0 0 0 0 0 0 0 0 0 0 0 0 0 0 0 0 0 0 0 0 0 0 0 0 0 0 0 0 0 0 0 0 0 0 0 0 0
0 0 0 0 0 0 0 0 0 0 0 0 0 0 0 0 0 0 0 0 0 0 0 0 0 0 0 0 0 0 0 0 0 0 0 0 0 0 0 0 0 0 0 0 0 0 0 0 0 0 0 55 59 60 55 59 60 47 34 26 47 34 26 47 34 26 47 34 26 47 34 26 47 34 26 47 34 26 47 34 26 47 34 26 52 38 29 52 38 29 52 38 29 52 38 29 52 38 29 52 38 29 52 38 29 52 38 29 52 38 29 55 59 60 55 59 60 55 59 60 0 0 0 75 78 78 86 90 90 86 90 90 86 90 90 86 90 90 86 90 90 86 90 90 86 90 90 86 90 90 86 90 90 86 90 90 86 90 90 86 90 90 86 90 90 75 78 78 62 66 67 62 66 67 62 66 67 62 66 67 62 66 67 62 66 67 62 66 67 62 66 67 62 66 67 62 66 67 62 66 67 62 66 67 62 66 67 62 66 67 62 66 67 62 66 67 62 66 67 62 66 67 62 66 67 62 66 67 62 66 67 62 66 67 62 66 67 0 0 0 0 0 0 0 0 0 0 0 0 0 0 0 0 0 0 0 0 0 0 0 0 0 0 0 0 0 0 0 0 0 0 0 0 0 0 0 0 0 0 0 0 0 0 0 0 0 0 0
0 0 0 0 0 0 0 0 0 0 0 0 0 0 0 0 0 0 0 0 0 0 0 0 0 0 0 0 0 0 0 0 0 0 0 0 0 0 0 0 0 0 0 0 0 0 0 0 0 0 0 55 59 60 55 59 60 55 59 60 61 39 32 47 34 26 47 34 26 47 34 26 47 34 26 47 34 26 47 34 26 47 34 26 52 38 29 52 38 29 52 38 29 52 38 29 52 38 29 52 38 29 52 38 29 55 59 60 55 59 60 55 59 60 55 59 60 55 59 60 55 59 60 55 59 60 0 0 0 75 78 78 83 87 87 83 87 87 83 87 87 83 87 87 83 87 87 83 87 87 83 87 87 83 87 87 83 87 87 75 78 78 62 66 67 62 66 67 62 66 67 62 66 67 62 66 67 62 66 67 62 66 67 62 66 67 62 66 67 62 66 67 62 66 67 62 66 67 62 66 67 62 66 67 62 66 67 62 66 67 62 66 67 62 66 67 62 66 67 62 66 67 62 66 67 62 66 67 62 66 67 62 66 67 62 66 67 0 0 0 0 0 0 0 0 0 0 0 0 0 0 0 0 0 0 0 0 0 0 0 0 0 0 0 0 0 0 0 0 0 0 0 0 0 0 0 0 0 0 0 0 0 0 0 0 0 0 0
0 0 0 0 0 0 0 0 0 0 0 0 0 0 0 0 0 0 0 0 0 0 0 0 0 0 0 0 0 0 0 0 0 0 0 0 0 0 0 0 0 0 0 0 0 0 0 0 0 0 0 55 59 60 55 59 60 55 59 60 61 39 32 61 39 32 47 34 26 47 34 26 47 34 26 47 34 26 47 34 26 47 34 26 52 38 29 52 38 29 52 38 29 52 38 29 52 38 29 52 38 29 55 59 60 55 59 60 55 59 60 55 59 60 55 59 60 55 59 60 55 59 60 55 59 60 55 59 60 55 59 60 0 0 0 75 78 78 80 84 84 80 84 84 80 84 84 80 84 84 80 84 84 75 78 78 62 66 67 62 66 67 62 66 67 62 66 67 62 66 67 62 66 67 62 66 67 62 66 67 62 66 67 62 66 67 62 66 67 62 66 67 62 66 67 62 66 67 62 66 67 62 66 67 62 66 67 62 66 67 62 66 67 62 66 67 62 66 67 62 66 67 62 66 67 62 66 67 62 66 67 62 66 67 62 66 67 0 0 0 0 0 0 0 0 0 0 0 0 0 0 0 0 0 0 0 0 0 0 0 0 0 0 0 0 0 0 0 0 0 0 0 0 0 0 0 0 0 0 0 0 0 0 0 0 0 0 0
0 0 0 0 0 0 0 0 0 0 0 0 0 0 0 0 0 0 0 0 0 0 0 0 0 0 0 0 0 0 0 0 0 0 0 0 0 0 0 0 0 0 0 0 0 0 0 0 0 0 0 55 59 60 55 59 60 55 59 60 61 39 32 61 39 32 61 39 32 61 39 32 47 34 26 47 34 26 47 34 26 47 34 26 52 38 29 52 38 29 52 38 29 52 38 29 55 59 60 55 59 60 55 59 60 55 59 60 55 59 60 55 59 60 55 59 60 55 59 60 55 59 60 55 59 60 55 59 60 55 59 60 55 59 60 55 59 60 0 0 0 75 78 78 77 81 81 75 78 78 62 66 67 62 66 67 62 66 67 62 66 67 62 66 67 62 66 67 62 66 67 62 66 67 62 66 67 62 66 67 62 66 67 62 66 67 62 66 67 62 66 67 62 66 67 62 66 67 62 66 67 62 66 67 62 66 67 62 66 67 62 66 67 62 66 67 62 66 67 62 66 67 62 66 67 62 66 67 62 66 67 62 66 67 62 66 67 0 0 0 0 0 0 0 0 0 0 0 0 0 0 0 0 0 0 0 0 0 0 0 0 0 0 0 0 0 0 0 0 0 0 0 0 0 0 0 0 0 0 0 0 0 0 0 0 0 0 0
0 0 0 0 0 0 0 0 0 0 0 0 0 0 0 0 0 0 0 0 0 0 0 0 0 0 0 0 0 0 0 0 0 0 0 0 0 0 0 0 0 0 0 0 0 0 0 0 0 0 0 55 59 60 55 59 60 55 59 60 61 39 32 61 39 32 61 39 32 61 39 32 61 39 32 47 34 26 47 34 26 47 34 26 52 38 29 52 38 29 52 38 29 61 39 32 55 59 60 55 59 60 55 59 60 55 59 60 55 59 60 55 59 60 55 59 60 55 59 60 55 59 60 55 59 60 55 59 60 55 59 60 55 59 60 55 59 60 55 59 60 55 59 60 62 66 67 62 66 67 62 66 67 62 66 67 62 66 67 62 66 67 62 66 67 62 66 67 62 66 67 62 66 67 62 66 67 62 66 67 62 66 67 62 66 67 62 66 67 62 66 67 62 66 67 62 66 67 62 66 67 62 66 67 62 66 67 62 66 67 62 66 67 62 66 67 62 66 67 62 66 67 62 66 67 62 66 67 62 66 67 62 66 67 62 66 67 0 0 0 0 0 0 0 0 0 0 0 0 0 0 0 0 0 0 0 0 0 0 0 0 0 0 0 0 0 0 0 0 0 0 0 0 0 0 0 0 0 0 0 0 0 0 0 0 0 0 0
0 0 0 0 0 0 0 0 0 0 0 0 0 0 0 0 0 0 0 0 0 0 0 0 0 0 0 0 0 0 0 0 0 0 0 0 0 0 0 0 0 0 0 0 0 0 0 0 0 0 0 55 59 60 55 59 60 55 59 60 61 39 32 61 39 32 61 39 32 61 39 32 61 39 32 61 39 32 61 39 32 47 34 26 52 38 29 61 39 32 61 39 32 61 39 32 55 59 60 55 59 60 55 59 60 55 59 60 55 59 60 55 59 60 55 59 60 55 59 60 55 59 60 55 59 60 55 59 60 55 59 60 55 59 60 55 59 60 55 59 60 55 59 60 62 66 67 62 66 67 62 66 67 62 66 67 62 66 67 62 66 67 62 66 67 62 66 67 62 66 67 62 66 67 62 66 67 62 66 67 62 66 67 62 66 67 62 66 67 62 66 67 62 66 67 62 66 67 62 66 67 62 66 67 62 66 67 62 66 67 62 66 67 62 66 67 62 66 67 62 66 67 62 66 67 62 66 67 62 66 67 62 66 67 62 66 67 0 0 0 0 0 0 0 0 0 0 0 0 0 0 0 0 0 0 0 0 0 0 0 0 0 0 0 0 0 0 0 0 0 0 0 0 0 0 0 0 0 0 0 0 0 0 0 0 0 0 0
0 0 0 0 0 0 0 0 0 0 0 0 0 0 0 0 0 0 0 0 0 0 0 0 0 0 0 0 0 0 0 0 0 0 0 0 0 0 0 0 0 0 0 0 0 0 0 0 0 0 0 55 59 60 55 59 60 55 59 60 61 39 32 61 39 32 61 39 32 61 39 32 61 39 32 61 39 32 61 39 32 61 39 32 61 39 32 61 39 32 61 39 32 61 39 32 55 59 60 55 59 60 55 59 60 55 59 60 55 59 60 55 59 60 55 59 60 55 59 60 55 59 60 55 59 60 55 59 60 55 59 60 55 59 60 55 59 60 55 59 60 55 59 60 62 66 67 62 66 67 62 66 67 62 66 67 62 66 67 62 66 67 62 66 67 62 66 67 62 66 67 62 66 67 62 66 67 62 66 67 62 66 67 62 66 67 62 66 67 62 66 67 62 66 67 62 66 67 62 66 67 62 66 67 62 66 67 62 66 67 62 66 67 62 66 67 62 66 67 62 66 67 62 66 67 62 66 67 62 66 67 62 66 67 62 66 67 0 0 0 0 0 0 0 0 0 0 0 0 0 0 0 0 0 0 0 0 0 0 0 0 0 0 0 0 0 0 0 0 0 0 0 0 0 0 0 0 0 0 0 0 0 0 0 0 0 0 0
0 0 0 0 0 0 0 0 0 0 0 0 0 0 0 0 0 0 0 0 0 0 0 0 0 0 0 0 0 0 0 0 0 0 0 0 0 0 0 0 0 0 0 0 0 0 0 0 0 0 0 55 59 60 55 59 60 55 59 60 61 39 32 61 39 32 61 39 32 61 39 32 61 39 32 61 39 32 61 39 32 61 39 32 61 39 32 61 39 32 61 39 32 61 39 32 55 59 60 55 59 60 55 59 60 55 59 60 55 59 60 55 59 60 55 59 60 55 59 60 55 59 60 55 59 60 55 59 60 55 59 60 55 59 60 55 59 60 55 59 60 55 59 60 62 66 67 62 66 67 62 66 67 62 66 67 62 66 67 62 66 67 62 66 67 62 66 67 62 66 67 62 66 67 62 66 67 62 66 67 62 66 67 62 66 67 62 66 67 62 66 67 62 66 67 62 66 67 62 66 67 62 66 67 62 66 67 62 66 67 62 66 67 62 66 67 62 66 67 62 66 67 62 66 67 62 66 67 62 66 67 62 66 67 62 66 67 0 0 0 0 0 0 0 0 0 0 0 0 0 0 0 0 0 0 0 0 0 0 0 0 0 0 0 0 0 0 0 0 0 0 0 0 0 0 0 0 0 0 0 0 0 0 0 0 0 0 0
0 0 0 0 0 0 0 0 0 0 0 0 0 0 0 0 0 0 0 0 0 0 0 0 0 0 0 0 0 0 0 0 0 0 0 0 0 0 0 0 0 0 0 0 0 0 0 0 0 0 0 55 59 60 55 59 60 55 59 60 55 59 60 55 59 60 55 59 60 55 59 60 55 59 60 55 59 60 55 59 60 55 59 60 55 59 60 55 59 60 55 59 60 55 59 60 55 59 60 55 59 60 55 59 60 55 59 60 55 59 60 55 59 60 55 59 60 55 59 60 55 59 60 55 59 60 55 59 60 55 59 60 55 59 60 55 59 60 55 59 60 55 59 60 62 66 67 62 66 67 62 66 67 62 66 67 62 66 67 62 66 67 62 66 67 62 66 67 62 66 67 62 66 67 62 66 67 62 66 67 62 66 67 62 66 67 62 66 67 62 66 67 62 66 67 62 66 67 62 66 67 62 66 67 62 66 67 62 66 67 62 66 67 62 66 67 62 66 67 62 66 67 62 66 67 62 66 67 62 66 67 62 66 67 62 66 67 0 0 0 0 0 0 0 0 0 0 0 0 0 0 0 0 0 0 0 0 0 0 0 0 0 0 0 0 0 0 0 0 0 0 0 0 0 0 0 0 0 0 0 0 0 0 0 0 0 0 0
0 0 0 0 0 0 0 0 0 0 0 0 0 0 0 0 0 0 0 0 0 0 0 0 0 0 0 0 0 0 0 0 0 0 0 0 0 0 0 0 0 0 0 0 0 0 0 0 0 0 0 55 59 60 55 59 60 55 59 60 55 59 60 55 59 60 55 59 60 55 59 60 55 59 60 55 59 60 55 59 60 55 59 60 55 59 60 55 59 60 55 59 60 55 59 60 55 59 60 55 59 60 55 59 60 55 59 60 55 59 60 55 59 60 55 59 60 55 59 60 55 59 60 55 59 60 55 59 60 55 59 60 55 59 60 55 59 60 55 59 60 55 59 60 62 66 67 62 66 67 62 66 67 62 66 67 62 66 67 62 66 67 62 66 67 62 66 67 62 66 67 62 66 67 62 66 67 62 66 67 62 66 67 62 66 67 62 66 67 62 66 67 62 66 67 62 66 67 62 66 67 62 66 67 62 66 67 62 66 67 62 66 67 62 66 67 62 66 67 62 66 67 62 66 67 62 66 67 62 66 67 62 66 67 62 66 67 8 11 9 0 0 0 0 0 0 0 0 0 0 0 0 0 0 0 0 0 0 0 0 0 0 0 0 0 0 0 0 0 0 0 0 0 0 0 0 0 0 0 0 0 0 0 0 0 0 0 0
0 0 0 0 0 0 0 0 0 0 0 0 0 0 0 0 0 0 0 0 0 0 0 0 0 0 0 0 0 0 0 0 0 0 0 0 0 0 0 0 0 0 8 11 9 8 11 9 8 11 9 55 59 60 55 59 60 55 59 60 55 59 60 55 59 60 55 59 60 55 59 60 55 59 60 55 59 60 55 59 60 55 59 60 55 59 60 55 59 60 55 59 60 55 59 60 55 59 60 55 59 60 55 59 60 55 59 60 55 59 60 55 59 60 55 59 60 55 59 60 55 59 60 55 59 60 55 59 60 55 59 60 55 59 60 55 59 60 55 59 60 55 59 60 62 66 67 62 66 67 62 66 67 62 66 67 62 66 67 62 66 67 62 66 67 62 66 67 62 66 67 62 66 67 62 66 67 62 66 67 62 66 67 62 66 67 62 66 67 62 66 67 62 66 67 62 66 67 62 66 67 62 66 67 62 66 67 62 66 67 62 66 67 62 66 67 62 66 67 62 66 67 62 66 67 62 66 67 62 66 67 62 66 67 62 66 67 8 11 9 8 11 9 8 11 9 8 11 9 0 0 0 0 0 0 0 0 0 0 0 0 0 0 0 0 0 0 0 0 0 0 0 0 0 0 0 0 0 0 0 0 0 0 0 0 0 0 0
0 0 0 0 0 0 0 0 0 0 0 0 0 0 0 0 0 0 0 0 0 0 0 0 0 0 0 0 0 0 0 0 0 8 11 9 8 11 9 8 11 9 8 11 9 8 11 9 8 11 9 55 59 60 55 59 60 55 59 60 55 59 60 55 59 60 55 59 60 55 59 60 55 59 60 55 59 60 55 59 60 55 59 60 55 59 60 55 59 60 55 59 60 55 59 60 55 59 60 55 59 60 55 59 60 55 59 60 55 59 60 55 59 60 55 59 60 55 59 60 55 59 60 55 59 60 55 59 60 55 59 60 55 59 60 55 59 60 55 59 60 55 59 60 62 66 67 62 66 67 62 66 67 62 66 67 62 66 67 62 66 67 62 66 67 62 66 67 62 66 67 62 66 67 62 66 67 62 66 67 62 66 67 62 66 67 62 66 67 62 66 67 62 66 67 62 66 67 62 66 67 62 66 67 62 66 67 62 66 67 62 66 67 62 66 67 62 66 67 62 66 67 62 66 67 62 66 67 62 66 67 62 66 67 62 66 67 8 11 9 8 11 9 8 11 9 8 11 9 8 11 9 8 11 9 8 11 9 0 0 0 0 0 0 0 0 0 0 0 0 0 0 0 0 0 0 0 0 0 0 0 0 0 0 0 0 0 0
0 0 0 0 0 0 0 0 0 0 0 0 0 0 0 0 0 0 0 0 0 0 0 0 0 0 0 0 0 0 8 11 9 8 11 9 8 11 9 8 11 9 8 11 9 8 11 9 8 11 9 55 59 60 55 59 60 55 59 60 55 59 60 55 59 60 55 59 60 55 59 60 55 59 60 55 59 60 55 59 60 55 59 60 55 59 60 55 59 60 55 59 60 55 59 60 55 59 60 55 59 60 55 59 60 55 59 60 55 59 60 55 59 60 55 59 60 55 59 60 55 59 60 55 59 60 55 59 60 55 59 60 55 59 60 55 59 60 55 59 60 55 59 60 62 66 67 62 66 67 62 66 67 62 66 67 62 66 67 62 66 67 62 66 67 62 66 67 62 66 67 62 66 67 62 66 67 62 66 67 62 66 67 62 66 67 62 66 67 62 66 67 62 66 67 62 66 67 62 66 67 62 66 67 62 66 67 62 66 67 62 66 67 62 66 67 62 66 67 62 66 67 62 66 67 62 66 67 62 66 67 62 66 67 62 66 67 8 11 9 8 11 9 8 11 9 8 11 9 8 11 9 8 11 9 8 11 9 8 11 9 0 0 0 0 0 0 0 0 0 0 0 0 0 0 0 0 0 0 0 0 0 0 0 0 0 0 0
0 0 0 0 0 0 0 0 0 0 0 0 0 0 0 0 0 0 0 0 0 0 0 0 0 0 0 8 11 9 8 11 9 8 11 9 8 11 9 8 11 9 8 11 9 8 11 9 8 11 9 55 59 60 55 59 60 55 59 60 55 59 60 55 59 60 55 59 60 55 59 60 55 59 60 55 59 60 55 59 60 55 59 60 55 59 60 55 59 60 55 59 60 55 59 60 55 59 60 55 59 60 55 59 60 55 59 60 55 59 60 55 59 60 55 59 60 55 59 60 55 59 60 55 59 60 55 59 60 55 59 60 55 59 60 55 59 60 55 59 60 55 59 60 62 66 67 62 66 67 62 66 67 62 66 67 62 66 67 62 66 67 62 66 67 62 66 67 62 66 67 62 66 67 62 66 67 62 66 67 62 66 67 62 66 67 62 66 67 62 66 67 62 66 67 62 66 67 62 66 67 62 66 67 62 66 67 62 66 67 62 66 67 62 66 67 62 66 67 62 66 67 62 66 67 62 66 67 62 66 67 62 66 67 62 66 67 8 11 9 8 11 9 8 11 9 8 11 9 8 11 9 8 11 9 8 11 9 8 11 9 8 11 9 0 0 0 0 0 0 0 0 0 0 0 0 0 0 0 0 0 0 0 0 0 0 0 0
0 0 0 0 0 0 0 0 0 0 0 0 0 0 0 0 0 0 0 0 0 0 0 0 8 11 9 8 11 9 8 11 9 8 11 9 8 11 9 8 11 9 8 11 9 8 11 9 8 11 9 55 59 60 55 59 60 55 59 60 55 59 60 55 59 60 55 59 60 55 59 60 55 59 60 55 59 60 55 59 60 55 59 60 55 59 60 55 59 60 55 59 60 55 59 60 55 59 60 55 59 60 55 59 60 55 59 60 55 59 60 55 59 60 55 59 60 55 59 60 55 59 60 55 59 60 55 59 60 55 59 60 55 59 60 55 59 60 55 59 60 55 59 60 62 66 67 62 66 67 62 66 67 62 66 67 62 66 67 62 66 67 62 66 67 62 66 67 62 66 67 62 66 67 62 66 67 62 66 67 62 66 67 62 66 67 62 66 67 62 66 67 62 66 67 62 66 67 62 66 67 62 66 67 62 66 67 62 66 67 62 66 67 62 66 67 62 66 67 62 66 67 62 66 67 62 66 67 62 66 67 62 66 67 62 66 67 8 11 9 8 11 9 8 11 9 8 11 9 8 11 9 8 11 9 8 11 9 8 11 9 8 11 9 8 11 9 0 0 0 0 0 0 0 0 0 0 0 0 0 0 0 0 0 0 0 0 0
0 0 0 0 0 0 0 0 0 0 0 0 0 0 0 0 0 0 0 0 0 0 0 0 0 0 0 8 11 9 8 11 9 8 11 9 8 11 9 8 11 9 8 11 9 8 11 9 8 11 9 55 59 60 55 59 60 55 59 60 55 59 60 55 59 60 55 59 60 55 59 60 55 59 60 55 59 60 55 59 60 55 59 60 55 59 60 55 59 60 55 59 60 55 59 60 55 59 60 55 59 60 55 59 60 55 59 60 55 59 60 55 59 60 55 59 60 55 59 60 55 59 60 55 59 60 55 59 60 55 59 60 55 59 60 55 59 60 55 59 60 55 59 60 62 66 67 62 66 67 62 66 67 62 66 67 62 66 67 62 66 67 62 66 67 62 66 67 62 66 67 62 66 67 62 66 67 62 66 67 62 66 67 62 66 67 62 66 67 62 66 67 62 66 67 62 66 67 62 66 67 62 66 67 62 66 67 62 66 67 62 66 67 62 66 67 62 66 67 62 66 67 62 66 67 62 66 67 62 66 67 62 66 67 62 66 67 8 11 9 8 11 9 8 11 9 8 11 9 8 11 9 8 11 9 8 11 9 8 11 9 8 11 9 0 0 0 0 0 0 0 0 0 0 0 0 0 0 0 0 0 0 0 0 0 0 0 0
0 0 0 0 0 0 0 0 0 0 0 0 0 0 0 0 0 0 0 0 0 0 0 0 0 0 0 0 0 0 8 11 9 8 11 9 8 11 9 8 11 9 8 11 9 8 11 9 8 11 9 55 59 60 55 59 60 55 59 60 55 59 60 55 59 60 55 59 60 55 59 60 55 59 60 55 59 60 55 59 60 55 59 60 55 59 60 55 59 60 55 59 60 55 59 60 55 59 60 55 59 60 55 59 60 55 59 60 55 59 60 55 59 60 55 59 60 55 59 60 55 59 60 55 59 60 55 59 60 55 59 60 55 59 60 55 59 60 55 59 60 55 59 60 62 66 67 62 66 67 62 66 67 62 66 67 62 66 67 62 66 67 62 66 67 62 66 67 62 66 67 62 66 67 62 66 67 62 66 67 62 66 67 62 66 67 62 66 67 62 66 67 62 66 67 62 66 67 62 66 67 62 66 67 62 66 67 62 66 67 62 66 67 62 66 67 62 66 67 62 66 67 62 66 67 62 66 67 62 66 67 62 66 67 62 66 67 8 11 9 8 11 9 8 11 9 8 11 9 8 11 9 8 11 9 8 11 9 8 11 9 0 0 0 0 0 0 0 0 0 0 0 0 0 0 0 0 0 0 0 0 0 0 0 0 0 0 0
0 0 0 0 0 0 0 0 0 0 0 0 0 0 0 0 0 0 0 0 0 0 0 0 0 0 0 0 0 0 0 0 0 8 11 9 8 11 9 8 11 9 8 11 9 8 11 9 8 11 9 55 59 60 55 59 60 55 59 60 55 59 60 55 59 60 55 59 60 55 59 60 55 59 60 55 59 60 55 59 60 55 59 60 55 59 60 55 59 60 55 59 60 55 59 60 55 59 60 55 59 60 55 59 60 55 59 60 55 59 60 55 59 60 55 59 60 55 59 60 55 59 60 55 59 60 55 59 60 55 59 60 55 59 60 55 59 60 55 59 60 55 59 60 62 66 67 62 66 67 62 66 67 62 66 67 62 66 67 62 66 67 62 66 67 62 66 67 62 66 67 62 66 67 62 66 67 62 66 67 62 66 67 62 66 67 62 66 67 62 66 67 62 66 67 62 66 67 62 66 67 62 66 67 62 66 67 62 66 67 62 66 67 62 66 67 62 66 67 62 66 67 62 66 67 62 66 67 62 66 67 62 66 67 62 66 67 8 11 9 8 11 9 8 11 9 8 11 9 8 11 9 8 11 9 8 11 9 0 0 0 0 0 0 0 0 0 0 0 0 0 0 0 0 0 0 0 0 0 0 0 0 0 0 0 0 0 0
0 0 0 0 0 0 0 0 0 0 0 0 0 0 0 0 0 0 0 0 0 0 0 0 0 0 0 0 0 0 0 0 0 0 0 0 0 0 0 0 0 0 8 11 9 8 11 9 8 11 9 8 11 9 8 11 9 55 59 60 55 59 60 55 59 60 55 59 60 55 59 60 55 59 60 55 59 60 55 59 60 55 59 60 55 59 60 55 59 60 55 59 60 55 59 60 55 59 60 55 59 60 55 59 60 55 59 60 55 59 60 55 59 60 55 59 60 55 59 60 55 59 60 55 59 60 55 59 60 55 59 60 55 59 60 55 59 60 55 59 60 55 59 60 62 66 67 62 66 67 62 66 67 62 66 67 62 66 67 62 66 67 62 66 67 62 66 67 62 66 67 62 66 67 62 66 67 62 66 67 62 66 67 62 66 67 62 66 67 62 66 67 62 66 67 62 66 67 62 66 67 62 66 67 62 66 67 62 66 67 62 66 67 62 66 67 62 66 67 62 66 67 62 66 67 62 66 67 62 66 67 8 11 9 8 11 9 8 11 9 8 11 9 8 11 9 8 11 9 0 0 0 0 0 0 0 0 0 0 0 0 0 0 0 0 0 0 0 0 0 0 0 0 0 0 0 0 0 0 0 0 0 0 0 0 0 0 0
0 0 0 0 0 0 0 0 0 0 0 0 0 0 0 0 0 0 0 0 0 0 0 0 0 0 0 0 0 0 0 0 0 0 0 0 0 0 0 0 0 0 0 0 0 0 0 0 0 0 0 8 11 9 8 11 9 8 11 9 8 11 9 55 59 60 55 59 60 55 59 60 55 59 60 55 59 60 55 59 60 55 59 60 55 59 60 55 59 60 55 59 60 55 59 60 55 59 60 55 59 60 55 59 60 55 59 60 55 59 60 55 59 60 55 59 60 55 59 60 55 59 60 55 59 60 55 59 60 55 59 60 55 59 60 55 59 60 55 59 60 55 59 60 62 66 67 62 66 67 62 66 67 62 66 67 62 66 67 62 66 67 62 66 67 62 66 67 62 66 67 62 66 67 62 66 67 62 66 67 62 66 67 62 66 67 62 66 67 62 66 67 62 66 67 62 66 67 62 66 67 62 66 67 62 66 67 62 66 67 62 66 67 62 66 67 62 66 67 62 66 67 62 66 67 8 11 9 8 11 9 8 11 9 8 11 9 8 11 9 0 0 0 0 0 0 0 0 0 0 0 0 0 0 0 0 0 0 0 0 0 0 0 0 0 0 0 0 0 0 0 0 0 0 0 0 0 0 0 0 0 0 0 0 0 0 0 0
0 0 0 0 0 0 0 0 0 0 0 0 0 0 0 0 0 0 0 0 0 0 0 0 0 0 0 0 0 0 0 0 0 0 0 0 0 0 0 0 0 0 0 0 0 0 0 0 0 0 0 0 0 0 0 0 0 0 0 0 0 0 0 0 0 0 8 11 9 55 59 60 55 59 60 55 59 60 55 59 60 55 59 60 55 59 60 55 59 60 55 59 60 55 59 60 55 59 60 55 59 60 55 59 60 55 59 60 55 59 60 55 59 60 55 59 60 55 59 60 55 59 60 55 59 60 55 59 60 55 59 60 55 59 60 55 59 60 55 59 60 55 59 60 62 66 67 62 66 67 62 66 67 62 66 67 62 66 67 62 66 67 62 66 67 62 66 67 62 66 67 62 66 67 62 66 67 62 66 67 62 66 67 62 66 67 62 66 67 62 66 67 62 66 67 62 66 67 62 66 67 62 66 67 62 66 67 62 66 67 62 66 67 62 66 67 62 66 67 8 11 9 8 11 9 0 0 0 0 0 0 0 0 0 0 0 0 0 0 0 0 0 0 0 0 0 0 0 0 0 0 0 0 0 0 0 0 0 0 0 0 0 0 0 0 0 0 0 0 0 0 0 0 0 0 0 0 0 0 0 0 0 0 0 0 0 0 0
0 0 0 0 0 0 0 0 0 0 0 0 0 0 0 0 0 0 0 0 0 0 0 0 0 0 0 0 0 0 0 0 0 0 0 0 0 0 0 0 0 0 0 0 0 0 0 0 0 0 0 0 0 0 0 0 0 0 0 0 0 0 0 0 0 0 0 0 0 0 0 0 0 0 0 55 59 60 55 59 60 55 59 60 55 59 60 55 59 60 55 59 60 55 59 60 55 59 60 55 59 60 55 59 60 55 59 60 55 59 60 55 59 60 55 59 60 55 59 60 55 59 60 55 59 60 55 59 60 55 59 60 55 59 60 55 59 60 55 59 60 55 59 60 62 66 67 62 66 67 62 66 67 62 66 67 62 66 67 62 66 67 62 66 67 62 66 67 62 66 67 62 66 67 62 66 67 62 66 67 62 66 67 62 66 67 62 66 67 62 66 67 62 66 67 62 66 67 62 66 67 62 66 67 62 66 67 62 66 67 62 66 67 0 0 0 0 0 0 0 0 0 0 0 0 0 0 0 0 0 0 0 0 0 0 0 0 0 0 0 0 0 0 0 0 0 0 0 0 0 0 0 0 0 0 0 0 0 0 0 0 0 0 0 0 0 0 0 0 0 0 0 0 0 0 0 0 0 0 0 0 0 0 0 0 0 0 0
0 0 0 0 0 0 0 0 0 0 0 0 0 0 0 0 0 0 0 0 0 0 0 0 0 0 0 0 0 0 0 0 0 0 0 0 0 0 0 0 0 0 0 0 0 0 0 0 0 0 0 0 0 0 0 0 0 0 0 0 0 0 0 0 0 0 0 0 0 0 0 0 0 0 0 0 0 0 0 0 0 55 59 60 55 59 60 55 59 60 55 59 60 55 59 60 55 59 60 55 59 60 55 59 60 55 59 60 55 59 60 55 59 60 55 59 60 55 59 60 55 59 60 55 59 60 55 59 60 55 59 60 55 59 60 55 59 60 55 59 60 55 59 60 62 66 67 62 66 67 62 66 67 62 66 67 62 66 67 62 66 67 62 66 67 62 66 67 62 66 67 62 66 67 62 66 67 62 66 67 62 66 67 62 66 67 62 66 67 62 66 67 62 66 67 62 66 67 62 66 67 62 66 67 62 66 67 0 0 0 0 0 0 0 0 0 0 0 0 0 0 0 0 0 0 0 0 0 0 0 0 0 0 0 0 0 0 0 0 0 0 0 0 0 0 0 0 0 0 0 0 0 0 0 0 0 0 0 0 0 0 0 0 0 0 0 0 0 0 0 0 0 0 0 0 0 0 0 0 0 0 0 0 0 0 0 0 0
0 0 0 0 0 0 0 0 0 0 0 0 0 0 0 0 0 0 0 0 0 0 0 0 0 0 0 0 0 0 0 0 0 0 0 0 0 0 0 0 0 0 0 0 0 0 0 0 0 0 0 0 0 0 0 0 0 0 0 0 0 0 0 0 0 0 0 0 0 0 0 0 0 0 0 0 0 0 0 0 0 0 0 0 55 59 60 55 59 60 55 59 60 55 59 60 55 59 60 55 59 60 55 59 60 55 59 60 55 59 60 55 59 60 55 59 60 55 59 60 55 59 60 55 59 60 55 59 60 55 59 60 55 59 60 55 59 60 55 59 60 55 59 60 62 66 67 62 66 67 62 66 67 62 66 67 62 66 67 62 66 67 62 66 67 62 66 67 62 66 67 62 66 67 62 66 67 62 66 67 62 66 67 62 66 67 62 66 67 62 66 67 62 66 67 62 66 67 62 66 67 62 66 67 0 0 0 0 0 0 0 0 0 0 0 0 0 0 0 0 0 0 0 0 0 0 0 0 0 0 0 0 0 0 0 0 0 0 0 0 0 0 0 0 0 0 0 0 0 0 0 0 0 0 0 0 0 0 0 0 0 0 0 0 0 0 0 0 0 0 0 0 0 0 0 0 0 0 0 0 0 0 0 0 0 0 0 0
0 0 0 0 0 0 0 0 0 0 0 0 0 0 0 0 0 0 0 0 0 0 0 0 0 0 0 0 0 0 0 0 0 0 0 0 0 0 0 0 0 0 0 0 0 0 0 0 0 0 0 0 0 0 0 0 0 0 0 0 0 0 0 0 0 0 0 0 0 0 0 0 0 0 0 0 0 0 0 0 0 0 0 0 0 0 0 0 0 0 55 59 60 55 59 60 55 59 60 55 59 60 55 59 60 55 59 60 55 59 60 55 59 60 55 59 60 55 59 60 55 59 60 55 59 60 55 59 60 55 59 60 55 59 60 55 59 60 55 59 60 55 59 60 62 66 67 62 66 67 62 66 67 62 66 67 62 66 67 62 66 67 62 66 67 62 66 67 62 66 67 62 66 67 62 66 67 62 66 67 62 66 67 62 66 67 62 66 67 62 66 67 62 66 67 62 66 67 0 0 0 0 0 0 0 0 0 0 0 0 0 0 0 0 0 0 0 0 0 0 0 0 0 0 0 0 0 0 0 0 0 0 0 0 0 0 0 0 0 0 0 0 0 0 0 0 0 0 0 0 0 0 0 0 0 0 0 0 0 0 0 0 0 0 0 0 0 0 0 0 0 0 0 0 0 0 0 0 0 0 0 0 0 0 0 0 0 0
0 0 0 0 0 0 0 0 0 0 0 0 0 0 0 0 0 0 0 0 0 0 0 0 0 0 0 0 0 0 0 0 0 0 0 0 0 0 0 0 0 0 0 0 0 0 0 0 0 0 0 0 0 0 0 0 0 0 0 0 0 0 0 0 0 0 0 0 0 0 0 0 0 0 0 0 0 0 0 0 0 0 0 0 0 0 0 0 0 0 0 0 0 0 0 0 55 59 60 55 59 60 55 59 60 55 59 60 55 59 60 55 59 60 55 59 60 55 59 60 55 59 60 55 59 60 55 59 60 55 59 60 55 59 60 55 59 60 55 59 60 55 59 60 62 66 67 62 66 67 62 66 67 62 66 67 62 66 67 62 66 67 62 66 67 62 66 67 62 66 67 62 66 67 62 66 67 62 66 67 62 66 67 62 66 67 62 66 67 62 66 67 0 0 0 0 0 0 0 0 0 0 0 0 0 0 0 0 0 0 0 0 0 0 0 0 0 0 0 0 0 0 0 0 0 0 0 0 0 0 0 0 0 0 0 0 0 0 0 0 0 0 0 0 0 0 0 0 0 0 0 0 0 0 0 0 0 0 0 0 0 0 0 0 0 0 0 0 0 0 0 0 0 0 0 0 0 0 0 0 0 0 0 0 0 0 0 0
