P3
96 96
255
0 0 0 0 0 0 0 0 0 0 0 0 0 0 0 0 0 0 0 0 0 0 0 0 0 0 0 0 0 0 0 0 0 0 0 0 0 0 0 0 0 0 0 0 0 0 0 0 0 0 0 0 0 0 0 0 0 0 0 0 0 0 0 0 0 0 0 0 0 0 0 0 0 0 0 0 0 0 0 0 0 0 0 0 0 0 0 0 0 0 0 0 0 0 0 0 0 0 0 0 0 0 0 0 0 0 0 0 0 0 0 0 0 0 0 0 0 0 0 0 0 0 0 0 0 0 0 0 0 0 0 0 0 0 0 0 0 0 0 0 0 0 0 0 0 0 0 0 0 0 0 0 0 0 0 0 0 0 0 0 0 0 0 0 0 0 0 0 0 0 0 0 0 0 0 0 0 0 0 0 0 0 0 0 0 0 0 0 0 0 0 0 0 0 0 0 0 0 0 0 0 0 0 0 0 0 0 0 0 0 0 0 0 0 0 0 0 0 0 0 0 0 0 0 0 0 0 0 0 0 0 0 0 0 0 0 0 0 0 0 0 0 0 0 0 0 0 0 0 0 0 0 0 0 0 0 0 0 0 0 0 0 0 0 0 0 0 0 0 0 0 0 0 0 0 0 0 0 0 0 0 0 0 0 0 0 0 0
0 0 0 0 0 0 0 0 0 0 0 0 0 0 0 0 0 0 0 0 0 0 0 0 0 0 0 0 0 0 0 0 0 0 0 0 0 0 0 0 0 0 0 0 0 0 0 0 0 0 0 0 0 0 0 0 0 0 0 0 0 0 0 0 0 0 0 0 0 0 0 0 0 0 0 0 0 0 0 0 0 0 0 0 0 0 0 0 0 0 0 0 0 0 0 0 0 0 0 0 0 0 0 0 0 0 0 0 0 0 0 0 0 0 0 0 0 0 0 0 0 0 0 0 0 0 0 0 0 0 0 0 0 0 0 0 0 0 0 0 0 0 0 0 0 0 0 0 0 0 0 0 0 0 0 0 0 0 0 0 0 0 0 0 0 0 0 0 0 0 0 0 0 0 0 0 0 0 0 0 0 0 0 0 0 0 0 0 0 0 0 0 0 0 0 0 0 0 0 0 0 0 0 0 0 0 0 0 0 0 0 0 0 0 0 0 0 0 0 0 0 0 0 0 0 0 0 0 0 0 0 0 0 0 0 0 0 0 0 0 0 0 0 0 0 0 0 0 0 0 0 0 0 0 0 0 0 0 0 0 0 0 0 0 0 0 0 0 0 0 0 0 0 0 0 0 0 0 0 0 0 0 0 0 0 0 0 0
0 0 0 0 0 0 0 0 0 0 0 0 0 0 0 0 0 0 0 0 0 0 0 0 0 0 0 0 0 0 0 0 0 0 0 0 0 0 0 0 0 0 0 0 0 0 0 0 0 0 0 0 0 0 0 0 0 0 0 0 0 0 0 0 0 0 0 0 0 0 0 0 0 0 0 0 0 0 0 0 0 0 0 0 0 0 0 0 0 0 0 0 0 0 0 0 0 0 0 0 0 0 0 0 0 0 0 0 0 0 0 0 0 0 0 0 0 0 0 0 0 0 0 0 0 0 0 0 0 0 0 0 0 0 0 0 0 0 0 0 0 0 0 0 0 0 0 0 0 0 0 0 0 0 0 0 0 0 0 0 0 0 0 0 0 0 0 0 0 0 0 0 0 0 0 0 0 0 0 0 0 0 0 0 0 0 0 0 0 0 0 0 0 0 0 0 0 0 0 0 0 0 0 0 0 0 0 0 0 0 0 0 0 0 0 0 0 0 0 0 0 0 0 0 0 0 0 0 0 0 0 0 0 0 0 0 0 0 0 0 0 0 0 0 0 0 0 0 0 0 0 0 0 0 0 0 0 0 0 0 0 0 0 0 0 0 0 0 0 0 0 0 0 0 0 0 0 0 0 0 0 0 0 0 0 0 0 0
0 0 0 0 0 0 0 0 0 0 0 0 0 0 0 0 0 0 0 0 0 0 0 0 0 0 0 0 0 0 0 0 0 0 0 0 0 0 0 0 0 0 0 0 0 0 0 0 0 0 0 0 0 0 0 0 0 0 0 0 0 0 0 0 0 0 0 0 0 0 0 0 0 0 0 0 0 0 0 0 0 0 0 0 0 0 0 0 0 0 0 0 0 0 0 0 0 0 0 0 0 0 0 0 0 0 0 0 0 0 0 0 0 0 0 0 0 0 0 0 0 0 0 0 0 0 0 0 0 0 0 0 0 0 0 0 0 0 0 0 0 0 0 0 0 0 0 0 0 0 0 0 0 0 0 0 0 0 0 0 0 0 0 0 0 0 0 0 0 0 0 0 0 0 0 0 0 0 0 0 0 0 0 0 0 0 0 0 0 0 0 0 0 0 0 0 0 0 0 0 0 0 0 0 0 0 0 0 0 0 0 0 0 0 0 0 0 0 0 0 0 0 0 0 0 0 0 0 0 0 0 0 0 0 0 0 0 0 0 0 0 0 0 0 0 0 0 0 0 0 0 0 0 0 0 0 0 0 0 0 0 0 0 0 0 0 0 0 0 0 0 0 0 0 0 0 0 0 0 0 0 0 0 0 0 0 0 0
0 0 0 0 0 0 0 0 0 0 0 0 0 0 0 0 0 0 0 0 0 0 0 0 0 0 0 0 0 0 0 0 0 0 0 0 0 0 0 0 0 0 0 0 0 0 0 0 0 0 0 0 0 0 0 0 0 0 0 0 0 0 0 0 0 0 0 0 0 0 0 0 0 0 0 0 0 0 0 0 0 0 0 0 0 0 0 0 0 0 0 0 0 0 0 0 0 0 0 0 0 0 0 0 0 0 0 0 0 0 0 0 0 0 0 0 0 0 0 0 0 0 0 0 0 0 0 0 0 0 0 0 0 0 0 0 0 0 0 0 0 0 0 0 0 0 0 0 0 0 0 0 0 0 0 0 0 0 0 0 0 0 0 0 0 0 0 0 0 0 0 0 0 0 0 0 0 0 0 0 0 0 0 0 0 0 0 0 0 0 0 0 0 0 0 0 0 0 0 0 0 0 0 0 0 0 0 0 0 0 0 0 0 0 0 0 0 0 0 0 0 0 0 0 0 0 0 0 0 0 0 0 0 0 0 0 0 0 0 0 0 0 0 0 0 0 0 0 0 0 0 0 0 0 0 0 0 0 0 0 0 0 0 0 0 0 0 0 0 0 0 0 0 0 0 0 0 0 0 0 0 0 0 0 0 0 0 0
0 0 0 0 0 0 0 0 0 0 0 0 0 0 0 0 0 0 0 0 0 0 0 0 0 0 0 0 0 0 0 0 0 0 0 0 0 0 0 0 0 0 0 0 0 0 0 0 0 0 0 0 0 0 0 0 0 0 0 0 0 0 0 0 0 0 0 0 0 0 0 0 0 0 0 0 0 0 0 0 0 0 0 0 0 0 0 0 0 0 0 0 0 0 0 0 0 0 0 0 0 0 0 0 0 0 0 0 0 0 0 0 0 0 0 0 0 0 0 0 0 0 0 0 0 0 0 0 0 0 0 0 0 0 0 0 0 0 0 0 0 0 0 0 0 0 0 0 0 0 0 0 0 0 0 0 0 0 0 0 0 0 0 0 0 0 0 0 0 0 0 0 0 0 0 0 0 0 0 0 0 0 0 0 0 0 0 0 0 0 0 0 0 0 0 0 0 0 0 0 0 0 0 0 0 0 0 0 0 0 0 0 0 0 0 0 0 0 0 0 0 0 0 0 0 0 0 0 0 0 0 0 0 0 0 0 0 0 0 0 0 0 0 0 0 0 0 0 0 0 0 0 0 0 0 0 0 0 0 0 0 0 0 0 0 0 0 0 0 0 0 0 0 0 0 0 0 0 0 0 0 0 0 0 0 0 0 0
0 0 0 0 0 0 0 0 0 0 0 0 0 0 0 0 0 0 0 0 0 0 0 0 0 0 0 0 0 0 0 0 0 0 0 0 0 0 0 0 0 0 0 0 0 0 0 0 0 0 0 0 0 0 0 0 0 0 0 0 0 0 0 0 0 0 0 0 0 0 0 0 0 0 0 0 0 0 0 0 0 0 0 0 0 0 0 0 0 0 0 0 0 0 0 0 0 0 0 0 0 0 0 0 0 0 0 0 0 0 0 0 0 0 0 0 0 0 0 0 0 0 0 0 0 0 0 0 0 0 0 0 0 0 0 0 0 0 0 0 0 0 0 0 0 0 0 0 0 0 0 0 0 0 0 0 0 0 0 0 0 0 0 0 0 0 0 0 0 0 0 0 0 0 0 0 0 0 0 0 0 0 0 0 0 0 0 0 0 0 0 0 0 0 0 0 0 0 0 0 0 0 0 0 0 0 0 0 0 0 0 0 0 0 0 0 0 0 0 0 0 0 0 0 0 0 0 0 0 0 0 0 0 0 0 0 0 0 0 0 0 0 0 0 0 0 0 0 0 0 0 0 0 0 0 0 0 0 0 0 0 0 0 0 0 0 0 0 0 0 0 0 0 0 0 0 0 0 0 0 0 0 0 0 0 0 0 0
0 0 0 0 0 0 0 0 0 0 0 0 0 0 0 0 0 0 0 0 0 0 0 0 0 0 0 0 0 0 0 0 0 0 0 0 0 0 0 0 0 0 0 0 0 0 0 0 0 0 0 0 0 0 0 0 0 0 0 0 0 0 0 0 0 0 0 0 0 0 0 0 0 0 0 0 0 0 0 0 0 0 0 0 0 0 0 0 0 0 0 0 0 0 0 0 0 0 0 0 0 0 0 0 0 0 0 0 0 0 0 0 0 0 0 0 0 0 0 0 0 0 0 0 0 0 0 0 0 0 0 0 0 0 0 0 0 0 0 0 0 0 0 0 0 0 0 0 0 0 0 0 0 0 0 0 0 0 0 0 0 0 0 0 0 0 0 0 0 0 0 0 0 0 0 0 0 0 0 0 0 0 0 0 0 0 0 0 0 0 0 0 0 0 0 0 0 0 0 0 0 0 0 0 0 0 0 0 0 0 0 0 0 0 0 0 0 0 0 0 0 0 0 0 0 0 0 0 0 0 0 0 0 0 0 0 0 0 0 0 0 0 0 0 0 0 0 0 0 0 0 0 0 0 0 0 0 0 0 0 0 0 0 0 0 0 0 0 0 0 0 0 0 0 0 0 0 0 0 0 0 0 0 0 0 0 0 0
0 0 0 0 0 0 0 0 0 0 0 0 0 0 0 0 0 0 0 0 0 0 0 0 0 0 0 0 0 0 0 0 0 0 0 0 0 0 0 0 0 0 0 0 0 0 0 0 0 0 0 0 0 0 0 0 0 0 0 0 0 0 0 0 0 0 0 0 0 0 0 0 0 0 0 0 0 0 0 0 0 0 0 0 0 0 0 0 0 0 0 0 0 0 0 0 0 0 0 0 0 0 0 0 0 0 0 0 0 0 0 0 0 0 0 0 0 0 0 0 0 0 0 0 0 0 0 0 0 0 0 0 0 0 0 0 0 0 0 0 0 0 0 0 0 0 0 0 0 0 0 0 0 0 0 0 0 0 0 0 0 0 0 0 0 0 0 0 0 0 0 0 0 0 0 0 0 0 0 0 0 0 0 0 0 0 0 0 0 0 0 0 0 0 0 0 0 0 0 0 0 0 0 0 0 0 0 0 0 0 0 0 0 0 0 0 0 0 0 0 0 0 0 0 0 0 0 0 0 0 0 0 0 0 0 0 0 0 0 0 0 0 0 0 0 0 0 0 0 0 0 0 0 0 0 0 0 0 0 0 0 0 0 0 0 0 0 0 0 0 0 0 0 0 0 0 0 0 0 0 0 0 0 0 0 0 0 0
0 0 0 0 0 0 0 0 0 0 0 0 0 0 0 0 0 0 0 0 0 0 0 0 0 0 0 0 0 0 0 0 0 0 0 0 0 0 0 0 0 0 0 0 0 0 0 0 0 0 0 0 0 0 0 0 0 0 0 0 0 0 0 0 0 0 0 0 0 0 0 0 0 0 0 0 0 0 0 0 0 0 0 0 0 0 0 0 0 0 0 0 0 0 0 0 0 0 0 0 0 0 0 0 0 0 0 0 0 0 0 0 0 0 0 0 0 0 0 0 0 0 0 0 0 0 0 0 0 0 0 0 0 0 0 0 0 0 0 0 0 0 0 0 0 0 0 0 0 0 0 0 0 0 0 0 0 0 0 0 0 0 0 0 0 0 0 0 0 0 0 0 0 0 0 0 0 0 0 0 0 0 0 0 0 0 0 0 0 0 0 0 0 0 0 0 0 0 0 0 0 0 0 0 0 0 0 0 0 0 0 0 0 0 0 0 0 0 0 0 0 0 0 0 0 0 0 0 0 0 0 0 0 0 0 0 0 0 0 0 0 0 0 0 0 0 0 0 0 0 0 0 0 0 0 0 0 0 0 0 0 0 0 0 0 0 0 0 0 0 0 0 0 0 0 0 0 0 0 0 0 0 0 0 0 0 0 0
0 0 0 0 0 0 0 0 0 0 0 0 0 0 0 0 0 0 0 0 0 0 0 0 0 0 0 0 0 0 0 0 0 0 0 0 0 0 0 0 0 0 0 0 0 0 0 0 0 0 0 0 0 0 0 0 0 0 0 0 0 0 0 0 0 0 0 0 0 0 0 0 0 0 0 0 0 0 0 0 0 0 0 0 0 0 0 0 0 0 0 0 0 0 0 0 0 0 0 0 0 0 0 0 0 0 0 0 0 0 0 0 0 0 0 0 0 0 0 0 0 0 0 0 0 0 0 0 0 0 0 0 0 0 0 0 0 0 0 0 0 0 0 0 0 0 0 0 0 0 0 0 0 0 0 0 0 0 0 0 0 0 0 0 0 0 0 0 0 0 0 0 0 0 0 0 0 0 0 0 0 0 0 0 0 0 0 0 0 0 0 0 0 0 0 0 0 0 0 0 0 0 0 0 0 0 0 0 0 0 0 0 0 0 0 0 0 0 0 0 0 0 0 0 0 0 0 0 0 0 0 0 0 0 0 0 0 0 0 0 0 0 0 0 0 0 0 0 0 0 0 0 0 0 0 0 0 0 0 0 0 0 0 0 0 0 0 0 0 0 0 0 0 0 0 0 0 0 0 0 0 0 0 0 0 0 0 0
0 0 0 0 0 0 0 0 0 0 0 0 0 0 0 0 0 0 0 0 0 0 0 0 0 0 0 0 0 0 0 0 0 0 0 0 0 0 0 0 0 0 0 0 0 0 0 0 0 0 0 0 0 0 0 0 0 0 0 0 0 0 0 0 0 0 0 0 0 0 0 0 0 0 0 0 0 0 0 0 0 0 0 0 0 0 0 0 0 0 0 0 0 0 0 0 0 0 0 0 0 0 0 0 0 0 0 0 0 0 0 0 0 0 0 0 0 0 0 0 0 0 0 0 0 0 0 0 0 0 0 0 0 0 0 0 0 0 0 0 0 0 0 0 0 0 0 0 0 0 0 0 0 0 0 0 0 0 0 0 0 0 0 0 0 0 0 0 0 0 0 0 0 0 0 0 0 0 0 0 0 0 0 0 0 0 0 0 0 0 0 0 0 0 0 0 0 0 0 0 0 0 0 0 0 0 0 0 0 0 0 0 0 0 0 0 0 0 0 0 0 0 0 0 0 0 0 0 0 0 0 0 0 0 0 0 0 0 0 0 0 0 0 0 0 0 0 0 0 0 0 0 0 0 0 0 0 0 0 0 0 0 0 0 0 0 0 0 0 0 0 0 0 0 0 0 0 0 0 0 0 0 0 0 0 0 0 0
0 0 0 0 0 0 0 0 0 0 0 0 0 0 0 0 0 0 0 0 0 0 0 0 0 0 0 0 0 0 0 0 0 0 0 0 0 0 0 0 0 0 0 0 0 0 0 0 0 0 0 0 0 0 0 0 0 0 0 0 0 0 0 0 0 0 0 0 0 0 0 0 0 0 0 0 0 0 0 0 0 0 0 0 0 0 0 0 0 0 152 158 163 0 0 0 0 0 0 0 0 0 0 0 0 0 0 0 0 0 0 0 0 0 0 0 0 0 0 0 0 0 0 0 0 0 0 0 0 0 0 0 0 0 0 0 0 0 0 0 0 0 0 0 0 0 0 0 0 0 0 0 0 0 0 0 0 0 0 0 0 0 0 0 0 0 0 0 0 0 0 0 0 0 0 0 0 0 0 0 0 0 0 0 0 0 0 0 0 0 0 0 0 0 0 0 0 0 152 158 163 0 0 0 0 0 0 0 0 0 0 0 0 0 0 0 0 0 0 0 0 0 0 0 0 0 0 0 0 0 0 0 0 0 0 0 0 0 0 0 0 0 0 0 0 0 0 0 0 0 0 0 0 0 0 0 0 0 0 0 0 0 0 0 0 0 0 0 0 0 0 0 0 0 0 0 0 0 0 0 0 0 0 0 0 0 0 0
0 0 0 0 0 0 0 0 0 0 0 0 0 0 0 0 0 0 0 0 0 0 0 0 0 0 0 0 0 0 0 0 0 0 0 0 0 0 0 0 0 0 0 0 0 0 0 0 0 0 0 0 0 0 0 0 0 0 0 0 0 0 0 0 0 0 0 0 0 0 0 0 0 0 0 0 0 0 0 0 0 0 0 0 0 0 0 0 0 0 150 156 161 0 0 0 0 0 0 0 0 0 0 0 0 0 0 0 0 0 0 0 0 0 0 0 0 0 0 0 0 0 0 0 0 0 0 0 0 0 0 0 0 0 0 0 0 0 0 0 0 0 0 0 0 0 0 0 0 0 0 0 0 0 0 0 0 0 0 0 0 0 0 0 0 0 0 0 0 0 0 0 0 0 0 0 0 0 0 0 0 0 0 0 0 0 0 0 0 0 0 0 0 0 0 0 0 0 150 156 161 0 0 0 0 0 0 0 0 0 0 0 0 0 0 0 0 0 0 0 0 0 0 0 0 0 0 0 0 0 0 0 0 0 0 0 0 0 0 0 0 0 0 0 0 0 0 0 0 0 0 0 0 0 0 0 0 0 0 0 0 0 0 0 0 0 0 0 0 0 0 0 0 0 0 0 0 0 0 0 0 0 0 0 0 0 0 0
0 0 0 0 0 0 0 0 0 0 0 0 0 0 0 0 0 0 0 0 0 0 0 0 0 0 0 0 0 0 0 0 0 0 0 0 0 0 0 0 0 0 0 0 0 0 0 0 0 0 0 0 0 0 0 0 0 0 0 0 0 0 0 0 0 0 0 0 0 0 0 0 0 0 0 0 0 0 0 0 0 0 0 0 0 0 0 76 80 84 148 154 159 76 80 84 0 0 0 0 0 0 0 0 0 0 0 0 0 0 0 0 0 0 0 0 0 0 0 0 0 0 0 0 0 0 0 0 0 0 0 0 0 0 0 0 0 0 0 0 0 0 0 0 0 0 0 0 0 0 0 0 0 0 0 0 0 0 0 0 0 0 0 0 0 0 0 0 0 0 0 0 0 0 0 0 0 0 0 0 0 0 0 0 0 0 0 0 0 0 0 0 0 0 0 76 80 84 148 154 159 76 80 84 0 0 0 0 0 0 0 0 0 0 0 0 0 0 0 0 0 0 0 0 0 0 0 0 0 0 0 0 0 0 0 0 0 0 0 0 0 0 0 0 0 0 0 0 0 0 0 0 0 0 0 0 0 0 0 0 0 0 0 0 0 0 0 0 0 0 0 0 0 0 0 0 0 0 0 0 0 0 0 0 0 0 0 0
0 0 0 0 0 0 0 0 0 0 0 0 0 0 0 0 0 0 0 0 0 0 0 0 0 0 0 0 0 0 0 0 0 0 0 0 0 0 0 0 0 0 0 0 0 0 0 0 0 0 0 0 0 0 0 0 0 0 0 0 0 0 0 0 0 0 0 0 0 0 0 0 0 0 0 0 0 0 0 0 0 0 0 0 76 80 84 147 153 158 147 153 158 147 153 158 76 80 84 0 0 0 0 0 0 0 0 0 0 0 0 0 0 0 0 0 0 0 0 0 0 0 0 0 0 0 0 0 0 0 0 0 0 0 0 0 0 0 0 0 0 0 0 0 0 0 0 0 0 0 0 0 0 0 0 0 0 0 0 0 0 0 0 0 0 0 0 0 0 0 0 0 0 0 0 0 0 0 0 0 0 0 0 0 0 0 0 0 0 0 0 0 76 80 84 147 153 158 147 153 158 147 153 158 76 80 84 0 0 0 0 0 0 0 0 0 0 0 0 0 0 0 0 0 0 0 0 0 0 0 0 0 0 0 0 0 0 0 0 0 0 0 0 0 0 0 0 0 0 0 0 0 0 0 0 0 0 0 0 0 0 0 0 0 0 0 0 0 0 0 0 0 0 0 0 0 0 0 0 0 0 0 0 0 0 0 0 0
0 0 0 0 0 0 0 0 0 0 0 0 0 0 0 0 0 0 0 0 0 0 0 0 0 0 0 0 0 0 0 0 0 0 0 0 0 0 0 0 0 0 0 0 0 0 0 0 0 0 0 0 0 0 0 0 0 0 0 0 0 0 0 0 0 0 0 0 0 0 0 0 0 0 0 0 0 0 0 0 0 76 80 84 145 151 156 145 151 156 145 151 156 145 151 156 145 151 156 76 80 84 0 0 0 0 0 0 0 0 0 0 0 0 0 0 0 0 0 0 0 0 0 0 0 0 0 0 0 0 0 0 0 0 0 0 0 0 0 0 0 0 0 0 0 0 0 0 0 0 0 0 0 0 0 0 0 0 0 0 0 0 0 0 0 0 0 0 0 0 0 0 0 0 0 0 0 0 0 0 0 0 0 0 0 0 0 0 0 76 80 84 145 151 156 145 151 156 145 151 156 145 151 156 145 151 156 76 80 84 0 0 0 0 0 0 0 0 0 0 0 0 0 0 0 0 0 0 0 0 0 0 0 0 0 0 0 0 0 0 0 0 0 0 0 0 0 0 0 0 0 0 0 0 0 0 0 0 0 0 0 0 0 0 0 0 0 0 0 0 0 0 0 0 0 0 0 0 0 0 0 0 0 0 0 0 0 0
0 0 0 0 0 0 0 0 0 0 0 0 0 0 0 0 0 0 0 0 0 0 0 0 0 0 0 0 0 0 0 0 0 0 0 0 0 0 0 0 0 0 0 0 0 0 0 0 0 0 0 0 0 0 0 0 0 0 0 0 0 0 0 0 0 0 0 0 0 0 0 0 0 0 0 0 0 0 76 80 84 143 150 155 143 150 155 143 150 155 143 150 155 143 150 155 143 150 155 143 150 155 76 80 84 0 0 0 0 0 0 0 0 0 0 0 0 0 0 0 0 0 0 0 0 0 0 0 0 0 0 0 0 0 0 0 0 0 0 0 0 0 0 0 0 0 0 0 0 0 0 0 0 0 0 0 0 0 0 0 0 0 0 0 0 0 0 0 0 0 0 0 0 0 0 0 0 0 0 0 0 0 0 0 0 0 76 80 84 143 150 155 143 150 155 143 150 155 143 150 155 143 150 155 143 150 155 143 150 155 76 80 84 0 0 0 0 0 0 0 0 0 0 0 0 0 0 0 0 0 0 0 0 0 0 0 0 0 0 0 0 0 0 0 0 0 0 0 0 0 0 0 0 0 0 0 0 0 0 0 0 0 0 0 0 0 0 0 0 0 0 0 0 0 0 0 0 0 0 0 0 0 0 0 0 0 0 0
0 0 0 0 0 0 0 0 0 0 0 0 0 0 0 0 0 0 0 0 0 0 0 0 0 0 0 0 0 0 0 0 0 0 0 0 0 0 0 0 0 0 0 0 0 0 0 0 0 0 0 0 0 0 0 0 0 0 0 0 0 0 0 0 0 0 0 0 0 0 0 0 0 0 0 0 0 0 76 80 84 142 148 153 142 148 153 142 148 153 142 148 153 142 148 153 142 148 153 142 148 153 76 80 84 0 0 0 0 0 0 0 0 0 0 0 0 0 0 0 0 0 0 0 0 0 0 0 0 0 0 0 0 0 0 0 0 0 0 0 0 0 0 0 0 0 0 0 0 0 0 0 0 0 0 0 0 0 0 0 0 0 0 0 0 0 0 0 0 0 0 0 0 0 0 0 0 0 0 0 0 0 0 0 0 0 76 80 84 142 148 153 142 148 153 142 148 153 142 148 153 142 148 153 142 148 153 142 148 153 76 80 84 0 0 0 0 0 0 0 0 0 0 0 0 0 0 0 0 0 0 0 0 0 0 0 0 0 0 0 0 0 0 0 0 0 0 0 0 0 0 0 0 0 0 0 0 0 0 0 0 0 0 0 0 0 0 0 0 0 0 0 0 0 0 0 0 0 0 0 0 0 0 0 0 0 0 0
0 0 0 0 0 0 0 0 0 0 0 0 0 0 0 0 0 0 0 0 0 0 0 0 0 0 0 0 0 0 0 0 0 0 0 0 0 0 0 0 0 0 0 0 0 0 0 0 0 0 0 0 0 0 0 0 0 0 0 0 0 0 0 0 0 0 0 0 0 0 0 0 0 0 0 76 80 84 140 146 152 140 146 152 140 146 152 140 146 152 140 146 152 140 146 152 140 146 152 140 146 152 140 146 152 76 80 84 0 0 0 0 0 0 0 0 0 0 0 0 0 0 0 0 0 0 0 0 0 0 0 0 0 0 0 0 0 0 0 0 0 0 0 0 0 0 0 0 0 0 0 0 0 0 0 0 0 0 0 0 0 0 0 0 0 0 0 0 0 0 0 0 0 0 0 0 0 0 0 0 0 0 0 76 80 84 140 146 152 140 146 152 140 146 152 140 146 152 140 146 152 140 146 152 140 146 152 140 146 152 140 146 152 76 80 84 0 0 0 0 0 0 0 0 0 0 0 0 0 0 0 0 0 0 0 0 0 0 0 0 0 0 0 0 0 0 0 0 0 0 0 0 0 0 0 0 0 0 0 0 0 0 0 0 0 0 0 0 0 0 0 0 0 0 0 0 0 0 0 0 0 0 0 0 0 0 0 0
0 0 0 0 0 0 0 0 0 0 0 0 0 0 0 0 0 0 0 0 0 0 0 0 0 0 0 0 0 0 0 0 0 0 0 0 0 0 0 0 0 0 0 0 0 0 0 0 0 0 0 0 0 0 0 0 0 0 0 0 0 0 0 0 0 0 0 0 0 49 56 61 49 56 61 49 56 61 49 56 61 49 56 61 49 56 61 49 56 61 49 56 61 49 56 61 49 56 61 49 56 61 49 56 61 49 56 61 49 56 61 49 56 61 49 56 61 49 56 61 49 56 61 49 56 61 49 56 61 49 56 61 49 56 61 49 56 61 49 56 61 49 56 61 49 56 61 49 56 61 49 56 61 49 56 61 49 56 61 49 56 61 49 56 61 49 56 61 49 56 61 49 56 61 49 56 61 49 56 61 49 56 61 49 56 61 49 56 61 49 56 61 49 56 61 49 56 61 49 56 61 49 56 61 49 56 61 49 56 61 49 56 61 49 56 61 49 56 61 0 0 0 0 0 0 0 0 0 0 0 0 0 0 0 0 0 0 0 0 0 0 0 0 0 0 0 0 0 0 0 0 0 0 0 0 0 0 0 0 0 0 0 0 0 0 0 0 0 0 0 0 0 0 0 0 0 0 0 0 0 0 0 0 0 0 0 0 0
0 0 0 0 0 0 0 0 0 0 0 0 0 0 0 0 0 0 0 0 0 0 0 0 0 0 0 0 0 0 0 0 0 0 0 0 0 0 0 0 0 0 0 0 0 0 0 0 0 0 0 0 0 0 0 0 0 0 0 0 0 0 0 0 0 0 0 0 0 49 56 61 49 56 61 49 56 61 49 56 61 49 56 61 49 56 61 49 56 61 49 56 61 49 56 61 49 56 61 49 56 61 49 56 61 49 56 61 49 56 61 49 56 61 49 56 61 49 56 61 49 56 61 49 56 61 49 56 61 49 56 61 49 56 61 49 56 61 49 56 61 49 56 61 49 56 61 49 56 61 49 56 61 49 56 61 49 56 61 49 56 61 49 56 61 49 56 61 49 56 61 49 56 61 49 56 61 49 56 61 49 56 61 49 56 61 49 56 61 49 56 61 49 56 61 49 56 61 49 56 61 49 56 61 49 56 61 49 56 61 49 56 61 49 56 61 49 56 61 76 80 84 0 0 0 0 0 0 0 0 0 0 0 0 0 0 0 0 0 0 0 0 0 0 0 0 0 0 0 0 0 0 0 0 0 0 0 0 0 0 0 0 0 0 0 0 0 0 0 0 0 0 0 0 0 0 0 0 0 0 0 0 0 0 0 0 0 0
0 0 0 0 0 0 0 0 0 0 0 0 0 0 0 0 0 0 0 0 0 0 0 0 0 0 0 0 0 0 0 0 0 0 0 0 0 0 0 0 0 0 0 0 0 0 0 0 0 0 0 0 0 0 0 0 0 0 0 0 0 0 0 0 0 0 76 80 84 49 56 61 49 56 61 49 56 61 49 56 61 49 56 61 49 56 61 49 56 61 49 56 61 49 56 61 49 56 61 49 56 61 49 56 61 49 56 61 49 56 61 49 56 61 49 56 61 49 56 61 49 56 61 49 56 61 49 56 61 49 56 61 49 56 61 49 56 61 49 56 61 49 56 61 49 56 61 49 56 61 49 56 61 49 56 61 49 56 61 49 56 61 49 56 61 49 56 61 49 56 61 49 56 61 49 56 61 49 56 61 49 56 61 49 56 61 49 56 61 49 56 61 49 56 61 49 56 61 49 56 61 49 56 61 49 56 61 49 56 61 49 56 61 49 56 61 49 56 61 135 142 147 76 80 84 0 0 0 0 0 0 0 0 0 0 0 0 0 0 0 0 0 0 0 0 0 0 0 0 0 0 0 0 0 0 0 0 0 0 0 0 0 0 0 0 0 0 0 0 0 0 0 0 0 0 0 0 0 0 0 0 0 0 0 0 0 0 0
0 0 0 0 0 0 0 0 0 0 0 0 0 0 0 0 0 0 0 0 0 0 0 0 0 0 0 0 0 0 0 0 0 0 0 0 0 0 0 0 0 0 0 0 0 0 0 0 0 0 0 0 0 0 0 0 0 0 0 0 0 0 0 0 0 0 76 80 84 49 56 61 49 56 61 49 56 61 49 56 61 49 56 61 49 56 61 49 56 61 49 56 61 49 56 61 49 56 61 49 56 61 49 56 61 49 56 61 49 56 61 49 56 61 49 56 61 49 56 61 49 56 61 49 56 61 49 56 61 49 56 61 49 56 61 49 56 61 49 56 61 49 56 61 49 56 61 49 56 61 49 56 61 49 56 61 49 56 61 49 56 61 49 56 61 49 56 61 49 56 61 49 56 61 49 56 61 49 56 61 49 56 61 49 56 61 49 56 61 49 56 61 49 56 61 49 56 61 49 56 61 49 56 61 49 56 61 49 56 61 49 56 61 49 56 61 49 56 61 133 140 146 76 80 84 0 0 0 0 0 0 0 0 0 0 0 0 0 0 0 0 0 0 0 0 0 0 0 0 0 0 0 0 0 0 0 0 0 0 0 0 0 0 0 0 0 0 0 0 0 0 0 0 0 0 0 0 0 0 0 0 0 0 0 0 0 0 0
0 0 0 0 0 0 0 0 0 0 0 0 0 0 0 0 0 0 0 0 0 0 0 0 0 0 0 0 0 0 0 0 0 0 0 0 0 0 0 0 0 0 0 0 0 0 0 0 0 0 0 0 0 0 0 0 0 0 0 0 0 0 0 76 80 84 132 138 144 49 56 61 49 56 61 49 56 61 49 56 61 49 56 61 49 56 61 49 56 61 49 56 61 49 56 61 49 56 61 49 56 61 49 56 61 49 56 61 49 56 61 49 56 61 49 56 61 49 56 61 49 56 61 49 56 61 49 56 61 49 56 61 49 56 61 49 56 61 49 56 61 49 56 61 49 56 61 49 56 61 49 56 61 49 56 61 49 56 61 49 56 61 49 56 61 49 56 61 49 56 61 49 56 61 49 56 61 49 56 61 49 56 61 49 56 61 49 56 61 49 56 61 49 56 61 49 56 61 49 56 61 49 56 61 49 56 61 49 56 61 49 56 61 49 56 61 49 56 61 132 138 144 132 138 144 76 80 84 0 0 0 0 0 0 0 0 0 0 0 0 0 0 0 0 0 0 0 0 0 0 0 0 0 0 0 0 0 0 0 0 0 0 0 0 0 0 0 0 0 0 0 0 0 0 0 0 0 0 0 0 0 0 0 0 0 0 0 0
0 0 0 0 0 0 0 0 0 0 0 0 0 0 0 0 0 0 0 0 0 0 0 0 0 0 0 0 0 0 0 0 0 0 0 0 0 0 0 0 0 0 0 0 0 0 0 0 0 0 0 0 0 0 0 0 0 0 0 0 76 80 84 130 137 143 130 137 143 49 56 61 49 56 61 49 56 61 49 56 61 49 56 61 49 56 61 49 56 61 49 56 61 49 56 61 49 56 61 49 56 61 49 56 61 49 56 61 49 56 61 49 56 61 49 56 61 49 56 61 49 56 61 49 56 61 49 56 61 49 56 61 49 56 61 49 56 61 49 56 61 49 56 61 49 56 61 49 56 61 49 56 61 49 56 61 49 56 61 49 56 61 49 56 61 49 56 61 49 56 61 49 56 61 49 56 61 49 56 61 49 56 61 49 56 61 49 56 61 49 56 61 49 56 61 49 56 61 49 56 61 49 56 61 49 56 61 49 56 61 49 56 61 49 56 61 49 56 61 130 137 143 130 137 143 130 137 143 76 80 84 0 0 0 0 0 0 0 0 0 0 0 0 0 0 0 0 0 0 0 0 0 0 0 0 0 0 0 0 0 0 0 0 0 0 0 0 0 0 0 0 0 0 0 0 0 0 0 0 0 0 0 0 0 0 0 0 0
0 0 0 0 0 0 0 0 0 0 0 0 0 0 0 0 0 0 0 0 0 0 0 0 0 0 0 0 0 0 0 0 0 0 0 0 0 0 0 0 0 0 0 0 0 0 0 0 0 0 0 0 0 0 0 0 0 76 80 84 128 135 141 128 135 141 128 135 141 49 56 61 49 56 61 49 56 61 49 56 61 49 56 61 49 56 61 49 56 61 49 56 61 49 56 61 49 56 61 49 56 61 49 56 61 49 56 61 49 56 61 49 56 61 49 56 61 49 56 61 49 56 61 49 56 61 49 56 61 49 56 61 49 56 61 49 56 61 49 56 61 49 56 61 49 56 61 49 56 61 49 56 61 49 56 61 49 56 61 49 56 61 49 56 61 49 56 61 49 56 61 49 56 61 49 56 61 49 56 61 49 56 61 49 56 61 49 56 61 49 56 61 49 56 61 49 56 61 49 56 61 49 56 61 49 56 61 49 56 61 49 56 61 49 56 61 49 56 61 128 135 141 128 135 141 128 135 141 128 135 141 76 80 84 0 0 0 0 0 0 0 0 0 0 0 0 0 0 0 0 0 0 0 0 0 0 0 0 0 0 0 0 0 0 0 0 0 0 0 0 0 0 0 0 0 0 0 0 0 0 0 0 0 0 0 0 0 0
0 0 0 0 0 0 0 0 0 0 0 0 0 0 0 0 0 0 0 0 0 0 0 0 0 0 0 0 0 0 0 0 0 0 0 0 0 0 0 0 0 0 0 0 0 0 0 0 0 0 0 0 0 0 76 80 84 127 134 140 127 134 140 127 134 140 127 134 140 49 56 61 49 56 61 49 56 61 49 56 61 49 56 61 49 56 61 49 56 61 49 56 61 49 56 61 49 56 61 49 56 61 49 56 61 49 56 61 49 56 61 49 56 61 49 56 61 49 56 61 49 56 61 49 56 61 49 56 61 49 56 61 49 56 61 49 56 61 49 56 61 49 56 61 111 124 255 49 56 61 49 56 61 49 56 61 49 56 61 49 56 61 49 56 61 49 56 61 49 56 61 49 56 61 49 56 61 49 56 61 49 56 61 49 56 61 49 56 61 49 56 61 49 56 61 49 56 61 49 56 61 49 56 61 49 56 61 49 56 61 49 56 61 49 56 61 49 56 61 127 134 140 127 134 140 127 134 140 127 134 140 127 134 140 76 80 84 0 0 0 0 0 0 0 0 0 0 0 0 0 0 0 0 0 0 0 0 0 0 0 0 0 0 0 0 0 0 0 0 0 0 0 0 0 0 0 0 0 0 0 0 0 0 0 0 0 0 0
0 0 0 0 0 0 0 0 0 0 0 0 0 0 0 0 0 0 0 0 0 0 0 0 0 0 0 0 0 0 0 0 0 0 0 0 0 0 0 0 0 0 0 0 0 0 0 0 0 0 0 0 0 0 57 62 67 76 80 84 123 130 136 123 130 136 123 130 136 123 130 136 123 130 136 123 130 136 123 130 136 126 138 146 126 138 146 126 138 146 126 138 146 126 138 146 126 138 146 126 138 146 126 138 146 126 138 146 126 138 146 126 138 146 126 138 146 126 138 146 126 138 146 126 138 146 126 138 146 111 124 255 111 124 255 111 124 255 111 124 255 111 124 255 111 124 255 111 124 255 111 124 255 111 124 255 111 124 255 111 124 255 126 138 146 126 138 146 126 138 146 126 138 146 126 138 146 126 138 146 126 138 146 126 138 146 126 138 146 126 138 146 126 138 146 126 138 146 126 138 146 126 138 146 126 138 146 123 130 136 123 130 136 123 130 136 123 130 136 123 130 136 123 130 136 123 130 136 123 130 136 76 80 84 63 69 74 0 0 0 0 0 0 0 0 0 0 0 0 0 0 0 0 0 0 0 0 0 0 0 0 0 0 0 0 0 0 0 0 0 0 0 0 0 0 0 0 0 0 0 0 0 0 0 0 0 0 0
0 0 0 0 0 0 0 0 0 0 0 0 0 0 0 0 0 0 0 0 0 0 0 0 0 0 0 0 0 0 0 0 0 0 0 0 0 0 0 0 0 0 0 0 0 0 0 0 0 0 0 0 0 0 57 62 67 0 0 0 76 80 84 120 126 132 120 126 132 120 126 132 120 126 132 120 126 132 120 126 132 126 138 146 126 138 146 126 138 146 126 138 146 126 138 146 126 138 146 126 138 146 126 138 146 126 138 146 126 138 146 126 138 146 126 138 146 126 138 146 126 138 146 111 124 255 111 124 255 111 124 255 111 124 255 111 124 255 111 124 255 111 124 255 111 124 255 111 124 255 111 124 255 111 124 255 111 124 255 111 124 255 111 124 255 111 124 255 126 138 146 126 138 146 126 138 146 126 138 146 126 138 146 126 138 146 126 138 146 126 138 146 126 138 146 126 138 146 126 138 146 126 138 146 126 138 146 120 126 132 120 126 132 120 126 132 120 126 132 120 126 132 120 126 132 120 126 132 76 80 84 63 69 74 0 0 0 0 0 0 0 0 0 0 0 0 0 0 0 0 0 0 0 0 0 0 0 0 0 0 0 0 0 0 0 0 0 0 0 0 0 0 0 0 0 0 0 0 0 0 0 0 0 0 0 0 0 0
0 0 0 0 0 0 0 0 0 0 0 0 0 0 0 0 0 0 0 0 0 0 0 0 0 0 0 0 0 0 0 0 0 0 0 0 0 0 0 0 0 0 0 0 0 0 0 0 0 0 0 0 0 0 57 62 67 57 62 67 0 0 0 76 80 84 116 123 128 116 123 128 116 123 128 116 123 128 116 123 128 126 138 146 126 138 146 126 138 146 126 138 146 126 138 146 126 138 146 126 138 146 126 138 146 126 138 146 126 138 146 126 138 146 126 138 146 126 138 146 111 124 255 111 124 255 111 124 255 111 124 255 111 124 255 111 124 255 111 124 255 111 124 255 111 124 255 111 124 255 111 124 255 111 124 255 111 124 255 111 124 255 111 124 255 111 124 255 111 124 255 126 138 146 126 138 146 126 138 146 126 138 146 126 138 146 126 138 146 126 138 146 126 138 146 126 138 146 126 138 146 126 138 146 126 138 146 116 123 128 116 123 128 116 123 128 116 123 128 116 123 128 116 123 128 76 80 84 63 69 74 63 69 74 0 0 0 0 0 0 0 0 0 0 0 0 0 0 0 0 0 0 0 0 0 0 0 0 0 0 0 0 0 0 0 0 0 0 0 0 0 0 0 0 0 0 0 0 0 0 0 0 0 0 0 0 0 0
0 0 0 0 0 0 0 0 0 0 0 0 0 0 0 0 0 0 0 0 0 0 0 0 0 0 0 0 0 0 0 0 0 0 0 0 0 0 0 0 0 0 0 0 0 0 0 0 0 0 0 0 0 0 57 62 67 57 62 67 57 62 67 0 0 0 76 80 84 113 119 125 113 119 125 113 119 125 113 119 125 126 138 146 126 138 146 126 138 146 126 138 146 126 138 146 126 138 146 126 138 146 126 138 146 126 138 146 126 138 146 126 138 146 126 138 146 111 124 255 111 124 255 111 124 255 111 124 255 111 124 255 111 124 255 111 124 255 111 124 255 111 124 255 111 124 255 111 124 255 111 124 255 111 124 255 111 124 255 111 124 255 111 124 255 111 124 255 111 124 255 111 124 255 126 138 146 126 138 146 126 138 146 126 138 146 126 138 146 126 138 146 126 138 146 126 138 146 126 138 146 126 138 146 126 138 146 113 119 125 113 119 125 113 119 125 113 119 125 113 119 125 76 80 84 63 69 74 63 69 74 63 69 74 0 0 0 0 0 0 0 0 0 0 0 0 0 0 0 0 0 0 0 0 0 0 0 0 0 0 0 0 0 0 0 0 0 0 0 0 0 0 0 0 0 0 0 0 0 0 0 0 0 0 0 0 0 0
0 0 0 0 0 0 0 0 0 0 0 0 0 0 0 0 0 0 0 0 0 0 0 0 0 0 0 0 0 0 0 0 0 0 0 0 0 0 0 0 0 0 0 0 0 0 0 0 0 0 0 0 0 0 57 62 67 57 62 67 57 62 67 57 62 67 76 80 84 110 116 121 110 116 121 110 116 121 110 116 121 126 138 146 126 138 146 126 138 146 126 138 146 126 138 146 126 138 146 126 138 146 126 138 146 126 138 146 126 138 146 111 124 255 111 124 255 111 124 255 111 124 255 111 124 255 111 124 255 111 124 255 111 124 255 111 124 255 111 124 255 111 124 255 111 124 255 111 124 255 111 124 255 111 124 255 111 124 255 111 124 255 111 124 255 111 124 255 111 124 255 111 124 255 111 124 255 111 124 255 126 138 146 126 138 146 126 138 146 126 138 146 126 138 146 126 138 146 126 138 146 126 138 146 126 138 146 110 116 121 110 116 121 110 116 121 110 116 121 110 116 121 76 80 84 63 69 74 63 69 74 63 69 74 0 0 0 0 0 0 0 0 0 0 0 0 0 0 0 0 0 0 0 0 0 0 0 0 0 0 0 0 0 0 0 0 0 0 0 0 0 0 0 0 0 0 0 0 0 0 0 0 0 0 0 0 0 0
0 0 0 0 0 0 0 0 0 0 0 0 0 0 0 0 0 0 0 0 0 0 0 0 0 0 0 0 0 0 0 0 0 0 0 0 0 0 0 0 0 0 0 0 0 0 0 0 0 0 0 0 0 0 57 62 67 57 62 67 57 62 67 57 62 67 0 0 0 76 80 84 106 112 117 106 112 117 106 112 117 126 138 146 126 138 146 126 138 146 126 138 146 126 138 146 126 138 146 126 138 146 126 138 146 126 138 146 111 124 255 111 124 255 111 124 255 111 124 255 111 124 255 111 124 255 111 124 255 111 124 255 111 124 255 111 124 255 111 124 255 111 124 255 111 124 255 111 124 255 111 124 255 111 124 255 111 124 255 111 124 255 111 124 255 111 124 255 111 124 255 111 124 255 111 124 255 111 124 255 111 124 255 126 138 146 126 138 146 126 138 146 126 138 146 126 138 146 126 138 146 126 138 146 126 138 146 106 112 117 106 112 117 106 112 117 106 112 117 76 80 84 63 69 74 63 69 74 63 69 74 63 69 74 0 0 0 0 0 0 0 0 0 0 0 0 0 0 0 0 0 0 0 0 0 0 0 0 0 0 0 0 0 0 0 0 0 0 0 0 0 0 0 0 0 0 0 0 0 0 0 0 0 0 0 0 0 0
0 0 0 0 0 0 0 0 0 0 0 0 0 0 0 0 0 0 0 0 0 0 0 0 0 0 0 0 0 0 0 0 0 0 0 0 0 0 0 0 0 0 0 0 0 0 0 0 0 0 0 0 0 0 57 62 67 57 62 67 57 62 67 57 62 67 57 62 67 0 0 0 76 80 84 103 108 113 103 108 113 126 138 146 126 138 146 126 138 146 126 138 146 126 138 146 126 138 146 126 138 146 126 138 146 126 138 146 111 124 255 111 124 255 111 124 255 111 124 255 111 124 255 111 124 255 111 124 255 111 124 255 111 124 255 111 124 255 111 124 255 111 124 255 111 124 255 111 124 255 111 124 255 111 124 255 111 124 255 111 124 255 111 124 255 111 124 255 111 124 255 111 124 255 111 124 255 111 124 255 111 124 255 126 138 146 126 138 146 126 138 146 126 138 146 126 138 146 126 138 146 126 138 146 126 138 146 103 108 113 103 108 113 103 108 113 76 80 84 63 69 74 63 69 74 63 69 74 63 69 74 63 69 74 0 0 0 0 0 0 0 0 0 0 0 0 0 0 0 0 0 0 0 0 0 0 0 0 0 0 0 0 0 0 0 0 0 0 0 0 0 0 0 0 0 0 0 0 0 0 0 0 0 0 0 0 0 0
0 0 0 0 0 0 0 0 0 0 0 0 0 0 0 0 0 0 0 0 0 0 0 0 0 0 0 0 0 0 0 0 0 0 0 0 0 0 0 0 0 0 0 0 0 0 0 0 0 0 0 0 0 0 57 62 67 57 62 67 57 62 67 57 62 67 57 62 67 57 62 67 0 0 0 76 80 84 99 105 110 126 138 146 126 138 146 126 138 146 126 138 146 126 138 146 126 138 146 126 138 146 126 138 146 111 124 255 111 124 255 111 124 255 111 124 255 111 124 255 111 124 255 111 124 255 111 124 255 111 124 255 111 124 255 111 124 255 111 124 255 111 124 255 111 124 255 111 124 255 111 124 255 111 124 255 111 124 255 111 124 255 111 124 255 111 124 255 111 124 255 111 124 255 111 124 255 111 124 255 111 124 255 111 124 255 126 138 146 126 138 146 126 138 146 126 138 146 126 138 146 126 138 146 126 138 146 99 105 110 99 105 110 76 80 84 63 69 74 63 69 74 63 69 74 63 69 74 63 69 74 63 69 74 0 0 0 0 0 0 0 0 0 0 0 0 0 0 0 0 0 0 0 0 0 0 0 0 0 0 0 0 0 0 0 0 0 0 0 0 0 0 0 0 0 0 0 0 0 0 0 0 0 0 0 0 0 0
0 0 0 0 0 0 0 0 0 0 0 0 0 0 0 0 0 0 0 0 0 0 0 0 0 0 0 0 0 0 0 0 0 0 0 0 0 0 0 0 0 0 0 0 0 0 0 0 0 0 0 0 0 0 57 62 67 57 62 67 57 62 67 57 62 67 57 62 67 57 62 67 57 62 67 0 0 0 76 80 84 96 101 106 96 101 106 96 101 106 96 101 106 96 101 106 96 101 106 96 101 106 111 124 255 111 124 255 111 124 255 111 124 255 111 124 255 111 124 255 111 124 255 111 124 255 111 124 255 111 124 255 111 124 255 111 124 255 111 124 255 111 124 255 111 124 255 111 124 255 111 124 255 111 124 255 111 124 255 111 124 255 111 124 255 111 124 255 111 124 255 111 124 255 111 124 255 111 124 255 111 124 255 111 124 255 111 124 255 96 101 106 96 101 106 96 101 106 96 101 106 96 101 106 96 101 106 96 101 106 76 80 84 63 69 74 63 69 74 63 69 74 63 69 74 63 69 74 63 69 74 63 69 74 0 0 0 0 0 0 0 0 0 0 0 0 0 0 0 0 0 0 0 0 0 0 0 0 0 0 0 0 0 0 0 0 0 0 0 0 0 0 0 0 0 0 0 0 0 0 0 0 0 0 0 0 0 0
0 0 0 0 0 0 0 0 0 0 0 0 0 0 0 0 0 0 0 0 0 0 0 0 0 0 0 0 0 0 0 0 0 0 0 0 0 0 0 0 0 0 0 0 0 0 0 0 0 0 0 0 0 0 57 62 67 57 62 67 57 62 67 57 62 67 57 62 67 57 62 67 57 62 67 57 62 67 76 80 84 93 98 102 93 98 102 93 98 102 93 98 102 93 98 102 93 98 102 93 98 102 111 124 255 111 124 255 111 124 255 111 124 255 111 124 255 111 124 255 111 124 255 111 124 255 111 124 255 111 124 255 111 124 255 111 124 255 111 124 255 111 124 255 199 211 255 111 124 255 111 124 255 111 124 255 111 124 255 111 124 255 111 124 255 111 124 255 111 124 255 111 124 255 111 124 255 111 124 255 111 124 255 111 124 255 111 124 255 93 98 102 93 98 102 93 98 102 93 98 102 93 98 102 93 98 102 93 98 102 76 80 84 63 69 74 63 69 74 63 69 74 63 69 74 63 69 74 63 69 74 63 69 74 0 0 0 0 0 0 0 0 0 0 0 0 0 0 0 0 0 0 0 0 0 0 0 0 0 0 0 0 0 0 0 0 0 0 0 0 0 0 0 0 0 0 0 0 0 0 0 0 0 0 0 0 0 0
0 0 0 0 0 0 0 0 0 0 0 0 0 0 0 0 0 0 0 0 0 0 0 0 0 0 0 0 0 0 0 0 0 0 0 0 0 0 0 0 0 0 0 0 0 0 0 0 0 0 0 0 0 0 57 62 67 57 62 67 57 62 67 57 62 67 57 62 67 57 62 67 57 62 67 57 62 67 0 0 0 76 80 84 89 94 98 89 94 98 89 94 98 89 94 98 89 94 98 111 124 255 111 124 255 111 124 255 111 124 255 111 124 255 111 124 255 111 124 255 111 124 255 111 124 255 111 124 255 111 124 255 111 124 255 199 211 255 199 211 255 199 211 255 199 211 255 199 211 255 199 211 255 199 211 255 111 124 255 111 124 255 111 124 255 111 124 255 111 124 255 111 124 255 111 124 255 111 124 255 111 124 255 111 124 255 111 124 255 111 124 255 89 94 98 89 94 98 89 94 98 89 94 98 89 94 98 76 80 84 63 69 74 63 69 74 63 69 74 63 69 74 63 69 74 63 69 74 63 69 74 63 69 74 0 0 0 0 0 0 0 0 0 0 0 0 0 0 0 0 0 0 0 0 0 0 0 0 0 0 0 0 0 0 0 0 0 0 0 0 0 0 0 0 0 0 0 0 0 0 0 0 0 0 0 0 0 0
0 0 0 0 0 0 0 0 0 0 0 0 0 0 0 0 0 0 0 0 0 0 0 0 0 0 0 0 0 0 0 0 0 0 0 0 0 0 0 0 0 0 0 0 0 0 0 0 0 0 0 0 0 0 57 62 67 57 62 67 57 62 67 57 62 67 57 62 67 57 62 67 57 62 67 57 62 67 57 62 67 0 0 0 76 80 84 86 90 95 86 90 95 86 90 95 111 124 255 111 124 255 111 124 255 111 124 255 111 124 255 111 124 255 111 124 255 111 124 255 111 124 255 111 124 255 111 124 255 111 124 255 199 211 255 199 211 255 199 211 255 199 211 255 199 211 255 199 211 255 199 211 255 199 211 255 199 211 255 111 124 255 111 124 255 111 124 255 111 124 255 111 124 255 111 124 255 111 124 255 111 124 255 111 124 255 111 124 255 111 124 255 111 124 255 86 90 95 86 90 95 86 90 95 76 80 84 63 69 74 63 69 74 63 69 74 63 69 74 63 69 74 63 69 74 63 69 74 63 69 74 63 69 74 0 0 0 0 0 0 0 0 0 0 0 0 0 0 0 0 0 0 0 0 0 0 0 0 0 0 0 0 0 0 0 0 0 0 0 0 0 0 0 0 0 0 0 0 0 0 0 0 0 0 0 0 0 0
0 0 0 0 0 0 0 0 0 0 0 0 0 0 0 0 0 0 0 0 0 0 0 0 0 0 0 0 0 0 0 0 0 0 0 0 0 0 0 0 0 0 0 0 0 0 0 0 0 0 0 0 0 0 57 62 67 57 62 67 57 62 67 57 62 67 57 62 67 57 62 67 57 62 67 57 62 67 57 62 67 57 62 67 0 0 0 76 80 84 82 87 91 76 80 84 111 124 255 111 124 255 111 124 255 111 124 255 111 124 255 111 124 255 111 124 255 111 124 255 111 124 255 111 124 255 111 124 255 199 211 255 199 211 255 199 211 255 199 211 255 199 211 255 199 211 255 199 211 255 199 211 255 199 211 255 199 211 255 199 211 255 111 124 255 111 124 255 111 124 255 111 124 255 111 124 255 111 124 255 111 124 255 111 124 255 111 124 255 111 124 255 111 124 255 76 80 84 82 87 91 76 80 84 63 69 74 63 69 74 63 69 74 63 69 74 63 69 74 63 69 74 63 69 74 63 69 74 63 69 74 63 69 74 0 0 0 0 0 0 0 0 0 0 0 0 0 0 0 0 0 0 0 0 0 0 0 0 0 0 0 0 0 0 0 0 0 0 0 0 0 0 0 0 0 0 0 0 0 0 0 0 0 0 0 0 0 0
0 0 0 0 0 0 0 0 0 0 0 0 0 0 0 0 0 0 0 0 0 0 0 0 0 0 0 0 0 0 0 0 0 0 0 0 0 0 0 0 0 0 0 0 0 0 0 0 0 0 0 0 0 0 57 62 67 57 62 67 57 62 67 57 62 67 57 62 67 57 62 67 57 62 67 57 62 67 57 62 67 57 62 67 57 62 67 0 0 0 79 83 87 63 69 74 111 124 255 111 124 255 111 124 255 111 124 255 111 124 255 111 124 255 111 124 255 111 124 255 111 124 255 111 124 255 199 211 255 199 211 255 199 211 255 199 211 255 199 211 255 199 211 255 199 211 255 199 211 255 199 211 255 199 211 255 199 211 255 199 211 255 199 211 255 111 124 255 111 124 255 111 124 255 111 124 255 111 124 255 111 124 255 111 124 255 111 124 255 111 124 255 111 124 255 0 0 0 79 83 87 63 69 74 63 69 74 63 69 74 63 69 74 63 69 74 63 69 74 63 69 74 63 69 74 63 69 74 63 69 74 63 69 74 0 0 0 0 0 0 0 0 0 0 0 0 0 0 0 0 0 0 0 0 0 0 0 0 0 0 0 0 0 0 0 0 0 0 0 0 0 0 0 0 0 0 0 0 0 0 0 0 0 0 0 0 0 0
0 0 0 0 0 0 0 0 0 0 0 0 0 0 0 0 0 0 0 0 0 0 0 0 0 0 0 0 0 0 0 0 0 0 0 0 0 0 0 0 0 0 0 0 0 0 0 0 0 0 0 0 0 0 57 62 67 57 62 67 57 62 67 57 62 67 57 62 67 57 62 67 57 62 67 57 62 67 57 62 67 57 62 67 57 62 67 57 62 67 63 69 74 111 124 255 111 124 255 111 124 255 111 124 255 111 124 255 111 124 255 111 124 255 111 124 255 111 124 255 111 124 255 199 211 255 199 211 255 199 211 255 199 211 255 199 211 255 199 211 255 199 211 255 199 211 255 199 211 255 199 211 255 199 211 255 199 211 255 199 211 255 199 211 255 199 211 255 111 124 255 111 124 255 111 124 255 111 124 255 111 124 255 111 124 255 111 124 255 111 124 255 111 124 255 111 124 255 63 69 74 63 69 74 63 69 74 63 69 74 63 69 74 63 69 74 63 69 74 63 69 74 63 69 74 63 69 74 63 69 74 63 69 74 0 0 0 0 0 0 0 0 0 0 0 0 0 0 0 0 0 0 0 0 0 0 0 0 0 0 0 0 0 0 0 0 0 0 0 0 0 0 0 0 0 0 0 0 0 0 0 0 0 0 0 0 0 0
0 0 0 0 0 0 0 0 0 0 0 0 0 0 0 0 0 0 0 0 0 0 0 0 0 0 0 0 0 0 0 0 0 0 0 0 0 0 0 0 0 0 0 0 0 0 0 0 0 0 0 0 0 0 57 62 67 57 62 67 57 62 67 57 62 67 57 62 67 57 62 67 57 62 67 57 62 67 57 62 67 57 62 67 57 62 67 57 62 67 63 69 74 111 124 255 111 124 255 111 124 255 111 124 255 111 124 255 111 124 255 111 124 255 111 124 255 111 124 255 111 124 255 199 211 255 199 211 255 199 211 255 199 211 255 199 211 255 199 211 255 199 211 255 199 211 255 199 211 255 199 211 255 199 211 255 199 211 255 199 211 255 199 211 255 199 211 255 111 124 255 111 124 255 111 124 255 111 124 255 111 124 255 111 124 255 111 124 255 111 124 255 111 124 255 111 124 255 63 69 74 63 69 74 63 69 74 63 69 74 63 69 74 63 69 74 63 69 74 63 69 74 63 69 74 63 69 74 63 69 74 63 69 74 0 0 0 0 0 0 0 0 0 0 0 0 0 0 0 0 0 0 0 0 0 0 0 0 0 0 0 0 0 0 0 0 0 0 0 0 0 0 0 0 0 0 0 0 0 0 0 0 0 0 0 0 0 0
0 0 0 0 0 0 0 0 0 0 0 0 0 0 0 0 0 0 0 0 0 0 0 0 0 0 0 0 0 0 0 0 0 0 0 0 0 0 0 0 0 0 0 0 0 0 0 0 0 0 0 0 0 0 57 62 67 57 62 67 57 62 67 57 62 67 57 62 67 57 62 67 57 62 67 57 62 67 57 62 67 57 62 67 57 62 67 57 62 67 111 124 255 111 124 255 111 124 255 111 124 255 111 124 255 111 124 255 111 124 255 111 124 255 111 124 255 111 124 255 199 211 255 199 211 255 199 211 255 199 211 255 199 211 255 199 211 255 199 211 255 199 211 255 199 211 255 199 211 255 199 211 255 199 211 255 199 211 255 199 211 255 199 211 255 199 211 255 199 211 255 111 124 255 111 124 255 111 124 255 111 124 255 111 124 255 111 124 255 111 124 255 111 124 255 111 124 255 111 124 255 63 69 74 63 69 74 63 69 74 63 69 74 63 69 74 63 69 74 63 69 74 63 69 74 63 69 74 63 69 74 63 69 74 0 0 0 0 0 0 0 0 0 0 0 0 0 0 0 0 0 0 0 0 0 0 0 0 0 0 0 0 0 0 0 0 0 0 0 0 0 0 0 0 0 0 0 0 0 0 0 0 0 0 0 0 0 0
0 0 0 0 0 0 0 0 0 0 0 0 0 0 0 0 0 0 0 0 0 0 0 0 0 0 0 0 0 0 0 0 0 0 0 0 0 0 0 0 0 0 0 0 0 0 0 0 0 0 0 0 0 0 57 62 67 57 62 67 57 62 67 57 62 67 57 62 67 57 62 67 57 62 67 57 62 67 57 62 67 57 62 67 57 62 67 57 62 67 111 124 255 111 124 255 111 124 255 111 124 255 111 124 255 111 124 255 111 124 255 111 124 255 111 124 255 111 124 255 199 211 255 199 211 255 199 211 255 199 211 255 199 211 255 199 211 255 199 211 255 199 211 255 199 211 255 199 211 255 199 211 255 199 211 255 199 211 255 199 211 255 199 211 255 199 211 255 199 211 255 111 124 255 111 124 255 111 124 255 111 124 255 111 124 255 111 124 255 111 124 255 111 124 255 111 124 255 111 124 255 63 69 74 63 69 74 63 69 74 63 69 74 63 69 74 63 69 74 63 69 74 63 69 74 63 69 74 63 69 74 63 69 74 0 0 0 0 0 0 0 0 0 0 0 0 0 0 0 0 0 0 0 0 0 0 0 0 0 0 0 0 0 0 0 0 0 0 0 0 0 0 0 0 0 0 0 0 0 0 0 0 0 0 0 0 0 0
0 0 0 0 0 0 0 0 0 0 0 0 0 0 0 0 0 0 0 0 0 0 0 0 0 0 0 0 0 0 0 0 0 0 0 0 0 0 0 0 0 0 0 0 0 0 0 0 0 0 0 0 0 0 57 62 67 57 62 67 57 62 67 57 62 67 57 62 67 57 62 67 57 62 67 57 62 67 57 62 67 57 62 67 57 62 67 57 62 67 111 124 255 111 124 255 111 124 255 111 124 255 111 124 255 111 124 255 111 124 255 111 124 255 111 124 255 199 211 255 199 211 255 199 211 255 199 211 255 199 211 255 199 211 255 199 211 255 199 211 255 199 211 255 199 211 255 199 211 255 199 211 255 199 211 255 199 211 255 199 211 255 199 211 255 199 211 255 199 211 255 199 211 255 111 124 255 111 124 255 111 124 255 111 124 255 111 124 255 111 124 255 111 124 255 111 124 255 111 124 255 63 69 74 63 69 74 63 69 74 63 69 74 63 69 74 63 69 74 63 69 74 63 69 74 63 69 74 63 69 74 63 69 74 0 0 0 0 0 0 0 0 0 0 0 0 0 0 0 0 0 0 0 0 0 0 0 0 0 0 0 0 0 0 0 0 0 0 0 0 0 0 0 0 0 0 0 0 0 0 0 0 0 0 0 0 0 0
0 0 0 0 0 0 0 0 0 0 0 0 0 0 0 0 0 0 0 0 0 0 0 0 0 0 0 0 0 0 0 0 0 0 0 0 0 0 0 0 0 0 0 0 0 0 0 0 0 0 0 0 0 0 57 62 67 57 62 67 57 62 67 57 62 67 57 62 67 57 62 67 57 62 67 57 62 67 57 62 67 57 62 67 57 62 67 57 62 67 111 124 255 111 124 255 111 124 255 111 124 255 111 124 255 111 124 255 111 124 255 111 124 255 111 124 255 199 211 255 199 211 255 199 211 255 199 211 255 199 211 255 199 211 255 199 211 255 199 211 255 199 211 255 199 211 255 199 211 255 199 211 255 199 211 255 199 211 255 199 211 255 199 211 255 199 211 255 199 211 255 199 211 255 111 124 255 111 124 255 111 124 255 111 124 255 111 124 255 111 124 255 111 124 255 111 124 255 111 124 255 63 69 74 63 69 74 63 69 74 63 69 74 63 69 74 63 69 74 63 69 74 63 69 74 63 69 74 63 69 74 63 69 74 0 0 0 0 0 0 0 0 0 0 0 0 0 0 0 0 0 0 0 0 0 0 0 0 0 0 0 0 0 0 0 0 0 0 0 0 0 0 0 0 0 0 0 0 0 0 0 0 0 0 0 0 0 0
0 0 0 0 0 0 0 0 0 0 0 0 0 0 0 0 0 0 0 0 0 0 0 0 0 0 0 0 0 0 0 0 0 0 0 0 0 0 0 0 0 0 0 0 0 0 0 0 0 0 0 0 0 0 57 62 67 57 62 67 57 62 67 57 62 67 57 62 67 57 62 67 57 62 67 57 62 67 57 62 67 57 62 67 57 62 67 111 124 255 111 124 255 111 124 255 111 124 255 111 124 255 111 124 255 111 124 255 111 124 255 111 124 255 111 124 255 199 211 255 199 211 255 199 211 255 199 211 255 199 211 255 199 211 255 199 211 255 199 211 255 199 211 255 199 211 255 199 211 255 199 211 255 199 211 255 199 211 255 199 211 255 199 211 255 199 211 255 199 211 255 199 211 255 111 124 255 111 124 255 111 124 255 111 124 255 111 124 255 111 124 255 111 124 255 111 124 255 111 124 255 111 124 255 63 69 74 63 69 74 63 69 74 63 69 74 63 69 74 63 69 74 63 69 74 63 69 74 63 69 74 63 69 74 0 0 0 0 0 0 0 0 0 0 0 0 0 0 0 0 0 0 0 0 0 0 0 0 0 0 0 0 0 0 0 0 0 0 0 0 0 0 0 0 0 0 0 0 0 0 0 0 0 0 0 0 0 0
0 0 0 0 0 0 0 0 0 0 0 0 0 0 0 0 0 0 0 0 0 0 0 0 0 0 0 0 0 0 0 0 0 0 0 0 0 0 0 0 0 0 0 0 0 0 0 0 0 0 0 0 0 0 57 62 67 57 62 67 57 62 67 57 62 67 57 62 67 57 62 67 57 62 67 57 62 67 57 62 67 57 62 67 57 62 67 111 124 255 111 124 255 111 124 255 111 124 255 111 124 255 111 124 255 111 124 255 111 124 255 111 124 255 199 211 255 199 211 255 199 211 255 199 211 255 199 211 255 199 211 255 199 211 255 199 211 255 199 211 255 199 211 255 199 211 255 199 211 255 199 211 255 199 211 255 199 211 255 199 211 255 199 211 255 199 211 255 199 211 255 199 211 255 199 211 255 111 124 255 111 124 255 111 124 255 111 124 255 111 124 255 111 124 255 111 124 255 111 124 255 111 124 255 63 69 74 63 69 74 63 69 74 63 69 74 63 69 74 63 69 74 63 69 74 63 69 74 63 69 74 63 69 74 0 0 0 0 0 0 0 0 0 0 0 0 0 0 0 0 0 0 0 0 0 0 0 0 0 0 0 0 0 0 0 0 0 0 0 0 0 0 0 0 0 0 0 0 0 0 0 0 0 0 0 0 0 0
0 0 0 0 0 0 0 0 0 0 0 0 0 0 0 0 0 0 0 0 0 0 0 0 0 0 0 0 0 0 0 0 0 0 0 0 0 0 0 0 0 0 0 0 0 0 0 0 0 0 0 0 0 0 57 62 67 57 62 67 57 62 67 57 62 67 57 62 67 57 62 67 57 62 67 57 62 67 57 62 67 57 62 67 57 62 67 111 124 255 111 124 255 111 124 255 111 124 255 111 124 255 111 124 255 111 124 255 111 124 255 111 124 255 199 211 255 199 211 255 199 211 255 199 211 255 199 211 255 199 211 255 199 211 255 199 211 255 199 211 255 199 211 255 199 211 255 199 211 255 199 211 255 199 211 255 199 211 255 199 211 255 199 211 255 199 211 255 199 211 255 199 211 255 199 211 255 111 124 255 111 124 255 111 124 255 111 124 255 111 124 255 111 124 255 111 124 255 111 124 255 111 124 255 63 69 74 63 69 74 63 69 74 63 69 74 63 69 74 63 69 74 63 69 74 63 69 74 63 69 74 63 69 74 0 0 0 0 0 0 0 0 0 0 0 0 0 0 0 0 0 0 0 0 0 0 0 0 0 0 0 0 0 0 0 0 0 0 0 0 0 0 0 0 0 0 0 0 0 0 0 0 0 0 0 0 0 0
0 0 0 0 0 0 0 0 0 0 0 0 0 0 0 0 0 0 0 0 0 0 0 0 0 0 0 0 0 0 0 0 0 0 0 0 0 0 0 0 0 0 0 0 0 0 0 0 0 0 0 0 0 0 57 62 67 57 62 67 57 62 67 57 62 67 57 62 67 57 62 67 57 62 67 57 62 67 57 62 67 57 62 67 57 62 67 111 124 255 111 124 255 111 124 255 111 124 255 111 124 255 111 124 255 111 124 255 111 124 255 111 124 255 199 211 255 199 211 255 199 211 255 199 211 255 199 211 255 199 211 255 199 211 255 199 211 255 199 211 255 199 211 255 199 211 255 199 211 255 199 211 255 199 211 255 199 211 255 199 211 255 199 211 255 199 211 255 199 211 255 199 211 255 199 211 255 111 124 255 111 124 255 111 124 255 111 124 255 111 124 255 111 124 255 111 124 255 111 124 255 111 124 255 63 69 74 63 69 74 63 69 74 63 69 74 63 69 74 63 69 74 63 69 74 63 69 74 63 69 74 63 69 74 0 0 0 0 0 0 0 0 0 0 0 0 0 0 0 0 0 0 0 0 0 0 0 0 0 0 0 0 0 0 0 0 0 0 0 0 0 0 0 0 0 0 0 0 0 0 0 0 0 0 0 0 0 0
0 0 0 0 0 0 0 0 0 0 0 0 0 0 0 0 0 0 0 0 0 0 0 0 0 0 0 0 0 0 0 0 0 0 0 0 0 0 0 0 0 0 0 0 0 0 0 0 0 0 0 0 0 0 57 62 67 57 62 67 57 62 67 57 62 67 57 62 67 57 62 67 57 62 67 57 62 67 57 62 67 57 62 67 57 62 67 111 124 255 111 124 255 111 124 255 111 124 255 111 124 255 111 124 255 111 124 255 111 124 255 111 124 255 199 211 255 199 211 255 199 211 255 199 211 255 199 211 255 199 211 255 199 211 255 199 211 255 199 211 255 199 211 255 199 211 255 199 211 255 199 211 255 199 211 255 199 211 255 199 211 255 199 211 255 199 211 255 199 211 255 199 211 255 199 211 255 111 124 255 111 124 255 111 124 255 111 124 255 111 124 255 111 124 255 111 124 255 111 124 255 111 124 255 63 69 74 63 69 74 63 69 74 63 69 74 63 69 74 63 69 74 63 69 74 63 69 74 63 69 74 63 69 74 0 0 0 0 0 0 0 0 0 0 0 0 0 0 0 0 0 0 0 0 0 0 0 0 0 0 0 0 0 0 0 0 0 0 0 0 0 0 0 0 0 0 0 0 0 0 0 0 0 0 0 0 0 0
0 0 0 0 0 0 0 0 0 0 0 0 0 0 0 0 0 0 0 0 0 0 0 0 0 0 0 0 0 0 0 0 0 0 0 0 0 0 0 0 0 0 0 0 0 0 0 0 0 0 0 0 0 0 57 62 67 57 62 67 57 62 67 57 62 67 57 62 67 57 62 67 57 62 67 57 62 67 57 62 67 57 62 67 57 62 67 111 124 255 111 124 255 111 124 255 111 124 255 111 124 255 111 124 255 111 124 255 111 124 255 111 124 255 199 211 255 199 211 255 199 211 255 199 211 255 199 211 255 199 211 255 199 211 255 199 211 255 199 211 255 199 211 255 199 211 255 199 211 255 199 211 255 199 211 255 199 211 255 199 211 255 199 211 255 199 211 255 199 211 255 199 211 255 199 211 255 111 124 255 111 124 255 111 124 255 111 124 255 111 124 255 111 124 255 111 124 255 111 124 255 111 124 255 63 69 74 63 69 74 63 69 74 63 69 74 63 69 74 63 69 74 63 69 74 63 69 74 63 69 74 63 69 74 0 0 0 0 0 0 0 0 0 0 0 0 0 0 0 0 0 0 0 0 0 0 0 0 0 0 0 0 0 0 0 0 0 0 0 0 0 0 0 0 0 0 0 0 0 0 0 0 0 0 0 0 0 0
0 0 0 0 0 0 0 0 0 0 0 0 0 0 0 0 0 0 0 0 0 0 0 0 0 0 0 0 0 0 0 0 0 0 0 0 0 0 0 0 0 0 0 0 0 0 0 0 0 0 0 0 0 0 57 62 67 57 62 67 57 62 67 57 62 67 57 62 67 57 62 67 57 62 67 57 62 67 57 62 67 57 62 67 57 62 67 111 124 255 111 124 255 111 124 255 111 124 255 111 124 255 111 124 255 111 124 255 111 124 255 111 124 255 199 211 255 199 211 255 199 211 255 199 211 255 199 211 255 199 211 255 199 211 255 199 211 255 199 211 255 199 211 255 199 211 255 199 211 255 199 211 255 199 211 255 199 211 255 199 211 255 199 211 255 199 211 255 199 211 255 199 211 255 199 211 255 111 124 255 111 124 255 111 124 255 111 124 255 111 124 255 111 124 255 111 124 255 111 124 255 111 124 255 63 69 74 63 69 74 63 69 74 63 69 74 63 69 74 63 69 74 63 69 74 63 69 74 63 69 74 63 69 74 0 0 0 0 0 0 0 0 0 0 0 0 0 0 0 0 0 0 0 0 0 0 0 0 0 0 0 0 0 0 0 0 0 0 0 0 0 0 0 0 0 0 0 0 0 0 0 0 0 0 0 0 0 0
0 0 0 0 0 0 0 0 0 0 0 0 0 0 0 0 0 0 0 0 0 0 0 0 0 0 0 0 0 0 0 0 0 0 0 0 0 0 0 0 0 0 0 0 0 0 0 0 0 0 0 0 0 0 57 62 67 57 62 67 57 62 67 57 62 67 57 62 67 57 62 67 57 62 67 57 62 67 57 62 67 57 62 67 57 62 67 111 124 255 111 124 255 111 124 255 111 124 255 111 124 255 111 124 255 111 124 255 111 124 255 111 124 255 199 211 255 199 211 255 199 211 255 199 211 255 199 211 255 199 211 255 199 211 255 199 211 255 199 211 255 199 211 255 199 211 255 199 211 255 199 211 255 199 211 255 199 211 255 199 211 255 199 211 255 199 211 255 199 211 255 199 211 255 199 211 255 111 124 255 111 124 255 111 124 255 111 124 255 111 124 255 111 124 255 111 124 255 111 124 255 111 124 255 63 69 74 63 69 74 63 69 74 63 69 74 63 69 74 63 69 74 63 69 74 63 69 74 63 69 74 63 69 74 0 0 0 0 0 0 0 0 0 0 0 0 0 0 0 0 0 0 0 0 0 0 0 0 0 0 0 0 0 0 0 0 0 0 0 0 0 0 0 0 0 0 0 0 0 0 0 0 0 0 0 0 0 0
0 0 0 0 0 0 0 0 0 0 0 0 0 0 0 0 0 0 0 0 0 0 0 0 0 0 0 0 0 0 0 0 0 0 0 0 0 0 0 0 0 0 0 0 0 0 0 0 0 0 0 0 0 0 57 62 67 57 62 67 57 62 67 57 62 67 57 62 67 57 62 67 57 62 67 57 62 67 57 62 67 57 62 67 57 62 67 111 124 255 111 124 255 111 124 255 111 124 255 111 124 255 111 124 255 111 124 255 111 124 255 111 124 255 199 211 255 199 211 255 199 211 255 199 211 255 199 211 255 199 211 255 199 211 255 199 211 255 199 211 255 199 211 255 199 211 255 199 211 255 199 211 255 199 211 255 199 211 255 199 211 255 199 211 255 199 211 255 199 211 255 199 211 255 199 211 255 111 124 255 111 124 255 111 124 255 111 124 255 111 124 255 111 124 255 111 124 255 111 124 255 111 124 255 63 69 74 63 69 74 63 69 74 63 69 74 63 69 74 63 69 74 63 69 74 63 69 74 63 69 74 63 69 74 0 0 0 0 0 0 0 0 0 0 0 0 0 0 0 0 0 0 0 0 0 0 0 0 0 0 0 0 0 0 0 0 0 0 0 0 0 0 0 0 0 0 0 0 0 0 0 0 0 0 0 0 0 0
0 0 0 0 0 0 0 0 0 0 0 0 0 0 0 0 0 0 0 0 0 0 0 0 0 0 0 0 0 0 0 0 0 0 0 0 0 0 0 0 0 0 0 0 0 0 0 0 0 0 0 0 0 0 57 62 67 57 62 67 57 62 67 57 62 67 57 62 67 57 62 67 57 62 67 57 62 67 57 62 67 57 62 67 111 124 255 111 124 255 111 124 255 111 124 255 111 124 255 111 124 255 111 124 255 111 124 255 111 124 255 199 211 255 199 211 255 199 211 255 199 211 255 199 211 255 199 211 255 199 211 255 199 211 255 199 211 255 199 211 255 199 211 255 199 211 255 199 211 255 199 211 255 199 211 255 199 211 255 199 211 255 199 211 255 199 211 255 199 211 255 199 211 255 199 211 255 199 211 255 111 124 255 111 124 255 111 124 255 111 124 255 111 124 255 111 124 255 111 124 255 111 124 255 111 124 255 63 69 74 63 69 74 63 69 74 63 69 74 63 69 74 63 69 74 63 69 74 63 69 74 63 69 74 0 0 0 0 0 0 0 0 0 0 0 0 0 0 0 0 0 0 0 0 0 0 0 0 0 0 0 0 0 0 0 0 0 0 0 0 0 0 0 0 0 0 0 0 0 0 0 0 0 0 0 0 0 0
0 0 0 0 0 0 0 0 0 0 0 0 0 0 0 0 0 0 0 0 0 0 0 0 0 0 0 0 0 0 0 0 0 0 0 0 0 0 0 0 0 0 0 0 0 0 0 0 0 0 0 0 0 0 57 62 67 57 62 67 57 62 67 57 62 67 57 62 67 57 62 67 57 62 67 57 62 67 57 62 67 57 62 67 57 62 67 111 124 255 111 124 255 111 124 255 111 124 255 111 124 255 111 124 255 111 124 255 111 124 255 111 124 255 199 211 255 199 211 255 199 211 255 199 211 255 199 211 255 199 211 255 199 211 255 199 211 255 199 211 255 199 211 255 199 211 255 199 211 255 199 211 255 199 211 255 199 211 255 199 211 255 199 211 255 199 211 255 199 211 255 199 211 255 199 211 255 111 124 255 111 124 255 111 124 255 111 124 255 111 124 255 111 124 255 111 124 255 111 124 255 111 124 255 63 69 74 63 69 74 63 69 74 63 69 74 63 69 74 63 69 74 63 69 74 63 69 74 63 69 74 63 69 74 0 0 0 0 0 0 0 0 0 0 0 0 0 0 0 0 0 0 0 0 0 0 0 0 0 0 0 0 0 0 0 0 0 0 0 0 0 0 0 0 0 0 0 0 0 0 0 0 0 0 0 0 0 0
0 0 0 0 0 0 0 0 0 0 0 0 0 0 0 0 0 0 0 0 0 0 0 0 0 0 0 0 0 0 0 0 0 0 0 0 0 0 0 0 0 0 0 0 0 0 0 0 0 0 0 0 0 0 57 62 67 57 62 67 57 62 67 57 62 67 57 62 67 57 62 67 57 62 67 57 62 67 57 62 67 57 62 67 57 62 67 111 124 255 111 124 255 111 124 255 111 124 255 111 124 255 111 124 255 111 124 255 111 124 255 111 124 255 199 211 255 199 211 255 199 211 255 199 211 255 199 211 255 199 211 255 199 211 255 199 211 255 199 211 255 199 211 255 199 211 255 199 211 255 199 211 255 199 211 255 199 211 255 199 211 255 199 211 255 199 211 255 199 211 255 199 211 255 199 211 255 111 124 255 111 124 255 111 124 255 111 124 255 111 124 255 111 124 255 111 124 255 111 124 255 111 124 255 63 69 74 63 69 74 63 69 74 63 69 74 63 69 74 63 69 74 63 69 74 63 69 74 63 69 74 63 69 74 0 0 0 0 0 0 0 0 0 0 0 0 0 0 0 0 0 0 0 0 0 0 0 0 0 0 0 0 0 0 0 0 0 0 0 0 0 0 0 0 0 0 0 0 0 0 0 0 0 0 0 0 0 0
0 0 0 0 0 0 0 0 0 0 0 0 0 0 0 0 0 0 0 0 0 0 0 0 0 0 0 0 0 0 0 0 0 0 0 0 0 0 0 0 0 0 0 0 0 0 0 0 0 0 0 0 0 0 57 62 67 57 62 67 57 62 67 57 62 67 57 62 67 57 62 67 57 62 67 57 62 67 57 62 67 57 62 67 57 62 67 111 124 255 111 124 255 111 124 255 111 124 255 111 124 255 111 124 255 111 124 255 111 124 255 111 124 255 199 211 255 199 211 255 199 211 255 199 211 255 199 211 255 199 211 255 199 211 255 199 211 255 199 211 255 199 211 255 199 211 255 199 211 255 199 211 255 199 211 255 199 211 255 199 211 255 199 211 255 199 211 255 199 211 255 199 211 255 199 211 255 111 124 255 111 124 255 111 124 255 111 124 255 111 124 255 111 124 255 111 124 255 111 124 255 111 124 255 63 69 74 63 69 74 63 69 74 63 69 74 63 69 74 63 69 74 63 69 74 63 69 74 63 69 74 63 69 74 0 0 0 0 0 0 0 0 0 0 0 0 0 0 0 0 0 0 0 0 0 0 0 0 0 0 0 0 0 0 0 0 0 0 0 0 0 0 0 0 0 0 0 0 0 0 0 0 0 0 0 0 0 0
0 0 0 0 0 0 0 0 0 0 0 0 0 0 0 0 0 0 0 0 0 0 0 0 0 0 0 0 0 0 0 0 0 0 0 0 0 0 0 0 0 0 0 0 0 0 0 0 0 0 0 0 0 0 57 62 67 57 62 67 57 62 67 57 62 67 57 62 67 57 62 67 57 62 67 57 62 67 57 62 67 57 62 67 57 62 67 111 124 255 111 124 255 111 124 255 111 124 255 111 124 255 111 124 255 111 124 255 111 124 255 111 124 255 199 211 255 199 211 255 199 211 255 199 211 255 199 211 255 199 211 255 199 211 255 199 211 255 199 211 255 199 211 255 199 211 255 199 211 255 199 211 255 199 211 255 199 211 255 199 211 255 199 211 255 199 211 255 199 211 255 199 211 255 199 211 255 111 124 255 111 124 255 111 124 255 111 124 255 111 124 255 111 124 255 111 124 255 111 124 255 111 124 255 63 69 74 63 69 74 63 69 74 63 69 74 63 69 74 63 69 74 63 69 74 63 69 74 63 69 74 63 69 74 0 0 0 0 0 0 0 0 0 0 0 0 0 0 0 0 0 0 0 0 0 0 0 0 0 0 0 0 0 0 0 0 0 0 0 0 0 0 0 0 0 0 0 0 0 0 0 0 0 0 0 0 0 0
0 0 0 0 0 0 0 0 0 0 0 0 0 0 0 0 0 0 0 0 0 0 0 0 0 0 0 0 0 0 0 0 0 0 0 0 0 0 0 0 0 0 0 0 0 0 0 0 0 0 0 0 0 0 57 62 67 57 62 67 57 62 67 57 62 67 57 62 67 57 62 67 57 62 67 57 62 67 57 62 67 57 62 67 57 62 67 111 124 255 111 124 255 111 124 255 111 124 255 111 124 255 111 124 255 111 124 255 111 124 255 111 124 255 199 211 255 199 211 255 199 211 255 199 211 255 199 211 255 199 211 255 199 211 255 199 211 255 199 211 255 199 211 255 199 211 255 199 211 255 199 211 255 199 211 255 199 211 255 199 211 255 199 211 255 199 211 255 199 211 255 199 211 255 199 211 255 111 124 255 111 124 255 111 124 255 111 124 255 111 124 255 111 124 255 111 124 255 111 124 255 111 124 255 63 69 74 63 69 74 63 69 74 63 69 74 63 69 74 63 69 74 63 69 74 63 69 74 63 69 74 63 69 74 0 0 0 0 0 0 0 0 0 0 0 0 0 0 0 0 0 0 0 0 0 0 0 0 0 0 0 0 0 0 0 0 0 0 0 0 0 0 0 0 0 0 0 0 0 0 0 0 0 0 0 0 0 0
0 0 0 0 0 0 0 0 0 0 0 0 0 0 0 0 0 0 0 0 0 0 0 0 0 0 0 0 0 0 0 0 0 0 0 0 0 0 0 0 0 0 0 0 0 0 0 0 0 0 0 0 0 0 57 62 67 57 62 67 57 62 67 57 62 67 57 62 67 57 62 67 57 62 67 57 62 67 57 62 67 57 62 67 57 62 67 111 124 255 111 124 255 111 124 255 111 124 255 111 124 255 111 124 255 111 124 255 111 124 255 111 124 255 199 211 255 199 211 255 199 211 255 199 211 255 199 211 255 199 211 255 199 211 255 199 211 255 199 211 255 199 211 255 199 211 255 199 211 255 199 211 255 199 211 255 199 211 255 199 211 255 199 211 255 199 211 255 199 211 255 199 211 255 199 211 255 111 124 255 111 124 255 111 124 255 111 124 255 111 124 255 111 124 255 111 124 255 111 124 255 111 124 255 63 69 74 63 69 74 63 69 74 63 69 74 63 69 74 63 69 74 63 69 74 63 69 74 63 69 74 63 69 74 0 0 0 0 0 0 0 0 0 0 0 0 0 0 0 0 0 0 0 0 0 0 0 0 0 0 0 0 0 0 0 0 0 0 0 0 0 0 0 0 0 0 0 0 0 0 0 0 0 0 0 0 0 0
0 0 0 0 0 0 0 0 0 0 0 0 0 0 0 0 0 0 0 0 0 0 0 0 0 0 0 0 0 0 0 0 0 0 0 0 0 0 0 0 0 0 0 0 0 0 0 0 0 0 0 0 0 0 57 62 67 57 62 67 57 62 67 57 62 67 57 62 67 57 62 67 57 62 67 57 62 67 57 62 67 57 62 67 57 62 67 111 124 255 111 124 255 111 124 255 111 124 255 111 124 255 111 124 255 111 124 255 111 124 255 111 124 255 199 211 255 199 211 255 199 211 255 199 211 255 199 211 255 199 211 255 199 211 255 199 211 255 199 211 255 199 211 255 199 211 255 199 211 255 199 211 255 199 211 255 199 211 255 199 211 255 199 211 255 199 211 255 199 211 255 199 211 255 199 211 255 111 124 255 111 124 255 111 124 255 111 124 255 111 124 255 111 124 255 111 124 255 111 124 255 111 124 255 63 69 74 63 69 74 63 69 74 63 69 74 63 69 74 63 69 74 63 69 74 63 69 74 63 69 74 63 69 74 0 0 0 0 0 0 0 0 0 0 0 0 0 0 0 0 0 0 0 0 0 0 0 0 0 0 0 0 0 0 0 0 0 0 0 0 0 0 0 0 0 0 0 0 0 0 0 0 0 0 0 0 0 0
0 0 0 0 0 0 0 0 0 0 0 0 0 0 0 0 0 0 0 0 0 0 0 0 0 0 0 0 0 0 0 0 0 0 0 0 0 0 0 0 0 0 0 0 0 0 0 0 0 0 0 0 0 0 57 62 67 57 62 67 57 62 67 57 62 67 57 62 67 57 62 67 57 62 67 57 62 67 57 62 67 57 62 67 57 62 67 111 124 255 111 124 255 111 124 255 111 124 255 111 124 255 111 124 255 111 124 255 111 124 255 111 124 255 199 211 255 199 211 255 199 211 255 199 211 255 199 211 255 199 211 255 199 211 255 199 211 255 199 211 255 199 211 255 199 211 255 199 211 255 199 211 255 199 211 255 199 211 255 199 211 255 199 211 255 199 211 255 199 211 255 199 211 255 199 211 255 111 124 255 111 124 255 111 124 255 111 124 255 111 124 255 111 124 255 111 124 255 111 124 255 111 124 255 63 69 74 63 69 74 63 69 74 63 69 74 63 69 74 63 69 74 63 69 74 63 69 74 63 69 74 63 69 74 0 0 0 0 0 0 0 0 0 0 0 0 0 0 0 0 0 0 0 0 0 0 0 0 0 0 0 0 0 0 0 0 0 0 0 0 0 0 0 0 0 0 0 0 0 0 0 0 0 0 0 0 0 0
0 0 0 0 0 0 0 0 0 0 0 0 0 0 0 0 0 0 0 0 0 0 0 0 0 0 0 0 0 0 0 0 0 0 0 0 0 0 0 0 0 0 0 0 0 0 0 0 0 0 0 0 0 0 57 62 67 57 62 67 57 62 67 57 62 67 57 62 67 57 62 67 57 62 67 57 62 67 57 62 67 57 62 67 57 62 67 111 124 255 111 124 255 111 124 255 111 124 255 111 124 255 111 124 255 111 124 255 111 124 255 111 124 255 111 124 255 199 211 255 199 211 255 199 211 255 199 211 255 199 211 255 199 211 255 199 211 255 199 211 255 199 211 255 199 211 255 199 211 255 199 211 255 199 211 255 199 211 255 199 211 255 199 211 255 199 211 255 199 211 255 199 211 255 111 124 255 111 124 255 111 124 255 111 124 255 111 124 255 111 124 255 111 124 255 111 124 255 111 124 255 111 124 255 63 69 74 63 69 74 63 69 74 63 69 74 63 69 74 63 69 74 63 69 74 63 69 74 63 69 74 63 69 74 0 0 0 0 0 0 0 0 0 0 0 0 0 0 0 0 0 0 0 0 0 0 0 0 0 0 0 0 0 0 0 0 0 0 0 0 0 0 0 0 0 0 0 0 0 0 0 0 0 0 0 0 0 0
0 0 0 0 0 0 0 0 0 0 0 0 0 0 0 0 0 0 0 0 0 0 0 0 0 0 0 0 0 0 0 0 0 0 0 0 0 0 0 0 0 0 0 0 0 0 0 0 0 0 0 0 0 0 57 62 67 57 62 67 57 62 67 57 62 67 57 62 67 57 62 67 57 62 67 57 62 67 57 62 67 57 62 67 57 62 67 57 62 67 111 124 255 111 124 255 111 124 255 111 124 255 111 124 255 111 124 255 111 124 255 111 124 255 111 124 255 199 211 255 199 211 255 199 211 255 199 211 255 199 211 255 199 211 255 199 211 255 199 211 255 199 211 255 199 211 255 199 211 255 199 211 255 199 211 255 199 211 255 199 211 255 199 211 255 199 211 255 199 211 255 199 211 255 111 124 255 111 124 255 111 124 255 111 124 255 111 124 255 111 124 255 111 124 255 111 124 255 111 124 255 63 69 74 63 69 74 63 69 74 63 69 74 63 69 74 63 69 74 63 69 74 63 69 74 63 69 74 63 69 74 63 69 74 0 0 0 0 0 0 0 0 0 0 0 0 0 0 0 0 0 0 0 0 0 0 0 0 0 0 0 0 0 0 0 0 0 0 0 0 0 0 0 0 0 0 0 0 0 0 0 0 0 0 0 0 0 0
0 0 0 0 0 0 0 0 0 0 0 0 0 0 0 0 0 0 0 0 0 0 0 0 0 0 0 0 0 0 0 0 0 0 0 0 0 0 0 0 0 0 0 0 0 0 0 0 0 0 0 0 0 0 57 62 67 57 62 67 57 62 67 57 62 67 57 62 67 57 62 67 57 62 67 57 62 67 57 62 67 57 62 67 57 62 67 57 62 67 111 124 255 111 124 255 111 124 255 111 124 255 111 124 255 111 124 255 111 124 255 111 124 255 111 124 255 199 211 255 199 211 255 199 211 255 199 211 255 199 211 255 199 211 255 199 211 255 199 211 255 199 211 255 199 211 255 199 211 255 199 211 255 199 211 255 199 211 255 199 211 255 199 211 255 199 211 255 199 211 255 199 211 255 111 124 255 111 124 255 111 124 255 111 124 255 111 124 255 111 124 255 111 124 255 111 124 255 111 124 255 63 69 74 63 69 74 63 69 74 63 69 74 63 69 74 63 69 74 63 69 74 63 69 74 63 69 74 63 69 74 63 69 74 0 0 0 0 0 0 0 0 0 0 0 0 0 0 0 0 0 0 0 0 0 0 0 0 0 0 0 0 0 0 0 0 0 0 0 0 0 0 0 0 0 0 0 0 0 0 0 0 0 0 0 0 0 0
0 0 0 0 0 0 0 0 0 0 0 0 0 0 0 0 0 0 0 0 0 0 0 0 0 0 0 0 0 0 0 0 0 0 0 0 0 0 0 0 0 0 0 0 0 0 0 0 0 0 0 0 0 0 57 62 67 57 62 67 57 62 67 57 62 67 57 62 67 57 62 67 57 62 67 57 62 67 57 62 67 57 62 67 57 62 67 57 62 67 111 124 255 111 124 255 111 124 255 111 124 255 111 124 255 111 124 255 111 124 255 111 124 255 111 124 255 111 124 255 199 211 255 199 211 255 199 211 255 199 211 255 199 211 255 199 211 255 199 211 255 199 211 255 199 211 255 199 211 255 199 211 255 199 211 255 199 211 255 199 211 255 199 211 255 199 211 255 199 211 255 111 124 255 111 124 255 111 124 255 111 124 255 111 124 255 111 124 255 111 124 255 111 124 255 111 124 255 111 124 255 63 69 74 63 69 74 63 69 74 63 69 74 63 69 74 63 69 74 63 69 74 63 69 74 63 69 74 63 69 74 63 69 74 0 0 0 0 0 0 0 0 0 0 0 0 0 0 0 0 0 0 0 0 0 0 0 0 0 0 0 0 0 0 0 0 0 0 0 0 0 0 0 0 0 0 0 0 0 0 0 0 0 0 0 0 0 0
0 0 0 0 0 0 0 0 0 0 0 0 0 0 0 0 0 0 0 0 0 0 0 0 0 0 0 0 0 0 0 0 0 0 0 0 0 0 0 0 0 0 0 0 0 0 0 0 0 0 0 0 0 0 57 62 67 57 62 67 57 62 67 57 62 67 57 62 67 57 62 67 57 62 67 57 62 67 57 62 67 57 62 67 57 62 67 57 62 67 111 124 255 111 124 255 111 124 255 111 124 255 111 124 255 111 124 255 111 124 255 111 124 255 111 124 255 111 124 255 199 211 255 199 211 255 199 211 255 199 211 255 199 211 255 199 211 255 199 211 255 199 211 255 199 211 255 199 211 255 199 211 255 199 211 255 199 211 255 199 211 255 199 211 255 199 211 255 199 211 255 111 124 255 111 124 255 111 124 255 111 124 255 111 124 255 111 124 255 111 124 255 111 124 255 111 124 255 111 124 255 63 69 74 63 69 74 63 69 74 63 69 74 63 69 74 63 69 74 63 69 74 63 69 74 63 69 74 63 69 74 63 69 74 0 0 0 0 0 0 0 0 0 0 0 0 0 0 0 0 0 0 0 0 0 0 0 0 0 0 0 0 0 0 0 0 0 0 0 0 0 0 0 0 0 0 0 0 0 0 0 0 0 0 0 0 0 0
0 0 0 0 0 0 0 0 0 0 0 0 0 0 0 0 0 0 0 0 0 0 0 0 0 0 0 0 0 0 0 0 0 0 0 0 0 0 0 0 0 0 0 0 0 0 0 0 0 0 0 0 0 0 57 62 67 57 62 67 57 62 67 57 62 67 57 62 67 57 62 67 57 62 67 57 62 67 57 62 67 57 62 67 57 62 67 57 62 67 63 69 74 111 124 255 111 124 255 111 124 255 111 124 255 111 124 255 111 124 255 111 124 255 111 124 255 111 124 255 111 124 255 199 211 255 199 211 255 199 211 255 199 211 255 199 211 255 199 211 255 199 211 255 199 211 255 199 211 255 199 211 255 199 211 255 199 211 255 199 211 255 199 211 255 199 211 255 111 124 255 111 124 255 111 124 255 111 124 255 111 124 255 111 124 255 111 124 255 111 124 255 111 124 255 111 124 255 63 69 74 63 69 74 63 69 74 63 69 74 63 69 74 63 69 74 63 69 74 63 69 74 63 69 74 63 69 74 63 69 74 63 69 74 0 0 0 0 0 0 0 0 0 0 0 0 0 0 0 0 0 0 0 0 0 0 0 0 0 0 0 0 0 0 0 0 0 0 0 0 0 0 0 0 0 0 0 0 0 0 0 0 0 0 0 0 0 0
0 0 0 0 0 0 0 0 0 0 0 0 0 0 0 0 0 0 0 0 0 0 0 0 0 0 0 0 0 0 0 0 0 0 0 0 0 0 0 0 0 0 0 0 0 0 0 0 0 0 0 0 0 0 57 62 67 57 62 67 57 62 67 57 62 67 57 62 67 57 62 67 57 62 67 57 62 67 57 62 67 57 62 67 57 62 67 57 62 67 63 69 74 111 124 255 111 124 255 111 124 255 111 124 255 111 124 255 111 124 255 111 124 255 111 124 255 111 124 255 111 124 255 199 211 255 199 211 255 199 211 255 199 211 255 199 211 255 199 211 255 199 211 255 199 211 255 199 211 255 199 211 255 199 211 255 199 211 255 199 211 255 199 211 255 199 211 255 111 124 255 111 124 255 111 124 255 111 124 255 111 124 255 111 124 255 111 124 255 111 124 255 111 124 255 111 124 255 63 69 74 63 69 74 63 69 74 63 69 74 63 69 74 63 69 74 63 69 74 63 69 74 63 69 74 63 69 74 63 69 74 63 69 74 0 0 0 0 0 0 0 0 0 0 0 0 0 0 0 0 0 0 0 0 0 0 0 0 0 0 0 0 0 0 0 0 0 0 0 0 0 0 0 0 0 0 0 0 0 0 0 0 0 0 0 0 0 0
0 0 0 0 0 0 0 0 0 0 0 0 0 0 0 0 0 0 0 0 0 0 0 0 0 0 0 0 0 0 0 0 0 0 0 0 0 0 0 0 0 0 0 0 0 0 0 0 0 0 0 0 0 0 57 62 67 57 62 67 57 62 67 57 62 67 57 62 67 57 62 67 57 62 67 57 62 67 57 62 67 57 62 67 57 62 67 57 62 67 63 69 74 63 69 74 111 124 255 111 124 255 111 124 255 111 124 255 111 124 255 111 124 255 111 124 255 111 124 255 111 124 255 111 124 255 199 211 255 199 211 255 199 211 255 199 211 255 199 211 255 199 211 255 199 211 255 199 211 255 199 211 255 199 211 255 199 211 255 199 211 255 199 211 255 111 124 255 111 124 255 111 124 255 111 124 255 111 124 255 111 124 255 111 124 255 111 124 255 111 124 255 111 124 255 57 62 67 63 69 74 63 69 74 63 69 74 63 69 74 63 69 74 63 69 74 63 69 74 63 69 74 63 69 74 63 69 74 63 69 74 63 69 74 0 0 0 0 0 0 0 0 0 0 0 0 0 0 0 0 0 0 0 0 0 0 0 0 0 0 0 0 0 0 0 0 0 0 0 0 0 0 0 0 0 0 0 0 0 0 0 0 0 0 0 0 0 0
0 0 0 0 0 0 0 0 0 0 0 0 0 0 0 0 0 0 0 0 0 0 0 0 0 0 0 0 0 0 0 0 0 0 0 0 0 0 0 0 0 0 0 0 0 0 0 0 0 0 0 0 0 0 57 62 67 57 62 67 57 62 67 57 62 67 57 62 67 57 62 67 57 62 67 57 62 67 57 62 67 57 62 67 57 62 67 57 62 67 63 69 74 63 69 74 111 124 255 111 124 255 111 124 255 111 124 255 111 124 255 111 124 255 111 124 255 111 124 255 111 124 255 111 124 255 111 124 255 199 211 255 199 211 255 199 211 255 199 211 255 199 211 255 199 211 255 199 211 255 199 211 255 199 211 255 199 211 255 199 211 255 111 124 255 111 124 255 111 124 255 111 124 255 111 124 255 111 124 255 111 124 255 111 124 255 111 124 255 111 124 255 111 124 255 57 62 67 63 69 74 63 69 74 63 69 74 63 69 74 63 69 74 63 69 74 63 69 74 63 69 74 63 69 74 63 69 74 63 69 74 63 69 74 0 0 0 0 0 0 0 0 0 0 0 0 0 0 0 0 0 0 0 0 0 0 0 0 0 0 0 0 0 0 0 0 0 0 0 0 0 0 0 0 0 0 0 0 0 0 0 0 0 0 0 0 0 0
0 0 0 0 0 0 0 0 0 0 0 0 0 0 0 0 0 0 0 0 0 0 0 0 0 0 0 0 0 0 0 0 0 0 0 0 0 0 0 0 0 0 0 0 0 0 0 0 0 0 0 0 0 0 57 62 67 57 62 67 57 62 67 57 62 67 57 62 67 57 62 67 57 62 67 57 62 67 57 62 67 57 62 67 57 62 67 57 62 67 63 69 74 63 69 74 111 124 255 111 124 255 111 124 255 111 124 255 111 124 255 111 124 255 111 124 255 111 124 255 111 124 255 111 124 255 111 124 255 111 124 255 199 211 255 199 211 255 199 211 255 199 211 255 199 211 255 199 211 255 199 211 255 199 211 255 199 211 255 111 124 255 111 124 255 111 124 255 111 124 255 111 124 255 111 124 255 111 124 255 111 124 255 111 124 255 111 124 255 111 124 255 111 124 255 57 62 67 63 69 74 63 69 74 63 69 74 63 69 74 63 69 74 63 69 74 63 69 74 63 69 74 63 69 74 63 69 74 63 69 74 63 69 74 0 0 0 0 0 0 0 0 0 0 0 0 0 0 0 0 0 0 0 0 0 0 0 0 0 0 0 0 0 0 0 0 0 0 0 0 0 0 0 0 0 0 0 0 0 0 0 0 0 0 0 0 0 0
0 0 0 0 0 0 0 0 0 0 0 0 0 0 0 0 0 0 0 0 0 0 0 0 0 0 0 0 0 0 0 0 0 0 0 0 0 0 0 0 0 0 0 0 0 0 0 0 0 0 0 0 0 0 57 62 67 57 62 67 57 62 67 57 62 67 57 62 67 57 62 67 57 62 67 57 62 67 57 62 67 57 62 67 57 62 67 57 62 67 63 69 74 63 69 74 63 69 74 111 124 255 111 124 255 111 124 255 111 124 255 111 124 255 111 124 255 111 124 255 111 124 255 111 124 255 111 124 255 111 124 255 111 124 255 199 211 255 199 211 255 199 211 255 199 211 255 199 211 255 199 211 255 199 211 255 111 124 255 111 124 255 111 124 255 111 124 255 111 124 255 111 124 255 111 124 255 111 124 255 111 124 255 111 124 255 111 124 255 111 124 255 57 62 67 57 62 67 63 69 74 63 69 74 63 69 74 63 69 74 63 69 74 63 69 74 63 69 74 63 69 74 63 69 74 63 69 74 63 69 74 63 69 74 0 0 0 0 0 0 0 0 0 0 0 0 0 0 0 0 0 0 0 0 0 0 0 0 0 0 0 0 0 0 0 0 0 0 0 0 0 0 0 0 0 0 0 0 0 0 0 0 0 0 0 0 0 0
0 0 0 0 0 0 0 0 0 0 0 0 0 0 0 0 0 0 0 0 0 0 0 0 0 0 0 0 0 0 0 0 0 0 0 0 0 0 0 0 0 0 0 0 0 0 0 0 0 0 0 0 0 0 57 62 67 57 62 67 57 62 67 57 62 67 57 62 67 57 62 67 57 62 67 57 62 67 57 62 67 57 62 67 57 62 67 57 62 67 63 69 74 63 69 74 63 69 74 63 69 74 111 124 255 111 124 255 111 124 255 111 124 255 111 124 255 111 124 255 111 124 255 111 124 255 111 124 255 111 124 255 111 124 255 111 124 255 111 124 255 111 124 255 199 211 255 111 124 255 111 124 255 111 124 255 111 124 255 111 124 255 111 124 255 111 124 255 111 124 255 111 124 255 111 124 255 111 124 255 111 124 255 111 124 255 111 124 255 57 62 67 57 62 67 57 62 67 63 69 74 63 69 74 63 69 74 63 69 74 63 69 74 63 69 74 63 69 74 63 69 74 63 69 74 63 69 74 63 69 74 63 69 74 0 0 0 0 0 0 0 0 0 0 0 0 0 0 0 0 0 0 0 0 0 0 0 0 0 0 0 0 0 0 0 0 0 0 0 0 0 0 0 0 0 0 0 0 0 0 0 0 0 0 0 0 0 0
0 0 0 0 0 0 0 0 0 0 0 0 0 0 0 0 0 0 0 0 0 0 0 0 0 0 0 0 0 0 0 0 0 0 0 0 0 0 0 0 0 0 0 0 0 0 0 0 0 0 0 0 0 0 57 62 67 57 62 67 57 62 67 57 62 67 57 62 67 57 62 67 57 62 67 57 62 67 57 62 67 57 62 67 57 62 67 57 62 67 63 69 74 63 69 74 63 69 74 63 69 74 111 124 255 111 124 255 111 124 255 111 124 255 111 124 255 111 124 255 111 124 255 111 124 255 111 124 255 111 124 255 111 124 255 111 124 255 111 124 255 111 124 255 111 124 255 111 124 255 111 124 255 111 124 255 111 124 255 111 124 255 111 124 255 111 124 255 111 124 255 111 124 255 111 124 255 111 124 255 111 124 255 111 124 255 111 124 255 57 62 67 57 62 67 57 62 67 63 69 74 63 69 74 63 69 74 63 69 74 63 69 74 63 69 74 63 69 74 63 69 74 63 69 74 63 69 74 63 69 74 63 69 74 0 0 0 0 0 0 0 0 0 0 0 0 0 0 0 0 0 0 0 0 0 0 0 0 0 0 0 0 0 0 0 0 0 0 0 0 0 0 0 0 0 0 0 0 0 0 0 0 0 0 0 0 0 0
0 0 0 0 0 0 0 0 0 0 0 0 0 0 0 0 0 0 0 0 0 0 0 0 0 0 0 0 0 0 0 0 0 0 0 0 0 0 0 0 0 0 0 0 0 0 0 0 0 0 0 0 0 0 57 62 67 57 62 67 57 62 67 57 62 67 57 62 67 57 62 67 57 62 67 57 62 67 57 62 67 57 62 67 57 62 67 57 62 67 63 69 74 63 69 74 63 69 74 63 69 74 63 69 74 111 124 255 111 124 255 111 124 255 111 124 255 111 124 255 111 124 255 111 124 255 111 124 255 111 124 255 111 124 255 111 124 255 111 124 255 111 124 255 111 124 255 111 124 255 111 124 255 111 124 255 111 124 255 111 124 255 111 124 255 111 124 255 111 124 255 111 124 255 111 124 255 111 124 255 111 124 255 111 124 255 57 62 67 57 62 67 57 62 67 57 62 67 63 69 74 63 69 74 63 69 74 63 69 74 63 69 74 63 69 74 63 69 74 63 69 74 63 69 74 63 69 74 63 69 74 63 69 74 0 0 0 0 0 0 0 0 0 0 0 0 0 0 0 0 0 0 0 0 0 0 0 0 0 0 0 0 0 0 0 0 0 0 0 0 0 0 0 0 0 0 0 0 0 0 0 0 0 0 0 0 0 0
0 0 0 0 0 0 0 0 0 0 0 0 0 0 0 0 0 0 0 0 0 0 0 0 0 0 0 0 0 0 0 0 0 0 0 0 0 0 0 0 0 0 0 0 0 0 0 0 0 0 0 0 0 0 57 62 67 57 62 67 57 62 67 57 62 67 57 62 67 57 62 67 57 62 67 57 62 67 57 62 67 57 62 67 57 62 67 57 62 67 63 69 74 63 69 74 63 69 74 63 69 74 63 69 74 63 69 74 111 124 255 111 124 255 111 124 255 111 124 255 111 124 255 111 124 255 111 124 255 111 124 255 111 124 255 111 124 255 111 124 255 111 124 255 111 124 255 111 124 255 111 124 255 111 124 255 111 124 255 111 124 255 111 124 255 111 124 255 111 124 255 111 124 255 111 124 255 111 124 255 111 124 255 57 62 67 57 62 67 57 62 67 57 62 67 57 62 67 63 69 74 63 69 74 63 69 74 63 69 74 63 69 74 63 69 74 63 69 74 63 69 74 63 69 74 63 69 74 63 69 74 63 69 74 0 0 0 0 0 0 0 0 0 0 0 0 0 0 0 0 0 0 0 0 0 0 0 0 0 0 0 0 0 0 0 0 0 0 0 0 0 0 0 0 0 0 0 0 0 0 0 0 0 0 0 0 0 0
0 0 0 0 0 0 0 0 0 0 0 0 0 0 0 0 0 0 0 0 0 0 0 0 0 0 0 0 0 0 0 0 0 0 0 0 0 0 0 0 0 0 0 0 0 0 0 0 0 0 0 0 0 0 57 62 67 57 62 67 57 62 67 57 62 67 57 62 67 57 62 67 57 62 67 57 62 67 57 62 67 57 62 67 57 62 67 57 62 67 63 69 74 63 69 74 63 69 74 63 69 74 63 69 74 63 69 74 111 124 255 111 124 255 111 124 255 111 124 255 111 124 255 111 124 255 111 124 255 111 124 255 111 124 255 111 124 255 111 124 255 111 124 255 111 124 255 111 124 255 111 124 255 111 124 255 111 124 255 111 124 255 111 124 255 111 124 255 111 124 255 111 124 255 111 124 255 111 124 255 111 124 255 57 62 67 57 62 67 57 62 67 57 62 67 57 62 67 63 69 74 63 69 74 63 69 74 63 69 74 63 69 74 63 69 74 63 69 74 63 69 74 63 69 74 63 69 74 63 69 74 63 69 74 0 0 0 0 0 0 0 0 0 0 0 0 0 0 0 0 0 0 0 0 0 0 0 0 0 0 0 0 0 0 0 0 0 0 0 0 0 0 0 0 0 0 0 0 0 0 0 0 0 0 0 0 0 0
0 0 0 0 0 0 0 0 0 0 0 0 0 0 0 0 0 0 0 0 0 0 0 0 0 0 0 0 0 0 0 0 0 0 0 0 0 0 0 0 0 0 0 0 0 0 0 0 0 0 0 0 0 0 0 0 0 57 62 67 57 62 67 57 62 67 57 62 67 57 62 67 57 62 67 57 62 67 57 62 67 57 62 67 57 62 67 57 62 67 63 69 74 63 69 74 63 69 74 63 69 74 63 69 74 63 69 74 63 69 74 111 124 255 111 124 255 111 124 255 111 124 255 111 124 255 111 124 255 111 124 255 111 124 255 111 124 255 111 124 255 111 124 255 111 124 255 111 124 255 111 124 255 111 124 255 111 124 255 111 124 255 111 124 255 111 124 255 111 124 255 111 124 255 111 124 255 111 124 255 57 62 67 57 62 67 57 62 67 57 62 67 57 62 67 57 62 67 63 69 74 63 69 74 63 69 74 63 69 74 63 69 74 63 69 74 63 69 74 63 69 74 63 69 74 63 69 74 63 69 74 0 0 0 0 0 0 0 0 0 0 0 0 0 0 0 0 0 0 0 0 0 0 0 0 0 0 0 0 0 0 0 0 0 0 0 0 0 0 0 0 0 0 0 0 0 0 0 0 0 0 0 0 0 0 0 0 0
0 0 0 0 0 0 0 0 0 0 0 0 0 0 0 0 0 0 0 0 0 0 0 0 0 0 0 0 0 0 0 0 0 0 0 0 0 0 0 0 0 0 0 0 0 0 0 0 0 0 0 0 0 0 0 0 0 0 0 0 57 62 67 57 62 67 57 62 67 57 62 67 57 62 67 57 62 67 57 62 67 57 62 67 57 62 67 57 62 67 63 69 74 63 69 74 63 69 74 63 69 74 63 69 74 63 69 74 63 69 74 63 69 74 63 69 74 111 124 255 111 124 255 111 124 255 111 124 255 111 124 255 111 124 255 111 124 255 111 124 255 111 124 255 111 124 255 111 124 255 111 124 255 111 124 255 111 124 255 111 124 255 111 124 255 111 124 255 111 124 255 111 124 255 57 62 67 57 62 67 57 62 67 57 62 67 57 62 67 57 62 67 57 62 67 57 62 67 63 69 74 63 69 74 63 69 74 63 69 74 63 69 74 63 69 74 63 69 74 63 69 74 63 69 74 63 69 74 0 0 0 0 0 0 0 0 0 0 0 0 0 0 0 0 0 0 0 0 0 0 0 0 0 0 0 0 0 0 0 0 0 0 0 0 0 0 0 0 0 0 0 0 0 0 0 0 0 0 0 0 0 0 0 0 0 0 0 0
0 0 0 0 0 0 0 0 0 0 0 0 0 0 0 0 0 0 0 0 0 0 0 0 0 0 0 0 0 0 0 0 0 0 0 0 0 0 0 0 0 0 0 0 0 0 0 0 0 0 0 0 0 0 0 0 0 0 0 0 0 0 0 57 62 67 57 62 67 57 62 67 57 62 67 57 62 67 57 62 67 57 62 67 57 62 67 57 62 67 63 69 74 63 69 74 63 69 74 63 69 74 63 69 74 63 69 74 63 69 74 63 69 74 63 69 74 0 0 0 111 124 255 111 124 255 111 124 255 111 124 255 111 124 255 111 124 255 111 124 255 111 124 255 111 124 255 111 124 255 111 124 255 111 124 255 111 124 255 111 124 255 111 124 255 111 124 255 111 124 255 57 62 67 57 62 67 57 62 67 57 62 67 57 62 67 57 62 67 57 62 67 57 62 67 57 62 67 63 69 74 63 69 74 63 69 74 63 69 74 63 69 74 63 69 74 63 69 74 63 69 74 63 69 74 0 0 0 0 0 0 0 0 0 0 0 0 0 0 0 0 0 0 0 0 0 0 0 0 0 0 0 0 0 0 0 0 0 0 0 0 0 0 0 0 0 0 0 0 0 0 0 0 0 0 0 0 0 0 0 0 0 0 0 0 0 0 0
0 0 0 0 0 0 0 0 0 0 0 0 0 0 0 0 0 0 0 0 0 0 0 0 0 0 0 0 0 0 0 0 0 0 0 0 0 0 0 0 0 0 0 0 0 0 0 0 0 0 0 0 0 0 0 0 0 0 0 0 0 0 0 0 0 0 57 62 67 57 62 67 57 62 67 57 62 67 57 62 67 57 62 67 57 62 67 57 62 67 63 69 74 63 69 74 63 69 74 63 69 74 63 69 74 63 69 74 63 69 74 63 69 74 0 0 0 0 0 0 0 0 0 111 124 255 111 124 255 111 124 255 111 124 255 111 124 255 111 124 255 111 124 255 111 124 255 111 124 255 111 124 255 111 124 255 111 124 255 111 124 255 111 124 255 111 124 255 0 0 0 0 0 0 57 62 67 57 62 67 57 62 67 57 62 67 57 62 67 57 62 67 57 62 67 57 62 67 63 69 74 63 69 74 63 69 74 63 69 74 63 69 74 63 69 74 63 69 74 63 69 74 0 0 0 0 0 0 0 0 0 0 0 0 0 0 0 0 0 0 0 0 0 0 0 0 0 0 0 0 0 0 0 0 0 0 0 0 0 0 0 0 0 0 0 0 0 0 0 0 0 0 0 0 0 0 0 0 0 0 0 0 0 0 0 0 0 0
0 0 0 0 0 0 0 0 0 0 0 0 0 0 0 0 0 0 0 0 0 0 0 0 0 0 0 0 0 0 0 0 0 0 0 0 0 0 0 0 0 0 0 0 0 0 0 0 0 0 0 0 0 0 0 0 0 0 0 0 0 0 0 0 0 0 57 62 67 57 62 67 57 62 67 57 62 67 57 62 67 57 62 67 57 62 67 57 62 67 63 69 74 63 69 74 63 69 74 63 69 74 63 69 74 63 69 74 63 69 74 63 69 74 0 0 0 0 0 0 0 0 0 0 0 0 0 0 0 111 124 255 111 124 255 111 124 255 111 124 255 111 124 255 111 124 255 111 124 255 111 124 255 111 124 255 111 124 255 111 124 255 0 0 0 0 0 0 0 0 0 0 0 0 57 62 67 57 62 67 57 62 67 57 62 67 57 62 67 57 62 67 57 62 67 57 62 67 63 69 74 63 69 74 63 69 74 63 69 74 63 69 74 63 69 74 63 69 74 63 69 74 0 0 0 0 0 0 0 0 0 0 0 0 0 0 0 0 0 0 0 0 0 0 0 0 0 0 0 0 0 0 0 0 0 0 0 0 0 0 0 0 0 0 0 0 0 0 0 0 0 0 0 0 0 0 0 0 0 0 0 0 0 0 0 0 0 0
0 0 0 0 0 0 0 0 0 0 0 0 0 0 0 0 0 0 0 0 0 0 0 0 0 0 0 0 0 0 0 0 0 0 0 0 0 0 0 0 0 0 0 0 0 0 0 0 0 0 0 0 0 0 0 0 0 0 0 0 0 0 0 0 0 0 0 0 0 57 62 67 57 62 67 57 62 67 57 62 67 57 62 67 57 62 67 57 62 67 63 69 74 63 69 74 63 69 74 63 69 74 63 69 74 63 69 74 63 69 74 0 0 0 0 0 0 0 0 0 0 0 0 0 0 0 0 0 0 0 0 0 0 0 0 0 0 0 0 0 0 0 0 0 111 124 255 0 0 0 0 0 0 0 0 0 0 0 0 0 0 0 0 0 0 0 0 0 0 0 0 0 0 0 0 0 0 57 62 67 57 62 67 57 62 67 57 62 67 57 62 67 57 62 67 57 62 67 63 69 74 63 69 74 63 69 74 63 69 74 63 69 74 63 69 74 63 69 74 0 0 0 0 0 0 0 0 0 0 0 0 0 0 0 0 0 0 0 0 0 0 0 0 0 0 0 0 0 0 0 0 0 0 0 0 0 0 0 0 0 0 0 0 0 0 0 0 0 0 0 0 0 0 0 0 0 0 0 0 0 0 0 0 0 0 0 0 0
0 0 0 0 0 0 0 0 0 0 0 0 0 0 0 0 0 0 0 0 0 0 0 0 0 0 0 0 0 0 0 0 0 0 0 0 0 0 0 0 0 0 0 0 0 0 0 0 0 0 0 0 0 0 0 0 0 0 0 0 0 0 0 0 0 0 0 0 0 0 0 0 57 62 67 57 62 67 57 62 67 57 62 67 57 62 67 57 62 67 63 69 74 63 69 74 63 69 74 63 69 74 63 69 74 63 69 74 0 0 0 0 0 0 0 0 0 0 0 0 0 0 0 0 0 0 0 0 0 0 0 0 0 0 0 0 0 0 0 0 0 0 0 0 0 0 0 0 0 0 0 0 0 0 0 0 0 0 0 0 0 0 0 0 0 0 0 0 0 0 0 0 0 0 0 0 0 0 0 0 57 62 67 57 62 67 57 62 67 57 62 67 57 62 67 57 62 67 63 69 74 63 69 74 63 69 74 63 69 74 63 69 74 63 69 74 0 0 0 0 0 0 0 0 0 0 0 0 0 0 0 0 0 0 0 0 0 0 0 0 0 0 0 0 0 0 0 0 0 0 0 0 0 0 0 0 0 0 0 0 0 0 0 0 0 0 0 0 0 0 0 0 0 0 0 0 0 0 0 0 0 0 0 0 0 0 0 0
0 0 0 0 0 0 0 0 0 0 0 0 0 0 0 0 0 0 0 0 0 0 0 0 0 0 0 0 0 0 0 0 0 0 0 0 0 0 0 0 0 0 0 0 0 0 0 0 0 0 0 0 0 0 0 0 0 0 0 0 0 0 0 0 0 0 0 0 0 0 0 0 0 0 0 57 62 67 57 62 67 57 62 67 57 62 67 57 62 67 63 69 74 63 69 74 63 69 74 63 69 74 63 69 74 0 0 0 0 0 0 0 0 0 0 0 0 0 0 0 0 0 0 0 0 0 0 0 0 0 0 0 0 0 0 0 0 0 0 0 0 0 0 0 0 0 0 0 0 0 0 0 0 0 0 0 0 0 0 0 0 0 0 0 0 0 0 0 0 0 0 0 0 0 0 0 0 0 0 0 0 0 0 57 62 67 57 62 67 57 62 67 57 62 67 57 62 67 63 69 74 63 69 74 63 69 74 63 69 74 63 69 74 0 0 0 0 0 0 0 0 0 0 0 0 0 0 0 0 0 0 0 0 0 0 0 0 0 0 0 0 0 0 0 0 0 0 0 0 0 0 0 0 0 0 0 0 0 0 0 0 0 0 0 0 0 0 0 0 0 0 0 0 0 0 0 0 0 0 0 0 0 0 0 0 0 0 0
0 0 0 0 0 0 0 0 0 0 0 0 0 0 0 0 0 0 0 0 0 0 0 0 0 0 0 0 0 0 0 0 0 0 0 0 0 0 0 0 0 0 0 0 0 0 0 0 0 0 0 0 0 0 0 0 0 0 0 0 0 0 0 0 0 0 0 0 0 0 0 0 0 0 0 0 0 0 57 62 67 57 62 67 57 62 67 57 62 67 63 69 74 63 69 74 63 69 74 63 69 74 0 0 0 0 0 0 0 0 0 0 0 0 0 0 0 0 0 0 0 0 0 0 0 0 0 0 0 0 0 0 0 0 0 0 0 0 0 0 0 0 0 0 0 0 0 0 0 0 0 0 0 0 0 0 0 0 0 0 0 0 0 0 0 0 0 0 0 0 0 0 0 0 0 0 0 0 0 0 0 0 0 0 0 0 57 62 67 57 62 67 57 62 67 57 62 67 63 69 74 63 69 74 63 69 74 63 69 74 0 0 0 0 0 0 0 0 0 0 0 0 0 0 0 0 0 0 0 0 0 0 0 0 0 0 0 0 0 0 0 0 0 0 0 0 0 0 0 0 0 0 0 0 0 0 0 0 0 0 0 0 0 0 0 0 0 0 0 0 0 0 0 0 0 0 0 0 0 0 0 0 0 0 0 0 0 0
0 0 0 0 0 0 0 0 0 0 0 0 0 0 0 0 0 0 0 0 0 0 0 0 0 0 0 0 0 0 0 0 0 0 0 0 0 0 0 0 0 0 0 0 0 0 0 0 0 0 0 0 0 0 0 0 0 0 0 0 0 0 0 0 0 0 0 0 0 0 0 0 0 0 0 0 0 0 57 62 67 57 62 67 57 62 67 57 62 67 63 69 74 63 69 74 63 69 74 63 69 74 0 0 0 0 0 0 0 0 0 0 0 0 0 0 0 0 0 0 0 0 0 0 0 0 0 0 0 0 0 0 0 0 0 0 0 0 0 0 0 0 0 0 0 0 0 0 0 0 0 0 0 0 0 0 0 0 0 0 0 0 0 0 0 0 0 0 0 0 0 0 0 0 0 0 0 0 0 0 0 0 0 0 0 0 57 62 67 57 62 67 57 62 67 57 62 67 63 69 74 63 69 74 63 69 74 63 69 74 0 0 0 0 0 0 0 0 0 0 0 0 0 0 0 0 0 0 0 0 0 0 0 0 0 0 0 0 0 0 0 0 0 0 0 0 0 0 0 0 0 0 0 0 0 0 0 0 0 0 0 0 0 0 0 0 0 0 0 0 0 0 0 0 0 0 0 0 0 0 0 0 0 0 0 0 0 0
0 0 0 0 0 0 0 0 0 0 0 0 0 0 0 0 0 0 0 0 0 0 0 0 0 0 0 0 0 0 0 0 0 0 0 0 0 0 0 0 0 0 0 0 0 0 0 0 0 0 0 0 0 0 0 0 0 0 0 0 0 0 0 0 0 0 0 0 0 0 0 0 0 0 0 0 0 0 0 0 0 57 62 67 57 62 67 57 62 67 63 69 74 63 69 74 63 69 74 0 0 0 0 0 0 0 0 0 0 0 0 0 0 0 0 0 0 0 0 0 0 0 0 0 0 0 0 0 0 0 0 0 0 0 0 0 0 0 0 0 0 0 0 0 0 0 0 0 0 0 0 0 0 0 0 0 0 0 0 0 0 0 0 0 0 0 0 0 0 0 0 0 0 0 0 0 0 0 0 0 0 0 0 0 0 0 0 0 0 57 62 67 57 62 67 57 62 67 63 69 74 63 69 74 63 69 74 0 0 0 0 0 0 0 0 0 0 0 0 0 0 0 0 0 0 0 0 0 0 0 0 0 0 0 0 0 0 0 0 0 0 0 0 0 0 0 0 0 0 0 0 0 0 0 0 0 0 0 0 0 0 0 0 0 0 0 0 0 0 0 0 0 0 0 0 0 0 0 0 0 0 0 0 0 0 0 0 0
0 0 0 0 0 0 0 0 0 0 0 0 0 0 0 0 0 0 0 0 0 0 0 0 0 0 0 0 0 0 0 0 0 0 0 0 0 0 0 0 0 0 0 0 0 0 0 0 0 0 0 0 0 0 0 0 0 0 0 0 0 0 0 0 0 0 0 0 0 0 0 0 0 0 0 0 0 0 0 0 0 0 0 0 57 62 67 57 62 67 63 69 74 63 69 74 0 0 0 0 0 0 0 0 0 0 0 0 0 0 0 0 0 0 0 0 0 0 0 0 0 0 0 0 0 0 0 0 0 0 0 0 0 0 0 0 0 0 0 0 0 0 0 0 0 0 0 0 0 0 0 0 0 0 0 0 0 0 0 0 0 0 0 0 0 0 0 0 0 0 0 0 0 0 0 0 0 0 0 0 0 0 0 0 0 0 0 0 0 0 0 0 57 62 67 57 62 67 63 69 74 63 69 74 0 0 0 0 0 0 0 0 0 0 0 0 0 0 0 0 0 0 0 0 0 0 0 0 0 0 0 0 0 0 0 0 0 0 0 0 0 0 0 0 0 0 0 0 0 0 0 0 0 0 0 0 0 0 0 0 0 0 0 0 0 0 0 0 0 0 0 0 0 0 0 0 0 0 0 0 0 0 0 0 0 0 0 0
0 0 0 0 0 0 0 0 0 0 0 0 0 0 0 0 0 0 0 0 0 0 0 0 0 0 0 0 0 0 0 0 0 0 0 0 0 0 0 0 0 0 0 0 0 0 0 0 0 0 0 0 0 0 0 0 0 0 0 0 0 0 0 0 0 0 0 0 0 0 0 0 0 0 0 0 0 0 0 0 0 0 0 0 0 0 0 57 62 67 63 69 74 0 0 0 0 0 0 0 0 0 0 0 0 0 0 0 0 0 0 0 0 0 0 0 0 0 0 0 0 0 0 0 0 0 0 0 0 0 0 0 0 0 0 0 0 0 0 0 0 0 0 0 0 0 0 0 0 0 0 0 0 0 0 0 0 0 0 0 0 0 0 0 0 0 0 0 0 0 0 0 0 0 0 0 0 0 0 0 0 0 0 0 0 0 0 0 0 0 0 0 0 0 0 57 62 67 63 69 74 0 0 0 0 0 0 0 0 0 0 0 0 0 0 0 0 0 0 0 0 0 0 0 0 0 0 0 0 0 0 0 0 0 0 0 0 0 0 0 0 0 0 0 0 0 0 0 0 0 0 0 0 0 0 0 0 0 0 0 0 0 0 0 0 0 0 0 0 0 0 0 0 0 0 0 0 0 0 0 0 0 0 0 0 0 0 0
0 0 0 0 0 0 0 0 0 0 0 0 0 0 0 0 0 0 0 0 0 0 0 0 0 0 0 0 0 0 0 0 0 0 0 0 0 0 0 0 0 0 0 0 0 0 0 0 0 0 0 0 0 0 0 0 0 0 0 0 0 0 0 0 0 0 0 0 0 0 0 0 0 0 0 0 0 0 0 0 0 0 0 0 0 0 0 0 0 0 63 69 74 0 0 0 0 0 0 0 0 0 0 0 0 0 0 0 0 0 0 0 0 0 0 0 0 0 0 0 0 0 0 0 0 0 0 0 0 0 0 0 0 0 0 0 0 0 0 0 0 0 0 0 0 0 0 0 0 0 0 0 0 0 0 0 0 0 0 0 0 0 0 0 0 0 0 0 0 0 0 0 0 0 0 0 0 0 0 0 0 0 0 0 0 0 0 0 0 0 0 0 0 0 0 0 0 0 63 69 74 0 0 0 0 0 0 0 0 0 0 0 0 0 0 0 0 0 0 0 0 0 0 0 0 0 0 0 0 0 0 0 0 0 0 0 0 0 0 0 0 0 0 0 0 0 0 0 0 0 0 0 0 0 0 0 0 0 0 0 0 0 0 0 0 0 0 0 0 0 0 0 0 0 0 0 0 0 0 0 0 0 0 0 0 0 0 0
