P3
128 96
255
0 0 0 0 0 0 0 0 0 0 0 0 0 0 0 0 0 0 0 0 0 0 0 0 0 0 0 0 0 0 0 0 0 0 0 0 0 0 0 0 0 0 0 0 0 0 0 0 0 0 0 0 0 0 0 0 0 0 0 0 0 0 0 0 0 0 0 0 0 0 0 0 0 0 0 0 0 0 0 0 0 0 0 0 0 0 0 0 0 0 0 0 0 0 0 0 0 0 0 0 0 0 0 0 0 0 0 0 0 0 0 0 0 0 0 0 0 0 0 0 0 0 0 0 0 0 0 0 0 0 0 0 0 0 0 0 0 0 0 0 0 0 0 0 0 0 0 0 0 0 0 0 0 0 0 0 0 0 0 0 0 0 0 0 0 0 0 0 0 0 0 0 0 0 0 0 0 0 0 0 0 0 0 0 0 0 0 0 0 0 0 0 0 0 0 0 0 0 0 0 0 0 0 0 0 0 0 0 0 0 0 0 0 0 0 0 0 0 0 0 0 0 0 0 0 0 0 0 0 0 0 0 0 0 0 0 0 0 0 0 0 0 0 0 0 0 0 0 0 0 0 0 0 0 0 0 0 0 0 0 0 0 0 0 0 0 0 0 0 0 0 0 0 0 0 0 0 0 0 0 0 0 0 0 0 0 0 0 0 0 0 0 0 0 0 0 0 0 0 0 0 0 0 0 0 0 0 0 0 0 0 0 0 0 0 0 0 0 0 0 0 0 0 0 0 0 0 0 0 0 0 0 0 0 0 0 0 0 0 0 0 0 0 0 0 0 0 0 0 0 0 0 0 0 0 0 0 0 0 0 0 0 0 0 0 0 0 0 0 0 0 0 0 0 0 0 0 0 0 0 0 0 0 0
0 0 0 0 0 0 0 0 0 0 0 0 0 0 0 0 0 0 0 0 0 0 0 0 0 0 0 0 0 0 0 0 0 0 0 0 0 0 0 0 0 0 0 0 0 0 0 0 0 0 0 0 0 0 0 0 0 0 0 0 0 0 0 0 0 0 0 0 0 0 0 0 0 0 0 0 0 0 0 0 0 0 0 0 0 0 0 0 0 0 0 0 0 0 0 0 0 0 0 0 0 0 0 0 0 0 0 0 0 0 0 0 0 0 0 0 0 0 0 0 0 0 0 0 0 0 0 0 0 0 0 0 0 0 0 0 0 0 0 0 0 0 0 0 0 0 0 0 0 0 0 0 0 0 0 0 0 0 0 0 0 0 0 0 0 0 0 0 0 0 0 0 0 0 0 0 0 0 0 0 0 0 0 0 0 0 0 0 0 0 0 0 0 0 0 0 0 0 0 0 0 0 0 0 0 0 0 0 0 0 0 0 0 0 0 0 0 0 0 0 0 0 0 0 0 0 0 0 0 0 0 0 0 0 0 0 0 0 0 0 0 0 0 0 0 0 0 0 0 0 0 0 0 0 0 0 0 0 0 0 0 0 0 0 0 0 0 0 0 0 0 0 0 0 0 0 0 0 0 0 0 0 0 0 0 0 0 0 0 0 0 0 0 0 0 0 0 0 0 0 0 0 0 0 0 0 0 0 0 0 0 0 0 0 0 0 0 0 0 0 0 0 0 0 0 0 0 0 0 0 0 0 0 0 0 0 0 0 0 0 0 0 0 0 0 0 0 0 0 0 0 0 0 0 0 0 0 0 0 0 0 0 0 0 0 0 0 0 0 0 0 0 0 0 0 0 0 0 0 0 0 0 0 0
0 0 0 0 0 0 0 0 0 0 0 0 0 0 0 0 0 0 0 0 0 0 0 0 0 0 0 0 0 0 0 0 0 0 0 0 0 0 0 0 0 0 0 0 0 0 0 0 0 0 0 0 0 0 0 0 0 0 0 0 0 0 0 0 0 0 0 0 0 0 0 0 0 0 0 0 0 0 0 0 0 0 0 0 0 0 0 0 0 0 0 0 0 0 0 0 0 0 0 0 0 0 0 0 0 0 0 0 0 0 0 0 0 0 0 0 0 0 0 0 0 0 0 0 0 0 0 0 0 0 0 0 0 0 0 0 0 0 0 0 0 0 0 0 0 0 0 0 0 0 0 0 0 0 0 0 0 0 0 0 0 0 0 0 0 0 0 0 0 0 0 0 0 0 0 0 0 0 0 0 0 0 0 0 0 0 0 0 0 0 0 0 0 0 0 0 0 0 0 0 0 0 0 0 0 0 0 0 0 0 0 0 0 0 0 0 0 0 0 0 0 0 0 0 0 0 0 0 0 0 0 0 0 0 0 0 0 0 0 0 0 0 0 0 0 0 0 0 0 0 0 0 0 0 0 0 0 0 0 0 0 0 0 0 0 0 0 0 0 0 0 0 0 0 0 0 0 0 0 0 0 0 0 0 0 0 0 0 0 0 0 0 0 0 0 0 0 0 0 0 0 0 0 0 0 0 0 0 0 0 0 0 0 0 0 0 0 0 0 0 0 0 0 0 0 0 0 0 0 0 0 0 0 0 0 0 0 0 0 0 0 0 0 0 0 0 0 0 0 0 0 0 0 0 0 0 0 0 0 0 0 0 0 0 0 0 0 0 0 0 0 0 0 0 0 0 0 0 0 0 0 0 0 0
0 0 0 0 0 0 0 0 0 0 0 0 0 0 0 0 0 0 0 0 0 0 0 0 0 0 0 0 0 0 0 0 0 0 0 0 0 0 0 0 0 0 0 0 0 0 0 0 0 0 0 0 0 0 0 0 0 0 0 0 0 0 0 0 0 0 0 0 0 0 0 0 0 0 0 0 0 0 0 0 0 0 0 0 0 0 0 0 0 0 0 0 0 0 0 0 0 0 0 0 0 0 0 0 0 0 0 0 0 0 0 0 0 0 0 0 0 0 0 0 0 0 0 0 0 0 0 0 0 0 0 0 0 0 0 0 0 0 0 0 0 0 0 0 0 0 0 0 0 0 0 0 0 0 0 0 0 0 0 0 0 0 0 0 0 0 0 0 0 0 0 0 0 0 0 0 0 0 0 0 0 0 0 0 0 0 0 0 0 0 0 0 0 0 0 0 0 0 0 0 0 0 0 0 0 0 0 0 0 0 0 0 0 0 0 0 0 0 0 0 0 0 0 0 0 0 0 0 0 0 0 0 0 0 0 0 0 0 0 0 0 0 0 0 0 0 0 0 0 0 0 0 0 0 0 0 0 0 0 0 0 0 0 0 0 0 0 0 0 0 0 0 0 0 0 0 0 0 0 0 0 0 0 0 0 0 0 0 0 0 0 0 0 0 0 0 0 0 0 0 0 0 0 0 0 0 0 0 0 0 0 0 0 0 0 0 0 0 0 0 0 0 0 0 0 0 0 0 0 0 0 0 0 0 0 0 0 0 0 0 0 0 0 0 0 0 0 0 0 0 0 0 0 0 0 0 0 0 0 0 0 0 0 0 0 0 0 0 0 0 0 0 0 0 0 0 0 0 0 0 0 0 0 0
0 0 0 0 0 0 0 0 0 0 0 0 0 0 0 0 0 0 0 0 0 0 0 0 0 0 0 0 0 0 0 0 0 0 0 0 0 0 0 0 0 0 0 0 0 0 0 0 0 0 0 0 0 0 0 0 0 0 0 0 0 0 0 0 0 0 0 0 0 0 0 0 0 0 0 0 0 0 0 0 0 0 0 0 0 0 0 0 0 0 0 0 0 0 0 0 0 0 0 0 0 0 0 0 0 0 0 0 0 0 0 0 0 0 0 0 0 0 0 0 0 0 0 0 0 0 0 0 0 0 0 0 0 0 0 0 0 0 0 0 0 0 0 0 0 0 0 0 0 0 0 0 0 0 0 0 0 0 0 0 0 0 0 0 0 0 0 0 0 0 0 0 0 0 0 0 0 0 0 0 0 0 0 0 0 0 0 0 0 0 0 0 0 0 0 0 0 0 0 0 0 0 0 0 0 0 0 0 0 0 0 0 0 0 0 0 0 0 0 0 0 0 0 0 0 0 0 0 0 0 0 0 0 0 0 0 0 0 0 0 0 0 0 0 0 0 0 0 0 0 0 0 0 0 0 0 0 0 0 0 0 0 0 0 0 0 0 0 0 0 0 0 0 0 0 0 0 0 0 0 0 0 0 0 0 0 0 0 0 0 0 0 0 0 0 0 0 0 0 0 0 0 0 0 0 0 0 0 0 0 0 0 0 0 0 0 0 0 0 0 0 0 0 0 0 0 0 0 0 0 0 0 0 0 0 0 0 0 0 0 0 0 0 0 0 0 0 0 0 0 0 0 0 0 0 0 0 0 0 0 0 0 0 0 0 0 0 0 0 0 0 0 0 0 0 0 0 0 0 0 0 0 0 0
0 0 0 0 0 0 0 0 0 0 0 0 0 0 0 0 0 0 0 0 0 0 0 0 0 0 0 0 0 0 0 0 0 0 0 0 0 0 0 0 0 0 0 0 0 0 0 0 0 0 0 0 0 0 0 0 0 0 0 0 0 0 0 0 0 0 0 0 0 0 0 0 0 0 0 0 0 0 0 0 0 0 0 0 0 0 0 0 0 0 0 0 0 0 0 0 0 0 0 0 0 0 0 0 0 0 0 0 0 0 0 0 0 0 0 0 0 0 0 0 0 0 0 0 0 0 0 0 0 0 0 0 0 0 0 0 0 0 0 0 0 0 0 0 0 0 0 0 0 0 0 0 0 0 0 0 0 0 0 0 0 0 0 0 0 0 0 0 0 0 0 0 0 0 0 0 0 0 0 0 0 0 0 0 0 0 0 0 0 0 0 0 0 0 0 0 0 0 0 0 0 0 0 0 0 0 0 0 0 0 0 0 0 0 0 0 0 0 0 0 0 0 0 0 0 0 0 0 0 0 0 0 0 0 0 0 0 0 0 0 0 0 0 0 0 0 0 0 0 0 0 0 0 0 0 0 0 0 0 0 0 0 0 0 0 0 0 0 0 0 0 0 0 0 0 0 0 0 0 0 0 0 0 0 0 0 0 0 0 0 0 0 0 0 0 0 0 0 0 0 0 0 0 0 0 0 0 0 0 0 0 0 0 0 0 0 0 0 0 0 0 0 0 0 0 0 0 0 0 0 0 0 0 0 0 0 0 0 0 0 0 0 0 0 0 0 0 0 0 0 0 0 0 0 0 0 0 0 0 0 0 0 0 0 0 0 0 0 0 0 0 0 0 0 0 0 0 0 0 0 0 0 0 0
0 0 0 0 0 0 0 0 0 0 0 0 0 0 0 0 0 0 0 0 0 0 0 0 0 0 0 0 0 0 0 0 0 0 0 0 0 0 0 0 0 0 0 0 0 0 0 0 0 0 0 0 0 0 0 0 0 0 0 0 0 0 0 0 0 0 0 0 0 0 0 0 0 0 0 0 0 0 0 0 0 0 0 0 0 0 0 0 0 0 0 0 0 0 0 0 0 0 0 0 0 0 0 0 0 0 0 0 0 0 0 0 0 0 0 0 0 0 0 0 0 0 0 0 0 0 0 0 0 0 0 0 0 0 0 0 0 0 0 0 0 0 0 0 0 0 0 0 0 0 0 0 0 0 0 0 0 0 0 0 0 0 0 0 0 0 0 0 0 0 0 0 0 0 0 0 0 0 0 0 0 0 0 0 0 0 0 0 0 0 0 0 0 0 0 0 0 0 0 0 0 0 0 0 0 0 0 0 0 0 0 0 0 0 0 0 0 0 0 0 0 0 0 0 0 0 0 0 0 0 0 0 0 0 0 0 0 0 0 0 0 0 0 0 0 0 0 0 0 0 0 0 0 0 0 0 0 0 0 0 0 0 0 0 0 0 0 0 0 0 0 0 0 0 0 0 0 0 0 0 0 0 0 0 0 0 0 0 0 0 0 0 0 0 0 0 0 0 0 0 0 0 0 0 0 0 0 0 0 0 0 0 0 0 0 0 0 0 0 0 0 0 0 0 0 0 0 0 0 0 0 0 0 0 0 0 0 0 0 0 0 0 0 0 0 0 0 0 0 0 0 0 0 0 0 0 0 0 0 0 0 0 0 0 0 0 0 0 0 0 0 0 0 0 0 0 0 0 0 0 0 0 0 0
0 0 0 0 0 0 0 0 0 0 0 0 0 0 0 0 0 0 0 0 0 0 0 0 0 0 0 0 0 0 0 0 0 0 0 0 0 0 0 0 0 0 0 0 0 0 0 0 0 0 0 0 0 0 0 0 0 0 0 0 0 0 0 0 0 0 0 0 0 0 0 0 0 0 0 0 0 0 0 0 0 0 0 0 0 0 0 0 0 0 0 0 0 0 0 0 0 0 0 0 0 0 0 0 0 0 0 0 0 0 0 0 0 0 0 0 0 0 0 0 0 0 0 0 0 0 0 0 0 0 0 0 0 0 0 0 0 0 0 0 0 0 0 0 0 0 0 0 0 0 0 0 0 0 0 0 0 0 0 0 0 0 0 0 0 0 0 0 0 0 0 0 0 0 0 0 0 0 0 0 0 0 0 0 0 0 0 0 0 0 0 0 0 0 0 0 0 0 0 0 0 0 0 0 0 0 0 0 0 0 0 0 0 0 0 0 0 0 0 0 0 0 0 0 0 0 0 0 0 0 0 0 0 0 0 0 0 0 0 0 0 0 0 0 0 0 0 0 0 0 0 0 0 0 0 0 0 0 0 0 0 0 0 0 0 0 0 0 0 0 0 0 0 0 0 0 0 0 0 0 0 0 0 0 0 0 0 0 0 0 0 0 0 0 0 0 0 0 0 0 0 0 0 0 0 0 0 0 0 0 0 0 0 0 0 0 0 0 0 0 0 0 0 0 0 0 0 0 0 0 0 0 0 0 0 0 0 0 0 0 0 0 0 0 0 0 0 0 0 0 0 0 0 0 0 0 0 0 0 0 0 0 0 0 0 0 0 0 0 0 0 0 0 0 0 0 0 0 0 0 0 0 0 0
0 0 0 0 0 0 0 0 0 0 0 0 0 0 0 0 0 0 0 0 0 0 0 0 0 0 0 0 0 0 0 0 0 0 0 0 0 0 0 0 0 0 0 0 0 0 0 0 0 0 0 0 0 0 0 0 0 0 0 0 0 0 0 0 0 0 0 0 0 0 0 0 0 0 0 0 0 0 0 0 0 0 0 0 0 0 0 0 0 0 0 0 0 0 0 0 0 0 0 0 0 0 0 0 0 0 0 0 0 0 0 0 0 0 0 0 0 0 0 0 0 0 0 0 0 0 0 0 0 0 0 0 0 0 0 0 0 0 0 0 0 0 0 0 0 0 0 0 0 0 0 0 0 0 0 0 0 0 0 0 0 0 0 0 0 0 0 0 0 0 0 0 0 0 0 0 0 0 0 0 0 0 0 0 0 0 0 0 0 0 0 0 0 0 0 0 0 0 0 0 0 0 0 0 0 0 0 0 0 0 0 0 0 0 0 0 0 0 0 0 0 0 0 0 0 0 0 0 0 0 0 0 0 0 0 0 0 0 0 0 0 0 0 0 0 0 0 0 0 0 0 0 0 0 0 0 0 0 0 0 0 0 0 0 0 0 0 0 0 0 0 0 0 0 0 0 0 0 0 0 0 0 0 0 0 0 0 0 0 0 0 0 0 0 0 0 0 0 0 0 0 0 0 0 0 0 0 0 0 0 0 0 0 0 0 0 0 0 0 0 0 0 0 0 0 0 0 0 0 0 0 0 0 0 0 0 0 0 0 0 0 0 0 0 0 0 0 0 0 0 0 0 0 0 0 0 0 0 0 0 0 0 0 0 0 0 0 0 0 0 0 0 0 0 0 0 0 0 0 0 0 0 0 0
0 0 0 0 0 0 0 0 0 0 0 0 0 0 0 0 0 0 0 0 0 0 0 0 0 0 0 0 0 0 0 0 0 0 0 0 0 0 0 0 0 0 0 0 0 0 0 0 0 0 0 0 0 0 0 0 0 0 0 0 0 0 0 0 0 0 0 0 0 0 0 0 0 0 0 0 0 0 0 0 0 0 0 0 0 0 0 0 0 0 0 0 0 0 0 0 0 0 0 0 0 0 0 0 0 0 0 0 0 0 0 0 0 0 0 0 0 0 0 0 0 0 0 0 0 0 0 0 0 0 0 0 0 0 0 0 0 0 0 0 0 0 0 0 0 0 0 0 0 0 0 0 0 0 0 0 0 0 0 0 0 0 0 0 0 0 0 0 0 0 0 0 0 0 0 0 0 0 0 0 0 0 0 0 0 0 0 0 0 0 0 0 0 0 0 0 0 0 0 0 0 0 0 0 0 0 0 0 0 0 0 0 0 0 0 0 0 0 0 0 0 0 0 0 0 0 0 0 0 0 0 0 0 0 0 0 0 0 0 0 0 0 0 0 0 0 0 0 0 0 0 0 0 0 0 0 0 0 0 0 0 0 0 0 0 0 0 0 0 0 0 0 0 0 0 0 0 0 0 0 0 0 0 0 0 0 0 0 0 0 0 0 0 0 0 0 0 0 0 0 0 0 0 0 0 0 0 0 0 0 0 0 0 0 0 0 0 0 0 0 0 0 0 0 0 0 0 0 0 0 0 0 0 0 0 0 0 0 0 0 0 0 0 0 0 0 0 0 0 0 0 0 0 0 0 0 0 0 0 0 0 0 0 0 0 0 0 0 0 0 0 0 0 0 0 0 0 0 0 0 0 0 0 0
0 0 0 0 0 0 0 0 0 0 0 0 0 0 0 0 0 0 0 0 0 0 0 0 0 0 0 0 0 0 0 0 0 0 0 0 0 0 0 0 0 0 0 0 0 0 0 0 0 0 0 0 0 0 0 0 0 0 0 0 0 0 0 0 0 0 0 0 0 0 0 0 0 0 0 0 0 0 0 0 0 0 0 0 0 0 0 0 0 0 0 0 0 0 0 0 0 0 0 0 0 0 0 0 0 0 0 0 0 0 0 0 0 0 0 0 0 0 0 0 0 0 0 0 0 0 0 0 0 0 0 0 0 0 0 0 0 0 0 0 0 0 0 0 0 0 0 0 0 0 0 0 0 0 0 0 0 0 0 0 0 0 0 0 0 0 0 0 0 0 0 0 0 0 0 0 0 0 0 0 0 0 0 0 0 0 0 0 0 0 0 0 0 0 0 0 0 0 0 0 0 0 0 0 0 0 0 0 0 0 0 0 0 0 0 0 0 0 0 0 0 0 0 0 0 0 0 0 0 0 0 0 0 0 0 0 0 0 0 0 0 0 0 0 0 0 0 0 0 0 0 0 0 0 0 0 0 0 0 0 0 0 0 0 0 0 0 0 0 0 0 0 0 0 0 0 0 0 0 0 0 0 0 0 0 0 0 0 0 0 0 0 0 0 0 0 0 0 0 0 0 0 0 0 0 0 0 0 0 0 0 0 0 0 0 0 0 0 0 0 0 0 0 0 0 0 0 0 0 0 0 0 0 0 0 0 0 0 0 0 0 0 0 0 0 0 0 0 0 0 0 0 0 0 0 0 0 0 0 0 0 0 0 0 0 0 0 0 0 0 0 0 0 0 0 0 0 0 0 0 0 0 0 0
0 0 0 0 0 0 0 0 0 0 0 0 0 0 0 0 0 0 0 0 0 0 0 0 0 0 0 0 0 0 0 0 0 0 0 0 0 0 0 0 0 0 0 0 0 0 0 0 0 0 0 0 0 0 0 0 0 0 0 0 0 0 0 0 0 0 0 0 0 0 0 0 0 0 0 0 0 0 0 0 0 0 0 0 0 0 0 0 0 0 0 0 0 0 0 0 0 0 0 0 0 0 0 0 0 0 0 0 0 0 0 0 0 0 0 0 0 0 0 0 0 0 0 0 0 0 0 0 0 0 0 0 0 0 0 0 0 0 0 0 0 0 0 0 0 0 0 0 0 0 0 0 0 0 0 0 0 0 0 0 0 0 0 0 0 0 0 0 0 0 0 0 0 0 0 0 0 0 0 0 0 0 0 0 0 0 0 0 0 0 0 0 0 0 0 0 0 0 0 0 0 0 0 0 0 0 0 0 0 0 0 0 0 0 0 0 0 0 0 0 0 0 0 0 0 0 0 0 0 0 0 0 0 0 0 0 0 0 0 0 0 0 0 0 0 0 0 0 0 0 0 0 0 0 0 0 0 0 0 0 0 0 0 0 0 0 0 0 0 0 0 0 0 0 0 0 0 0 0 0 0 0 0 0 0 0 0 0 0 0 0 0 0 0 0 0 0 0 0 0 0 0 0 0 0 0 0 0 0 0 0 0 0 0 0 0 0 0 0 0 0 0 0 0 0 0 0 0 0 0 0 0 0 0 0 0 0 0 0 0 0 0 0 0 0 0 0 0 0 0 0 0 0 0 0 0 0 0 0 0 0 0 0 0 0 0 0 0 0 0 0 0 0 0 0 0 0 0 0 0 0 0 0 0
0 0 0 0 0 0 0 0 0 0 0 0 0 0 0 0 0 0 0 0 0 0 0 0 0 0 0 0 0 0 0 0 0 0 0 0 0 0 0 0 0 0 0 0 0 0 0 0 0 0 0 0 0 0 0 0 0 0 0 0 0 0 0 0 0 0 0 0 0 0 0 0 0 0 0 0 0 0 0 0 0 0 0 0 0 0 0 0 0 0 0 0 0 0 0 0 0 0 0 0 0 0 0 0 0 0 0 0 0 0 0 0 0 0 0 0 0 0 0 0 0 0 0 0 0 0 0 0 0 0 0 0 0 0 0 0 0 0 0 0 0 0 0 0 0 0 0 0 0 0 0 0 0 0 0 0 0 0 0 0 0 0 0 0 0 0 0 0 0 0 0 0 0 0 0 0 0 0 0 0 0 0 0 0 0 0 0 0 0 0 0 0 0 0 0 0 0 0 0 0 0 0 0 0 0 0 0 0 0 0 0 0 0 0 0 0 0 0 0 0 0 0 0 0 0 0 0 0 0 0 0 0 0 0 0 0 0 0 0 0 0 0 0 0 0 0 0 0 0 0 0 0 0 0 0 0 0 0 0 0 0 0 0 0 0 0 0 0 0 0 0 0 0 0 0 0 0 0 0 0 0 0 0 0 0 0 0 0 0 0 0 0 0 0 0 0 0 0 0 0 0 0 0 0 0 0 0 0 0 0 0 0 0 0 0 0 0 0 0 0 0 0 0 0 0 0 0 0 0 0 0 0 0 0 0 0 0 0 0 0 0 0 0 0 0 0 0 0 0 0 0 0 0 0 0 0 0 0 0 0 0 0 0 0 0 0 0 0 0 0 0 0 0 0 0 0 0 0 0 0 0 0 0 0
0 0 0 0 0 0 0 0 0 0 0 0 0 0 0 0 0 0 0 0 0 0 0 0 0 0 0 0 0 0 0 0 0 0 0 0 0 0 0 0 0 0 0 0 0 0 0 0 0 0 0 0 0 0 0 0 0 0 0 0 0 0 0 0 0 0 0 0 0 0 0 0 0 0 0 0 0 0 0 0 0 0 0 0 0 0 0 0 0 0 0 0 0 0 0 0 0 0 0 0 0 0 0 0 0 0 0 0 0 0 0 0 0 0 0 0 0 0 0 0 0 0 0 0 0 0 0 0 0 0 0 0 0 0 0 0 0 0 0 0 0 0 0 0 0 0 0 0 0 0 0 0 0 0 0 0 0 0 0 0 0 0 0 0 0 0 0 0 0 0 0 0 0 0 0 0 0 0 0 0 0 0 0 0 0 0 0 0 0 0 0 0 0 0 0 0 0 0 0 0 0 0 0 0 0 0 0 0 0 0 0 0 0 0 0 0 0 0 0 0 0 0 0 0 0 0 0 0 0 0 0 0 0 0 0 0 0 0 0 0 0 0 0 0 0 0 0 0 0 0 0 0 0 0 0 0 0 0 0 0 0 0 0 0 0 0 0 0 0 0 0 0 0 0 0 0 0 0 0 0 0 0 0 0 0 0 0 0 0 0 0 0 0 0 0 0 0 0 0 0 0 0 0 0 0 0 0 0 0 0 0 0 0 0 0 0 0 0 0 0 0 0 0 0 0 0 0 0 0 0 0 0 0 0 0 0 0 0 0 0 0 0 0 0 0 0 0 0 0 0 0 0 0 0 0 0 0 0 0 0 0 0 0 0 0 0 0 0 0 0 0 0 0 0 0 0 0 0 0 0 0 0 0 0
0 0 0 0 0 0 0 0 0 0 0 0 0 0 0 0 0 0 0 0 0 0 0 0 0 0 0 0 0 0 0 0 0 0 0 0 0 0 0 0 0 0 0 0 0 0 0 0 0 0 0 0 0 0 0 0 0 0 0 0 0 0 0 0 0 0 0 0 0 0 0 0 0 0 0 0 0 0 0 0 0 0 0 0 0 0 0 0 0 0 0 0 0 0 0 0 0 0 0 0 0 0 0 0 0 0 0 0 0 0 0 0 0 0 0 0 0 0 0 0 0 0 0 0 0 0 0 0 0 0 0 0 0 0 0 0 0 0 0 0 0 0 0 0 0 0 0 0 0 0 0 0 0 0 0 0 0 0 0 0 0 0 0 0 0 0 0 0 0 0 0 0 0 0 0 0 0 0 0 0 0 0 0 0 0 0 0 0 0 0 0 0 0 0 0 0 0 0 0 0 0 0 0 0 0 0 0 0 0 0 0 0 0 0 0 0 0 0 0 0 0 0 0 0 0 0 0 0 0 0 0 0 0 0 0 0 0 0 0 0 0 0 0 0 0 0 0 0 0 0 0 0 0 0 0 0 0 0 0 0 0 0 0 0 0 0 0 0 0 0 0 0 0 0 0 0 0 0 0 0 0 0 0 0 0 0 0 0 0 0 0 0 0 0 0 0 0 0 0 0 0 0 0 0 0 0 0 0 0 0 0 0 0 0 0 0 0 0 0 0 0 0 0 0 0 0 0 0 0 0 0 0 0 0 0 0 0 0 0 0 0 0 0 0 0 0 0 0 0 0 0 0 0 0 0 0 0 0 0 0 0 0 0 0 0 0 0 0 0 0 0 0 0 0 0 0 0 0 0 0 0 0 0 0
0 0 0 0 0 0 0 0 0 0 0 0 0 0 0 0 0 0 0 0 0 0 0 0 0 0 0 0 0 0 0 0 0 0 0 0 0 0 0 0 0 0 0 0 0 0 0 0 0 0 0 0 0 0 0 0 0 0 0 0 0 0 0 0 0 0 0 0 0 0 0 0 0 0 0 0 0 0 0 0 0 0 0 0 0 0 0 0 0 0 0 0 0 0 0 0 0 0 0 0 0 0 0 0 0 0 0 0 0 0 0 0 0 0 0 0 0 0 0 0 0 0 0 0 0 0 0 0 0 0 0 0 0 0 0 0 0 0 0 0 0 0 0 0 0 0 0 0 0 0 0 0 0 0 0 0 0 0 0 0 0 0 0 0 0 0 0 0 0 0 0 0 0 0 0 0 0 0 0 0 0 0 0 0 0 0 0 0 0 0 0 0 0 0 0 0 0 0 0 0 0 0 0 0 0 0 0 0 0 0 0 0 0 0 0 0 0 0 0 0 0 0 0 0 0 0 0 0 0 0 0 0 0 0 0 0 0 0 0 0 0 0 0 0 0 0 0 0 0 0 0 0 0 0 0 0 0 0 0 0 0 0 0 0 0 0 0 0 0 0 0 0 0 0 0 0 0 0 0 0 0 0 0 0 0 0 0 0 0 0 0 0 0 0 0 0 0 0 0 0 0 0 0 0 0 0 0 0 0 0 0 0 0 0 0 0 0 0 0 0 0 0 0 0 0 0 0 0 0 0 0 0 0 0 0 0 0 0 0 0 0 0 0 0 0 0 0 0 0 0 0 0 0 0 0 0 0 0 0 0 0 0 0 0 0 0 0 0 0 0 0 0 0 0 0 0 0 0 0 0 0 0 0 0
0 0 0 0 0 0 0 0 0 0 0 0 0 0 0 0 0 0 0 0 0 0 0 0 0 0 0 0 0 0 0 0 0 0 0 0 0 0 0 0 0 0 0 0 0 0 0 0 0 0 0 0 0 0 0 0 0 0 0 0 0 0 0 0 0 0 0 0 0 0 0 0 0 0 0 0 0 0 0 0 0 0 0 0 0 0 0 0 0 0 0 0 0 0 0 0 0 0 0 0 0 0 0 0 0 0 0 0 0 0 0 0 0 0 0 0 0 0 0 0 0 0 0 0 0 0 0 0 0 0 0 0 0 0 0 0 0 0 0 0 0 0 0 0 0 0 0 0 0 0 0 0 0 0 0 0 0 0 0 0 0 0 0 0 0 0 0 0 0 0 0 0 0 0 0 0 0 0 0 0 0 0 0 0 0 0 0 0 0 0 0 0 0 0 0 0 0 0 0 0 0 0 0 0 0 0 0 0 0 0 0 0 0 0 0 0 0 0 0 0 0 0 0 0 0 0 0 0 0 0 0 0 0 0 0 0 0 0 0 0 0 0 0 0 0 0 0 0 0 0 0 0 0 0 0 0 0 0 0 0 0 0 0 0 0 0 0 0 0 0 0 0 0 0 0 0 0 0 0 0 0 0 0 0 0 0 0 0 0 0 0 0 0 0 0 0 0 0 0 0 0 0 0 0 0 0 0 0 0 0 0 0 0 0 0 0 0 0 0 0 0 0 0 0 0 0 0 0 0 0 0 0 0 0 0 0 0 0 0 0 0 0 0 0 0 0 0 0 0 0 0 0 0 0 0 0 0 0 0 0 0 0 0 0 0 0 0 0 0 0 0 0 0 0 0 0 0 0 0 0 0 0 0 0
0 0 0 0 0 0 0 0 0 0 0 0 0 0 0 0 0 0 0 0 0 0 0 0 0 0 0 0 0 0 0 0 0 0 0 0 0 0 0 0 0 0 0 0 0 0 0 0 0 0 0 0 0 0 0 0 0 0 0 0 0 0 0 0 0 0 0 0 0 0 0 0 0 0 0 0 0 0 0 0 0 0 0 0 0 0 0 0 0 0 0 0 0 0 0 0 0 0 0 0 0 0 0 0 0 0 0 0 0 0 0 0 0 0 0 0 0 0 0 0 0 0 0 0 0 0 0 0 0 0 0 0 0 0 0 0 0 0 0 0 0 0 0 0 0 0 0 0 0 0 0 0 0 0 0 0 0 0 0 0 0 0 0 0 0 0 0 0 0 0 0 0 0 0 0 0 0 0 0 0 0 0 0 0 0 0 0 0 0 0 0 0 0 0 0 0 0 0 0 0 0 0 0 0 0 0 0 0 0 0 0 0 0 0 0 0 0 0 0 0 0 0 0 0 0 0 0 0 0 0 0 0 0 0 0 0 0 0 0 0 0 0 0 0 0 0 0 0 0 0 0 0 0 0 0 0 0 0 0 0 0 0 0 0 0 0 0 0 0 0 0 0 0 0 0 0 0 0 0 0 0 0 0 0 0 0 0 0 0 0 0 0 0 0 0 0 0 0 0 0 0 0 0 0 0 0 0 0 0 0 0 0 0 0 0 0 0 0 0 0 0 0 0 0 0 0 0 0 0 0 0 0 0 0 0 0 0 0 0 0 0 0 0 0 0 0 0 0 0 0 0 0 0 0 0 0 0 0 0 0 0 0 0 0 0 0 0 0 0 0 0 0 0 0 0 0 0 0 0 0 0 0 0 0
0 0 0 0 0 0 0 0 0 0 0 0 0 0 0 0 0 0 0 0 0 0 0 0 0 0 0 0 0 0 0 0 0 0 0 0 0 0 0 0 0 0 0 0 0 0 0 0 0 0 0 0 0 0 0 0 0 0 0 0 0 0 0 0 0 0 0 0 0 0 0 0 0 0 0 0 0 0 0 0 0 0 0 0 0 0 0 0 0 0 0 0 0 0 0 0 0 0 0 0 0 0 0 0 0 0 0 0 0 0 0 0 0 0 0 0 0 0 0 0 0 0 0 0 0 0 0 0 0 0 0 0 0 0 0 0 0 0 0 0 0 0 0 0 0 0 0 0 0 0 0 0 0 0 0 0 0 0 0 0 0 0 0 0 0 0 0 0 0 0 0 0 0 0 0 0 0 0 0 0 0 0 0 0 0 0 0 0 0 0 0 0 0 0 0 0 0 0 0 0 0 0 0 0 0 0 0 0 0 0 0 0 0 0 0 0 0 0 0 0 0 0 0 0 0 0 0 0 0 0 0 0 0 0 0 0 0 0 0 0 0 0 0 0 0 0 0 0 0 0 0 0 0 0 0 0 0 0 0 0 0 0 0 0 0 0 0 0 0 0 0 0 0 0 0 0 0 0 0 0 0 0 0 0 0 0 0 0 0 0 0 0 0 0 0 0 0 0 0 0 0 0 0 0 0 0 0 0 0 0 0 0 0 0 0 0 0 0 0 0 0 0 0 0 0 0 0 0 0 0 0 0 0 0 0 0 0 0 0 0 0 0 0 0 0 0 0 0 0 0 0 0 0 0 0 0 0 0 0 0 0 0 0 0 0 0 0 0 0 0 0 0 0 0 0 0 0 0 0 0 0 0 0 0
0 0 0 0 0 0 0 0 0 0 0 0 0 0 0 0 0 0 0 0 0 0 0 0 0 0 0 0 0 0 0 0 0 0 0 0 0 0 0 0 0 0 0 0 0 0 0 0 0 0 0 0 0 0 0 0 0 0 0 0 0 0 0 0 0 0 0 0 0 0 0 0 0 0 0 0 0 0 0 0 0 0 0 0 0 0 0 0 0 0 0 0 0 0 0 0 0 0 0 0 0 0 0 0 0 0 0 0 0 0 0 0 0 0 0 0 0 0 0 0 0 0 0 0 0 0 0 0 0 0 0 0 0 0 0 0 0 0 0 0 0 0 0 0 0 0 0 0 0 0 0 0 0 0 0 0 0 0 0 0 0 0 0 0 0 0 0 0 0 0 0 0 0 0 0 0 0 0 0 0 0 0 0 0 0 0 0 0 0 0 0 0 0 0 0 0 0 0 0 0 0 0 0 0 0 0 0 0 0 0 0 0 0 0 0 0 0 0 0 0 0 0 0 0 0 0 0 0 0 0 0 0 0 0 0 0 0 0 0 0 0 0 0 0 0 0 0 0 0 0 0 0 0 0 0 0 0 0 0 0 0 0 0 0 0 0 0 0 0 0 0 0 0 0 0 0 0 0 0 0 0 0 0 0 0 0 0 0 0 0 0 0 0 0 0 0 0 0 0 0 0 0 0 0 0 0 0 0 0 0 0 0 0 0 0 0 0 0 0 0 0 0 0 0 0 0 0 0 0 0 0 0 0 0 0 0 0 0 0 0 0 0 0 0 0 0 0 0 0 0 0 0 0 0 0 0 0 0 0 0 0 0 0 0 0 0 0 0 0 0 0 0 0 0 0 0 0 0 0 0 0 0 0 0
0 0 0 0 0 0 0 0 0 0 0 0 0 0 0 0 0 0 0 0 0 0 0 0 0 0 0 0 0 0 0 0 0 0 0 0 0 0 0 0 0 0 0 0 0 0 0 0 0 0 0 0 0 0 0 0 0 0 0 0 0 0 0 0 0 0 0 0 0 0 0 0 0 0 0 0 0 0 0 0 0 0 0 0 0 0 0 0 0 0 0 0 0 0 0 0 0 0 0 0 0 0 0 0 0 0 0 0 0 0 0 0 0 0 0 0 0 0 0 0 0 0 0 0 0 0 0 0 0 0 0 0 0 0 0 0 0 0 0 0 0 0 0 0 0 0 0 0 0 0 0 0 0 0 0 0 0 0 0 0 0 0 0 0 0 0 0 0 0 0 0 0 0 0 0 0 0 0 0 0 0 0 0 0 0 0 0 0 0 0 0 0 0 0 0 0 0 0 0 0 0 0 0 0 0 0 0 0 0 0 0 0 0 0 0 0 0 0 0 0 0 0 0 0 0 0 0 0 0 0 0 0 0 0 0 0 0 0 0 0 0 0 0 0 0 0 0 0 0 0 0 0 0 0 0 0 0 0 0 0 0 0 0 0 0 0 0 0 0 0 0 0 0 0 0 0 0 0 0 0 0 0 0 0 0 0 0 0 0 0 0 0 0 0 0 0 0 0 0 0 0 0 0 0 0 0 0 0 0 0 0 0 0 0 0 0 0 0 0 0 0 0 0 0 0 0 0 0 0 0 0 0 0 0 0 0 0 0 0 0 0 0 0 0 0 0 0 0 0 0 0 0 0 0 0 0 0 0 0 0 0 0 0 0 0 0 0 0 0 0 0 0 0 0 0 0 0 0 0 0 0 0 0 0
0 0 0 0 0 0 0 0 0 0 0 0 0 0 0 0 0 0 0 0 0 0 0 0 0 0 0 0 0 0 0 0 0 0 0 0 0 0 0 0 0 0 0 0 0 0 0 0 0 0 0 0 0 0 0 0 0 0 0 0 0 0 0 0 0 0 0 0 0 0 0 0 0 0 0 0 0 0 0 0 0 0 0 0 0 0 0 0 0 0 0 0 0 0 0 0 0 0 0 0 0 0 0 0 0 0 0 0 0 0 0 0 0 0 0 0 0 0 0 0 0 0 0 0 0 0 0 0 0 0 0 0 0 0 0 0 0 0 0 0 0 0 0 0 0 0 0 0 0 0 0 0 0 0 0 0 0 0 0 0 0 0 0 0 0 0 0 0 0 0 0 0 0 0 0 0 0 0 0 0 0 0 0 0 0 0 0 0 0 0 0 0 0 0 0 0 0 0 0 0 0 0 0 0 0 0 0 0 0 0 0 0 0 0 0 0 0 0 0 0 0 0 0 0 0 0 0 0 0 0 0 0 0 0 0 0 0 0 0 0 0 0 0 0 0 0 0 0 0 0 0 0 0 0 0 0 0 0 0 0 0 0 0 0 0 0 0 0 0 0 0 0 0 0 0 0 0 0 0 0 0 0 0 0 0 0 0 0 0 0 0 0 0 0 0 0 0 0 0 0 0 0 0 0 0 0 0 0 0 0 0 0 0 0 0 0 0 0 0 0 0 0 0 0 0 0 0 0 0 0 0 0 0 0 0 0 0 0 0 0 0 0 0 0 0 0 0 0 0 0 0 0 0 0 0 0 0 0 0 0 0 0 0 0 0 0 0 0 0 0 0 0 0 0 0 0 0 0 0 0 0 0 0 0
0 0 0 0 0 0 0 0 0 0 0 0 0 0 0 0 0 0 0 0 0 0 0 0 0 0 0 0 0 0 0 0 0 0 0 0 0 0 0 0 0 0 0 0 0 0 0 0 0 0 0 0 0 0 0 0 0 0 0 0 0 0 0 0 0 0 0 0 0 0 0 0 0 0 0 0 0 0 0 0 0 0 0 0 0 0 0 0 0 0 0 0 0 0 0 0 0 0 0 0 0 0 0 0 0 0 0 0 0 0 0 0 0 0 0 0 0 0 0 0 0 0 0 0 0 0 0 0 0 0 0 0 0 0 0 0 0 0 0 0 0 0 0 0 0 0 0 0 0 0 0 0 0 0 0 0 0 0 0 0 0 0 0 0 0 0 0 0 0 0 0 0 0 0 0 0 0 0 0 0 0 0 0 0 0 0 0 0 0 0 0 0 0 0 0 0 0 0 0 0 0 0 0 0 0 0 0 0 0 0 0 0 0 0 0 0 0 0 0 0 0 0 0 0 0 0 0 0 0 0 0 0 0 0 0 0 0 0 0 0 0 0 0 0 0 0 0 0 0 0 0 0 0 0 0 0 0 0 0 0 0 0 0 0 0 0 0 0 0 0 0 0 0 0 0 0 0 0 0 0 0 0 0 0 0 0 0 0 0 0 0 0 0 0 0 0 0 0 0 0 0 0 0 0 0 0 0 0 0 0 0 0 0 0 0 0 0 0 0 0 0 0 0 0 0 0 0 0 0 0 0 0 0 0 0 0 0 0 0 0 0 0 0 0 0 0 0 0 0 0 0 0 0 0 0 0 0 0 0 0 0 0 0 0 0 0 0 0 0 0 0 0 0 0 0 0 0 0 0 0 0 0 0 0
0 0 0 0 0 0 0 0 0 0 0 0 0 0 0 0 0 0 0 0 0 0 0 0 0 0 0 0 0 0 0 0 0 0 0 0 0 0 0 0 0 0 0 0 0 0 0 0 0 0 0 0 0 0 0 0 0 0 0 0 0 0 0 0 0 0 0 0 0 0 0 0 0 0 0 0 0 0 0 0 0 0 0 0 0 0 0 0 0 0 0 0 0 0 0 0 0 0 0 0 0 0 0 0 0 0 0 0 0 0 0 0 0 0 0 0 0 0 0 0 0 0 0 0 0 0 0 0 0 0 0 0 0 0 0 0 0 0 0 0 0 0 0 0 0 0 0 0 0 0 0 0 0 0 0 0 0 0 0 0 0 0 0 0 0 0 0 0 0 0 0 0 0 0 0 0 0 0 0 0 0 0 0 0 0 0 0 0 0 0 0 0 0 0 0 0 0 0 0 0 0 0 0 0 0 0 0 0 0 0 0 0 0 0 0 0 0 0 0 0 0 0 0 0 0 0 0 0 0 0 0 0 0 0 0 0 0 0 0 0 0 0 0 0 0 0 0 0 0 0 0 0 0 0 0 0 0 0 0 0 0 0 0 0 0 0 0 0 0 0 0 0 0 0 0 0 0 0 0 0 0 0 0 0 0 0 0 0 0 0 0 0 0 0 0 0 0 0 0 0 0 0 0 0 0 0 0 0 0 0 0 0 0 0 0 0 0 0 0 0 0 0 0 0 0 0 0 0 0 0 0 0 0 0 0 0 0 0 0 0 0 0 0 0 0 0 0 0 0 0 0 0 0 0 0 0 0 0 0 0 0 0 0 0 0 0 0 0 0 0 0 0 0 0 0 0 0 0 0 0 0 0 0 0
0 0 0 0 0 0 0 0 0 0 0 0 0 0 0 0 0 0 0 0 0 0 0 0 0 0 0 0 0 0 0 0 0 0 0 0 0 0 0 0 0 0 0 0 0 0 0 0 0 0 0 0 0 0 0 0 0 0 0 0 0 0 0 0 0 0 0 0 0 0 0 0 0 0 0 0 0 0 0 0 0 0 0 0 0 0 0 0 0 0 0 0 0 0 0 0 0 0 0 0 0 0 0 0 0 0 0 0 0 0 0 0 0 0 0 0 0 0 0 0 0 0 0 0 0 0 0 0 0 0 0 0 0 0 0 0 0 0 0 0 0 0 0 0 0 0 0 0 0 0 0 0 0 0 0 0 0 0 0 0 0 0 0 0 0 0 0 0 0 0 0 0 0 0 0 0 0 0 0 0 0 0 0 0 0 0 0 0 0 0 0 0 0 0 0 0 0 0 0 0 0 0 0 0 0 0 0 0 0 0 0 0 0 0 0 0 0 0 0 0 0 0 0 0 0 0 0 0 0 0 0 0 0 0 0 0 0 0 0 0 0 0 0 0 0 0 0 0 0 0 0 0 0 0 0 0 0 0 0 0 0 0 0 0 0 0 0 0 0 0 0 0 0 0 0 0 0 0 0 0 0 0 0 0 0 0 0 0 0 0 0 0 0 0 0 0 0 0 0 0 0 0 0 0 0 0 0 0 0 0 0 0 0 0 0 0 0 0 0 0 0 0 0 0 0 0 0 0 0 0 0 0 0 0 0 0 0 0 0 0 0 0 0 0 0 0 0 0 0 0 0 0 0 0 0 0 0 0 0 0 0 0 0 0 0 0 0 0 0 0 0 0 0 0 0 0 0 0 0 0 0 0 0 0
0 0 0 0 0 0 0 0 0 0 0 0 0 0 0 0 0 0 0 0 0 0 0 0 0 0 0 0 0 0 0 0 0 0 0 0 0 0 0 0 0 0 0 0 0 0 0 0 0 0 0 0 0 0 0 0 0 0 0 0 0 0 0 0 0 0 0 0 0 0 0 0 0 0 0 0 0 0 0 0 0 0 0 0 0 0 0 0 0 0 0 0 0 0 0 0 0 0 0 0 0 0 0 0 0 0 0 0 0 0 0 0 0 0 0 0 0 0 0 0 0 0 0 0 0 0 0 0 0 0 0 0 0 0 0 0 0 0 0 0 0 0 0 0 0 0 0 0 0 0 0 0 0 0 0 0 0 0 0 0 0 0 0 0 0 0 0 0 0 0 0 0 0 0 0 0 0 0 0 0 0 0 0 0 0 0 0 0 0 0 0 0 0 0 0 0 0 0 0 0 0 0 0 0 0 0 0 0 0 0 0 0 0 0 0 0 0 0 0 0 0 0 0 0 0 0 0 0 0 0 0 0 0 0 0 0 0 0 0 0 0 0 0 0 0 0 0 0 0 0 0 0 0 0 0 0 0 0 0 0 0 0 0 0 0 0 0 0 0 0 0 0 0 0 0 0 0 0 0 0 0 0 0 0 0 0 0 0 0 0 0 0 0 0 0 0 0 0 0 0 0 0 0 0 0 0 0 0 0 0 0 0 0 0 0 0 0 0 0 0 0 0 0 0 0 0 0 0 0 0 0 0 0 0 0 0 0 0 0 0 0 0 0 0 0 0 0 0 0 0 0 0 0 0 0 0 0 0 0 0 0 0 0 0 0 0 0 0 0 0 0 0 0 0 0 0 0 0 0 0 0 0 0 0
0 0 0 0 0 0 0 0 0 0 0 0 0 0 0 0 0 0 0 0 0 0 0 0 0 0 0 0 0 0 0 0 0 0 0 0 0 0 0 0 0 0 0 0 0 0 0 0 0 0 0 0 0 0 0 0 0 0 0 0 0 0 0 0 0 0 0 0 0 0 0 0 0 0 0 0 0 0 0 0 0 0 0 0 0 0 0 0 0 0 0 0 0 0 0 0 0 0 0 0 0 0 0 0 0 0 0 0 0 0 0 0 0 0 0 0 0 0 0 0 0 0 0 0 0 0 0 0 0 0 0 0 0 0 0 0 0 0 0 0 0 0 0 0 0 0 0 0 0 0 0 0 0 0 0 0 0 0 0 0 0 0 0 0 0 0 0 0 0 0 0 0 0 0 0 0 0 0 0 0 0 0 0 0 0 0 0 0 0 0 0 0 0 0 0 0 0 0 0 0 0 0 0 0 0 0 0 0 0 0 0 0 0 0 0 0 0 0 0 0 0 0 0 0 0 0 0 0 0 0 0 0 0 0 0 0 0 0 0 0 0 0 0 0 0 0 0 0 0 0 0 0 0 0 0 0 0 0 0 0 0 0 0 0 0 0 0 0 0 0 0 0 0 0 0 0 0 0 0 0 0 0 0 0 0 0 0 0 0 0 0 0 0 0 0 0 0 0 0 0 0 0 0 0 0 0 0 0 0 0 0 0 0 0 0 0 0 0 0 0 0 0 0 0 0 0 0 0 0 0 0 0 0 0 0 0 0 0 0 0 0 0 0 0 0 0 0 0 0 0 0 0 0 0 0 0 0 0 0 0 0 0 0 0 0 0 0 0 0 0 0 0 0 0 0 0 0 0 0 0 0 0 0 0
0 0 0 0 0 0 0 0 0 0 0 0 0 0 0 0 0 0 0 0 0 0 0 0 0 0 0 0 0 0 0 0 0 0 0 0 0 0 0 0 0 0 0 0 0 0 0 0 0 0 0 0 0 0 0 0 0 0 0 0 0 0 0 0 0 0 0 0 0 0 0 0 0 0 0 0 0 0 0 0 0 0 0 0 0 0 0 0 0 0 0 0 0 0 0 0 0 0 0 0 0 0 0 0 0 0 0 0 0 0 0 0 0 0 0 0 0 0 0 0 0 0 0 0 0 0 0 0 0 0 0 0 0 0 0 0 0 0 0 0 0 0 0 0 0 0 0 0 0 0 0 0 0 0 0 0 0 0 0 0 0 0 0 0 0 0 0 0 0 0 0 0 0 0 0 0 0 0 0 0 0 0 0 0 0 0 0 0 0 0 0 0 0 0 0 0 0 0 0 0 0 0 0 0 0 0 0 0 0 0 0 0 0 0 0 0 0 0 0 0 0 0 0 0 0 0 0 0 0 0 0 0 0 0 0 0 0 0 0 0 0 0 0 0 0 0 0 0 0 0 0 0 0 0 0 0 0 0 0 0 0 0 0 0 0 0 0 0 0 0 0 0 0 0 0 0 0 0 0 0 0 0 0 0 0 0 0 0 0 0 0 0 0 0 0 0 0 0 0 0 0 0 0 0 0 0 0 0 0 0 0 0 0 0 0 0 0 0 0 0 0 0 0 0 0 0 0 0 0 0 0 0 0 0 0 0 0 0 0 0 0 0 0 0 0 0 0 0 0 0 0 0 0 0 0 0 0 0 0 0 0 0 0 0 0 0 0 0 0 0 0 0 0 0 0 0 0 0 0 0 0 0 0 0
0 0 0 0 0 0 0 0 0 0 0 0 0 0 0 0 0 0 0 0 0 0 0 0 0 0 0 0 0 0 0 0 0 0 0 0 0 0 0 0 0 0 0 0 0 0 0 0 0 0 0 0 0 0 0 0 0 0 0 0 0 0 0 0 0 0 0 0 0 0 0 0 0 0 0 0 0 0 0 0 0 0 0 0 0 0 0 0 0 0 0 0 0 0 0 0 0 0 0 0 0 0 0 0 0 0 0 0 0 0 0 0 0 0 0 0 0 0 0 0 0 0 0 0 0 0 0 0 0 0 0 0 0 0 0 0 0 0 0 0 0 0 0 0 0 0 0 0 0 0 0 0 0 0 0 0 0 0 0 0 0 0 0 0 0 0 0 0 0 0 0 0 0 0 0 0 0 0 0 0 0 0 0 0 0 0 0 0 0 0 0 0 0 0 0 0 0 0 0 0 0 0 0 0 0 0 0 0 0 0 0 0 0 0 0 0 0 0 0 0 0 0 0 0 0 0 0 0 0 0 0 0 0 0 0 0 0 0 0 0 0 0 0 0 0 0 0 0 0 0 0 0 0 0 0 0 0 0 0 0 0 0 0 0 0 0 0 0 0 0 0 0 0 0 0 0 0 0 0 0 0 0 0 0 0 0 0 0 0 0 0 0 0 0 0 0 0 0 0 0 0 0 0 0 0 0 0 0 0 0 0 0 0 0 0 0 0 0 0 0 0 0 0 0 0 0 0 0 0 0 0 0 0 0 0 0 0 0 0 0 0 0 0 0 0 0 0 0 0 0 0 0 0 0 0 0 0 0 0 0 0 0 0 0 0 0 0 0 0 0 0 0 0 0 0 0 0 0 0 0 0 0 0 0
0 0 0 0 0 0 0 0 0 0 0 0 0 0 0 0 0 0 0 0 0 0 0 0 0 0 0 0 0 0 0 0 0 0 0 0 0 0 0 0 0 0 0 0 0 0 0 0 0 0 0 0 0 0 0 0 0 0 0 0 0 0 0 0 0 0 0 0 0 0 0 0 0 0 0 0 0 0 0 0 0 0 0 0 0 0 0 0 0 0 0 0 0 0 0 0 0 0 0 0 0 0 0 0 0 0 0 0 0 0 0 0 0 0 0 0 0 0 0 0 0 0 0 0 0 0 0 0 0 0 0 0 0 0 0 0 0 0 0 0 0 0 0 0 0 0 0 0 0 0 0 0 0 0 0 0 0 0 0 0 0 0 0 0 0 0 0 0 0 0 0 0 0 0 0 0 0 0 0 0 0 0 0 0 0 0 0 0 0 0 0 0 0 0 0 0 0 0 0 0 0 0 0 0 0 0 0 0 0 0 0 0 0 0 0 0 0 0 0 0 0 0 0 0 0 0 0 0 0 0 0 0 0 0 0 0 0 0 0 0 0 0 0 0 0 0 0 0 0 0 0 0 0 0 0 0 0 0 0 0 0 0 0 0 0 0 0 0 0 0 0 0 0 0 0 0 0 0 0 0 0 0 0 0 0 0 0 0 0 0 0 0 0 0 0 0 0 0 0 0 0 0 0 0 0 0 0 0 0 0 0 0 0 0 0 0 0 0 0 0 0 0 0 0 0 0 0 0 0 0 0 0 0 0 0 0 0 0 0 0 0 0 0 0 0 0 0 0 0 0 0 0 0 0 0 0 0 0 0 0 0 0 0 0 0 0 0 0 0 0 0 0 0 0 0 0 0 0 0 0 0 0 0 0
0 0 0 0 0 0 0 0 0 0 0 0 0 0 0 0 0 0 0 0 0 0 0 0 0 0 0 0 0 0 0 0 0 0 0 0 0 0 0 0 0 0 0 0 0 0 0 0 0 0 0 0 0 0 0 0 0 0 0 0 0 0 0 0 0 0 0 0 0 0 0 0 0 0 0 0 0 0 0 0 0 0 0 0 0 0 0 0 0 0 0 0 0 0 0 0 0 0 0 0 0 0 0 0 0 0 0 0 0 0 0 0 0 0 0 0 0 0 0 0 0 0 0 0 0 0 0 0 0 0 0 0 0 0 0 0 0 0 0 0 0 0 0 0 0 0 0 0 0 0 0 0 0 0 0 0 0 0 0 0 0 0 0 0 0 0 0 0 0 0 0 0 0 0 0 0 0 0 0 0 0 0 0 0 0 0 0 0 0 0 0 0 0 0 0 0 0 0 0 0 0 0 0 0 0 0 0 0 0 0 0 0 0 0 0 0 0 0 0 0 0 0 0 0 0 0 0 0 0 0 0 0 0 0 0 0 0 0 0 0 0 0 0 0 0 0 0 0 0 0 0 0 0 0 0 0 0 0 0 0 0 0 0 0 0 0 0 0 0 0 0 0 0 0 0 0 0 0 0 0 0 0 0 0 0 0 0 0 0 0 0 0 0 0 0 0 0 0 0 0 0 0 0 0 0 0 0 0 0 0 0 0 0 0 0 0 0 0 0 0 0 0 0 0 0 0 0 0 0 0 0 0 0 0 0 0 0 0 0 0 0 0 0 0 0 0 0 0 0 0 0 0 0 0 0 0 0 0 0 0 0 0 0 0 0 0 0 0 0 0 0 0 0 0 0 0 0 0 0 0 0 0 0 0
0 0 0 0 0 0 0 0 0 0 0 0 0 0 0 0 0 0 0 0 0 0 0 0 0 0 0 0 0 0 0 0 0 0 0 0 0 0 0 0 0 0 0 0 0 0 0 0 0 0 0 0 0 0 0 0 0 0 0 0 0 0 0 0 0 0 0 0 0 0 0 0 0 0 0 0 0 0 0 0 0 0 0 0 0 0 0 0 0 0 0 0 0 0 0 0 0 0 0 0 0 0 0 0 0 0 0 0 0 0 0 0 0 0 0 0 0 0 0 0 0 0 0 0 0 0 0 0 0 0 0 0 0 0 0 0 0 0 0 0 0 0 0 0 0 0 0 0 0 0 0 0 0 0 0 0 0 0 0 0 0 0 0 0 0 0 0 0 0 0 0 0 0 0 0 0 0 0 0 0 0 0 0 0 0 0 0 0 0 0 0 0 0 0 0 0 0 0 0 0 0 0 0 0 0 0 0 0 0 0 0 0 0 0 0 0 0 0 0 0 0 0 0 0 0 0 0 0 0 0 0 0 0 0 0 0 0 0 0 0 0 0 0 0 0 0 0 0 0 0 0 0 0 0 0 0 0 0 0 0 0 0 0 0 0 0 0 0 0 0 0 0 0 0 0 0 0 0 0 0 0 0 0 0 0 0 0 0 0 0 0 0 0 0 0 0 0 0 0 0 0 0 0 0 0 0 0 0 0 0 0 0 0 0 0 0 0 0 0 0 0 0 0 0 0 0 0 0 0 0 0 0 0 0 0 0 0 0 0 0 0 0 0 0 0 0 0 0 0 0 0 0 0 0 0 0 0 0 0 0 0 0 0 0 0 0 0 0 0 0 0 0 0 0 0 0 0 0 0 0 0 0 0 0
0 0 0 0 0 0 0 0 0 0 0 0 0 0 0 0 0 0 0 0 0 0 0 0 0 0 0 0 0 0 0 0 0 0 0 0 0 0 0 0 0 0 0 0 0 0 0 0 0 0 0 0 0 0 0 0 0 0 0 0 0 0 0 0 0 0 0 0 0 0 0 0 0 0 0 0 0 0 0 0 0 0 0 0 0 0 0 0 0 0 0 0 0 0 0 0 0 0 0 0 0 0 0 0 0 0 0 0 0 0 0 0 0 0 0 0 0 0 0 0 0 0 0 0 0 0 0 0 0 0 0 0 0 0 0 0 0 0 0 0 0 0 0 0 0 0 0 0 0 0 0 0 0 0 0 0 0 0 0 0 0 0 0 0 0 0 0 0 0 0 0 0 0 0 0 0 0 0 0 0 0 0 0 0 0 0 0 0 0 0 0 0 0 0 0 0 0 0 0 0 0 0 0 0 0 0 0 0 0 0 0 0 0 0 0 0 0 0 0 0 0 0 0 0 0 0 0 0 0 0 0 0 0 0 0 0 0 0 0 0 0 0 0 0 0 0 0 0 0 0 0 0 0 0 0 0 0 0 0 0 0 0 0 0 0 0 0 0 0 0 0 0 0 0 0 0 0 0 0 0 0 0 0 0 0 0 0 0 0 0 0 0 0 0 0 0 0 0 0 0 0 0 0 0 0 0 0 0 0 0 0 0 0 0 0 0 0 0 0 0 0 0 0 0 0 0 0 0 0 0 0 0 0 0 0 0 0 0 0 0 0 0 0 0 0 0 0 0 0 0 0 0 0 0 0 0 0 0 0 0 0 0 0 0 0 0 0 0 0 0 0 0 0 0 0 0 0 0 0 0 0 0 0 0
0 0 0 0 0 0 0 0 0 0 0 0 0 0 0 0 0 0 0 0 0 0 0 0 0 0 0 0 0 0 0 0 0 0 0 0 0 0 0 0 0 0 0 0 0 0 0 0 0 0 0 0 0 0 0 0 0 0 0 0 0 0 0 0 0 0 0 0 0 0 0 0 0 0 0 0 0 0 0 0 0 0 0 0 0 0 0 0 0 0 0 0 0 0 0 0 0 0 0 0 0 0 0 0 0 0 0 0 0 0 0 0 0 0 0 0 0 0 0 0 0 0 0 0 0 0 0 0 0 0 0 0 0 0 0 0 0 0 0 0 0 0 0 0 0 0 0 0 0 0 0 0 0 0 0 0 0 0 0 0 0 0 0 0 0 0 0 0 0 0 0 0 0 0 0 0 0 0 0 0 0 0 0 0 0 0 0 0 0 0 0 0 0 0 0 0 0 0 0 0 0 0 0 0 0 0 0 0 0 0 0 0 0 0 0 0 0 0 0 0 0 0 0 0 0 0 0 0 0 0 0 0 0 0 0 0 0 0 0 0 0 0 0 0 0 0 0 0 0 0 0 0 0 0 0 0 0 0 0 0 0 0 0 0 0 0 0 0 0 0 0 0 0 0 0 0 0 0 0 0 0 0 0 0 0 0 0 0 0 0 0 0 0 0 0 0 0 0 0 0 0 0 0 0 0 0 0 0 0 0 0 0 0 0 0 0 0 0 0 0 0 0 0 0 0 0 0 0 0 0 0 0 0 0 0 0 0 0 0 0 0 0 0 0 0 0 0 0 0 0 0 0 0 0 0 0 0 0 0 0 0 0 0 0 0 0 0 0 0 0 0 0 0 0 0 0 0 0 0 0 0 0 0 0
0 0 0 0 0 0 0 0 0 0 0 0 0 0 0 0 0 0 0 0 0 0 0 0 0 0 0 0 0 0 0 0 0 0 0 0 0 0 0 0 0 0 0 0 0 0 0 0 0 0 0 0 0 0 0 0 0 0 0 0 0 0 0 0 0 0 154 62 74 154 62 74 154 62 74 154 62 74 154 62 74 154 62 74 154 62 74 154 62 74 154 62 74 154 62 74 154 62 74 154 62 74 154 62 74 154 62 74 154 62 74 154 62 74 154 62 74 154 62 74 154 62 74 154 62 74 154 62 74 154 62 74 154 62 74 154 62 74 154 62 74 154 62 74 154 62 74 154 62 74 154 62 74 154 62 74 154 62 74 154 62 74 154 62 74 154 62 74 154 62 74 154 62 74 154 62 74 154 62 74 154 62 74 154 62 74 154 62 74 154 62 74 154 62 74 154 62 74 154 62 74 154 62 74 154 62 74 154 62 74 154 62 74 154 62 74 154 62 74 154 62 74 154 62 74 154 62 74 154 62 74 154 62 74 154 62 74 154 62 74 154 62 74 154 62 74 154 62 74 154 62 74 154 62 74 154 62 74 154 62 74 154 62 74 154 62 74 154 62 74 154 62 74 154 62 74 154 62 74 154 62 74 154 62 74 154 62 74 154 62 74 154 62 74 154 62 74 154 62 74 154 62 74 154 62 74 154 62 74 154 62 74 154 62 74 154 62 74 0 0 0 0 0 0 0 0 0 0 0 0 0 0 0 0 0 0 0 0 0 0 0 0 0 0 0 0 0 0 0 0 0 0 0 0 0 0 0 0 0 0 0 0 0 0 0 0 0 0 0 0 0 0 0 0 0 0 0 0 0 0 0 0 0 0
0 0 0 0 0 0 0 0 0 0 0 0 0 0 0 0 0 0 0 0 0 0 0 0 0 0 0 0 0 0 0 0 0 0 0 0 0 0 0 0 0 0 0 0 0 0 0 0 0 0 0 0 0 0 0 0 0 0 0 0 0 0 0 0 0 0 154 62 74 154 62 74 154 62 74 154 62 74 154 62 74 154 62 74 154 62 74 154 62 74 154 62 74 154 62 74 154 62 74 154 62 74 154 62 74 154 62 74 154 62 74 154 62 74 154 62 74 154 62 74 154 62 74 154 62 74 154 62 74 154 62 74 154 62 74 154 62 74 154 62 74 154 62 74 154 62 74 154 62 74 154 62 74 154 62 74 154 62 74 154 62 74 154 62 74 154 62 74 154 62 74 154 62 74 154 62 74 154 62 74 154 62 74 154 62 74 154 62 74 154 62 74 154 62 74 154 62 74 154 62 74 154 62 74 154 62 74 154 62 74 154 62 74 154 62 74 154 62 74 154 62 74 154 62 74 154 62 74 154 62 74 154 62 74 154 62 74 154 62 74 154 62 74 154 62 74 154 62 74 154 62 74 154 62 74 154 62 74 154 62 74 154 62 74 154 62 74 154 62 74 154 62 74 154 62 74 154 62 74 154 62 74 154 62 74 154 62 74 154 62 74 154 62 74 154 62 74 154 62 74 154 62 74 154 62 74 154 62 74 154 62 74 154 62 74 154 62 74 0 0 0 0 0 0 0 0 0 0 0 0 0 0 0 0 0 0 0 0 0 0 0 0 0 0 0 0 0 0 0 0 0 0 0 0 0 0 0 0 0 0 0 0 0 0 0 0 0 0 0 0 0 0 0 0 0 0 0 0 0 0 0 0 0 0
0 0 0 0 0 0 0 0 0 0 0 0 0 0 0 0 0 0 0 0 0 0 0 0 0 0 0 0 0 0 0 0 0 0 0 0 0 0 0 0 0 0 0 0 0 0 0 0 0 0 0 0 0 0 0 0 0 0 0 0 0 0 0 0 0 0 154 62 74 154 62 74 154 62 74 154 62 74 154 62 74 154 62 74 154 62 74 154 62 74 154 62 74 154 62 74 154 62 74 154 62 74 154 62 74 154 62 74 154 62 74 154 62 74 154 62 74 154 62 74 154 62 74 154 62 74 154 62 74 154 62 74 154 62 74 154 62 74 154 62 74 154 62 74 154 62 74 154 62 74 154 62 74 154 62 74 154 62 74 154 62 74 154 62 74 154 62 74 154 62 74 154 62 74 154 62 74 154 62 74 154 62 74 154 62 74 154 62 74 154 62 74 154 62 74 154 62 74 154 62 74 154 62 74 154 62 74 154 62 74 154 62 74 154 62 74 154 62 74 154 62 74 154 62 74 154 62 74 154 62 74 154 62 74 154 62 74 154 62 74 154 62 74 154 62 74 154 62 74 154 62 74 154 62 74 154 62 74 154 62 74 154 62 74 154 62 74 154 62 74 154 62 74 154 62 74 154 62 74 154 62 74 154 62 74 154 62 74 154 62 74 154 62 74 154 62 74 154 62 74 154 62 74 154 62 74 154 62 74 154 62 74 154 62 74 154 62 74 0 0 0 0 0 0 0 0 0 0 0 0 0 0 0 0 0 0 0 0 0 0 0 0 0 0 0 0 0 0 0 0 0 0 0 0 0 0 0 0 0 0 0 0 0 0 0 0 0 0 0 0 0 0 0 0 0 0 0 0 0 0 0 0 0 0
0 0 0 0 0 0 0 0 0 0 0 0 0 0 0 0 0 0 0 0 0 0 0 0 0 0 0 0 0 0 0 0 0 0 0 0 0 0 0 0 0 0 0 0 0 0 0 0 0 0 0 0 0 0 0 0 0 0 0 0 0 0 0 0 0 0 154 62 74 154 62 74 154 62 74 154 62 74 154 62 74 154 62 74 154 62 74 154 62 74 154 62 74 154 62 74 154 62 74 154 62 74 154 62 74 154 62 74 154 62 74 154 62 74 154 62 74 154 62 74 154 62 74 154 62 74 154 62 74 154 62 74 154 62 74 154 62 74 154 62 74 154 62 74 154 62 74 154 62 74 154 62 74 154 62 74 154 62 74 154 62 74 154 62 74 154 62 74 154 62 74 154 62 74 154 62 74 154 62 74 154 62 74 154 62 74 154 62 74 154 62 74 154 62 74 154 62 74 154 62 74 154 62 74 154 62 74 154 62 74 154 62 74 154 62 74 154 62 74 154 62 74 154 62 74 154 62 74 154 62 74 154 62 74 154 62 74 154 62 74 154 62 74 154 62 74 154 62 74 154 62 74 154 62 74 154 62 74 154 62 74 154 62 74 154 62 74 154 62 74 154 62 74 154 62 74 154 62 74 154 62 74 154 62 74 154 62 74 154 62 74 154 62 74 154 62 74 154 62 74 154 62 74 154 62 74 154 62 74 154 62 74 154 62 74 154 62 74 0 0 0 0 0 0 0 0 0 0 0 0 0 0 0 0 0 0 0 0 0 0 0 0 0 0 0 0 0 0 0 0 0 0 0 0 0 0 0 0 0 0 0 0 0 0 0 0 0 0 0 0 0 0 0 0 0 0 0 0 0 0 0 0 0 0
0 0 0 0 0 0 0 0 0 0 0 0 0 0 0 0 0 0 0 0 0 0 0 0 0 0 0 0 0 0 0 0 0 0 0 0 0 0 0 0 0 0 0 0 0 0 0 0 0 0 0 0 0 0 0 0 0 0 0 0 0 0 0 0 0 0 154 62 74 154 62 74 154 62 74 154 62 74 154 62 74 154 62 74 154 62 74 154 62 74 154 62 74 154 62 74 154 62 74 154 62 74 154 62 74 154 62 74 154 62 74 154 62 74 154 62 74 154 62 74 154 62 74 154 62 74 154 62 74 154 62 74 154 62 74 154 62 74 154 62 74 154 62 74 154 62 74 154 62 74 154 62 74 154 62 74 154 62 74 154 62 74 154 62 74 154 62 74 154 62 74 154 62 74 154 62 74 154 62 74 154 62 74 154 62 74 154 62 74 154 62 74 154 62 74 154 62 74 154 62 74 154 62 74 154 62 74 154 62 74 154 62 74 154 62 74 154 62 74 154 62 74 154 62 74 154 62 74 154 62 74 154 62 74 154 62 74 154 62 74 154 62 74 154 62 74 154 62 74 154 62 74 154 62 74 154 62 74 154 62 74 154 62 74 154 62 74 154 62 74 154 62 74 154 62 74 154 62 74 154 62 74 154 62 74 154 62 74 154 62 74 154 62 74 154 62 74 154 62 74 154 62 74 154 62 74 154 62 74 154 62 74 154 62 74 154 62 74 0 0 0 0 0 0 0 0 0 0 0 0 0 0 0 0 0 0 0 0 0 0 0 0 0 0 0 0 0 0 0 0 0 0 0 0 0 0 0 0 0 0 0 0 0 0 0 0 0 0 0 0 0 0 0 0 0 0 0 0 0 0 0 0 0 0
0 0 0 0 0 0 0 0 0 0 0 0 0 0 0 0 0 0 0 0 0 0 0 0 0 0 0 0 0 0 0 0 0 0 0 0 0 0 0 0 0 0 0 0 0 0 0 0 0 0 0 0 0 0 0 0 0 0 0 0 0 0 0 0 0 0 0 0 0 0 0 0 0 0 0 0 0 0 0 0 0 0 0 0 0 0 0 0 0 0 0 0 0 0 0 0 0 0 0 0 0 0 0 0 0 0 0 0 0 0 0 0 0 0 0 0 0 0 0 0 0 0 0 0 0 0 0 0 0 0 0 0 0 0 0 0 0 0 0 0 0 0 0 0 0 0 0 0 0 0 0 0 0 0 0 0 0 0 0 0 0 0 0 0 0 0 0 0 0 0 0 0 0 0 0 0 0 0 0 0 0 0 0 0 0 0 0 0 0 0 0 0 173 179 184 0 0 0 0 0 0 0 0 0 0 0 0 0 0 0 0 0 0 0 0 0 0 0 0 0 0 0 0 0 0 0 0 0 0 0 0 0 0 0 0 0 0 0 0 0 0 0 0 0 0 0 0 0 0 0 0 0 0 0 0 0 0 0 0 0 0 0 0 0 0 0 0 0 0 0 0 0 0 0 0 0 0 0 0 0 0 0 0 0 0 0 0 0 0 0 0 0 0 0 0 0 0 0 0 0 0 0 0 0 0 0 0 0 0 0 0 0 0 0 0 0 0 0 0 0 0 0 0 0 0 0 0 0 0 0 0 0 0 0 0 0 0 0 0 0 0 0 0 0 0 0 0 0 0 0 0 0 0 0 0 0 0 0 0 0 0 0 0 0 0 0 0 0 0 0 0 0 0 0 0 0 0 0 0 0 0 0 0 0
0 0 0 0 0 0 0 0 0 0 0 0 0 0 0 0 0 0 0 0 0 0 0 0 0 0 0 0 0 0 0 0 0 0 0 0 0 0 0 0 0 0 0 0 0 0 0 0 0 0 0 0 0 0 0 0 0 0 0 0 0 0 0 0 0 0 0 0 0 0 0 0 0 0 0 0 0 0 0 0 0 0 0 0 0 0 0 0 0 0 0 0 0 0 0 0 0 0 0 0 0 0 0 0 0 0 0 0 0 0 0 0 0 0 0 0 0 0 0 0 0 0 0 0 0 0 0 0 0 0 0 0 0 0 0 0 0 0 0 0 0 0 0 0 0 0 0 0 0 0 0 0 0 0 0 0 0 0 0 0 0 0 0 0 0 0 0 0 0 0 0 0 0 0 0 0 0 0 0 0 0 0 0 91 96 100 171 177 182 171 177 182 171 177 182 171 177 182 171 177 182 91 96 100 0 0 0 0 0 0 0 0 0 0 0 0 0 0 0 0 0 0 0 0 0 0 0 0 0 0 0 0 0 0 0 0 0 0 0 0 0 0 0 0 0 0 0 0 0 0 0 0 0 0 0 0 0 0 0 0 0 0 0 0 0 0 0 0 0 0 0 0 0 0 0 0 0 0 0 0 0 0 0 0 0 0 0 0 0 0 0 0 0 0 0 0 0 0 0 0 0 0 0 0 0 0 0 0 0 0 0 0 0 0 0 0 0 0 0 0 0 0 0 0 0 0 0 0 0 0 0 0 0 0 0 0 0 0 0 0 0 0 0 0 0 0 0 0 0 0 0 0 0 0 0 0 0 0 0 0 0 0 0 0 0 0 0 0 0 0 0 0 0 0 0 0 0 0 0 0 0 0 0 0
0 0 0 0 0 0 0 0 0 0 0 0 0 0 0 0 0 0 0 0 0 0 0 0 0 0 0 0 0 0 0 0 0 0 0 0 0 0 0 0 0 0 0 0 0 0 0 0 0 0 0 0 0 0 0 0 0 0 0 0 0 0 0 0 0 0 0 0 0 0 0 0 0 0 0 0 0 0 0 0 0 0 0 0 0 0 0 0 0 0 0 0 0 0 0 0 0 0 0 0 0 0 0 0 0 0 0 0 0 0 0 0 0 0 0 0 0 0 0 0 0 0 0 0 0 0 0 0 0 0 0 0 0 0 0 0 0 0 0 0 0 0 0 0 0 0 0 0 0 0 0 0 0 0 0 0 0 0 0 0 0 0 0 0 0 0 0 0 0 0 0 0 0 0 91 96 100 169 175 180 169 175 180 169 175 180 169 175 180 169 175 180 169 175 180 169 175 180 169 175 180 169 175 180 169 175 180 169 175 180 91 96 100 0 0 0 0 0 0 0 0 0 0 0 0 0 0 0 0 0 0 0 0 0 0 0 0 0 0 0 0 0 0 0 0 0 0 0 0 0 0 0 0 0 0 0 0 0 0 0 0 0 0 0 0 0 0 0 0 0 0 0 0 0 0 0 0 0 0 0 0 0 0 0 0 0 0 0 0 0 0 0 0 0 0 0 0 0 0 0 0 0 0 0 0 0 0 0 0 0 0 0 0 0 0 0 0 0 0 0 0 0 0 0 0 0 0 0 0 0 0 0 0 0 0 0 0 0 0 0 0 0 0 0 0 0 0 0 0 0 0 0 0 0 0 0 0 0 0 0 0 0 0 0 0 0 0 0 0 0 0 0 0 0 0 0 0 0 0 0 0 0 0 0
0 0 0 0 0 0 0 0 0 0 0 0 0 0 0 0 0 0 0 0 0 0 0 0 0 0 0 0 0 0 0 0 0 0 0 0 0 0 0 0 0 0 0 0 0 0 0 0 0 0 0 0 0 0 0 0 0 0 0 0 0 0 0 0 0 0 0 0 0 0 0 0 0 0 0 0 0 0 0 0 0 0 0 0 0 0 0 0 0 0 0 0 0 0 0 0 0 0 0 0 0 0 216 177 90 216 177 90 216 177 90 216 177 90 216 177 90 216 177 90 216 177 90 216 177 90 216 177 90 216 177 90 216 177 90 216 177 90 216 177 90 216 177 90 216 177 90 216 177 90 216 177 90 216 177 90 216 177 90 216 177 90 216 177 90 216 177 90 216 177 90 216 177 90 216 177 90 216 177 90 216 177 90 216 177 90 216 177 90 216 177 90 216 177 90 216 177 90 216 177 90 216 177 90 216 177 90 216 177 90 216 177 90 216 177 90 216 177 90 216 177 90 216 177 90 216 177 90 216 177 90 216 177 90 216 177 90 216 177 90 216 177 90 216 177 90 216 177 90 216 177 90 216 177 90 216 177 90 216 177 90 216 177 90 216 177 90 216 177 90 216 177 90 216 177 90 216 177 90 216 177 90 0 0 0 0 0 0 0 0 0 0 0 0 0 0 0 0 0 0 0 0 0 0 0 0 0 0 0 0 0 0 0 0 0 0 0 0 0 0 0 0 0 0 0 0 0 0 0 0 0 0 0 0 0 0 0 0 0 0 0 0 0 0 0 0 0 0 0 0 0 0 0 0 0 0 0 0 0 0 0 0 0 0 0 0 0 0 0 0 0 0 0 0 0 0 0 0 0 0 0 0 0 0
0 0 0 0 0 0 0 0 0 0 0 0 0 0 0 0 0 0 0 0 0 0 0 0 0 0 0 0 0 0 0 0 0 0 0 0 0 0 0 0 0 0 0 0 0 0 0 0 0 0 0 0 0 0 0 0 0 0 0 0 0 0 0 0 0 0 0 0 0 0 0 0 0 0 0 0 0 0 0 0 0 0 0 0 0 0 0 0 0 0 0 0 0 0 0 0 0 0 0 0 0 0 216 177 90 216 177 90 216 177 90 216 177 90 216 177 90 216 177 90 216 177 90 216 177 90 216 177 90 216 177 90 216 177 90 216 177 90 216 177 90 216 177 90 216 177 90 216 177 90 216 177 90 216 177 90 216 177 90 216 177 90 216 177 90 216 177 90 216 177 90 216 177 90 216 177 90 216 177 90 216 177 90 216 177 90 216 177 90 216 177 90 216 177 90 216 177 90 216 177 90 216 177 90 216 177 90 216 177 90 216 177 90 216 177 90 216 177 90 216 177 90 216 177 90 216 177 90 216 177 90 216 177 90 216 177 90 216 177 90 216 177 90 216 177 90 216 177 90 216 177 90 216 177 90 216 177 90 216 177 90 216 177 90 216 177 90 216 177 90 216 177 90 216 177 90 216 177 90 216 177 90 0 0 0 0 0 0 0 0 0 0 0 0 0 0 0 0 0 0 0 0 0 0 0 0 0 0 0 0 0 0 0 0 0 0 0 0 0 0 0 0 0 0 0 0 0 0 0 0 0 0 0 0 0 0 0 0 0 0 0 0 0 0 0 0 0 0 0 0 0 0 0 0 0 0 0 0 0 0 0 0 0 0 0 0 0 0 0 0 0 0 0 0 0 0 0 0 0 0 0 0 0 0
0 0 0 0 0 0 0 0 0 0 0 0 0 0 0 0 0 0 0 0 0 0 0 0 0 0 0 0 0 0 0 0 0 0 0 0 0 0 0 0 0 0 0 0 0 0 0 0 0 0 0 0 0 0 0 0 0 0 0 0 0 0 0 0 0 0 0 0 0 0 0 0 0 0 0 0 0 0 0 0 0 0 0 0 0 0 0 0 0 0 0 0 0 0 0 0 0 0 0 0 0 0 216 177 90 216 177 90 216 177 90 216 177 90 216 177 90 216 177 90 216 177 90 216 177 90 216 177 90 216 177 90 216 177 90 216 177 90 216 177 90 216 177 90 216 177 90 216 177 90 216 177 90 216 177 90 216 177 90 216 177 90 216 177 90 216 177 90 216 177 90 216 177 90 216 177 90 216 177 90 216 177 90 216 177 90 216 177 90 216 177 90 216 177 90 216 177 90 216 177 90 216 177 90 216 177 90 216 177 90 216 177 90 216 177 90 216 177 90 216 177 90 216 177 90 216 177 90 216 177 90 216 177 90 216 177 90 216 177 90 216 177 90 216 177 90 216 177 90 216 177 90 216 177 90 216 177 90 216 177 90 216 177 90 216 177 90 216 177 90 216 177 90 216 177 90 216 177 90 216 177 90 0 0 0 0 0 0 0 0 0 0 0 0 0 0 0 0 0 0 0 0 0 0 0 0 0 0 0 0 0 0 0 0 0 0 0 0 0 0 0 0 0 0 0 0 0 0 0 0 0 0 0 0 0 0 0 0 0 0 0 0 0 0 0 0 0 0 0 0 0 0 0 0 0 0 0 0 0 0 0 0 0 0 0 0 0 0 0 0 0 0 0 0 0 0 0 0 0 0 0 0 0 0
0 0 0 0 0 0 0 0 0 0 0 0 0 0 0 0 0 0 0 0 0 0 0 0 0 0 0 0 0 0 0 0 0 0 0 0 0 0 0 0 0 0 0 0 0 0 0 0 0 0 0 0 0 0 0 0 0 0 0 0 0 0 0 0 0 0 0 0 0 0 0 0 0 0 0 0 0 0 0 0 0 0 0 0 0 0 0 0 0 0 0 0 0 0 0 0 0 0 0 0 0 0 216 177 90 216 177 90 216 177 90 216 177 90 216 177 90 216 177 90 216 177 90 216 177 90 216 177 90 216 177 90 216 177 90 216 177 90 216 177 90 216 177 90 216 177 90 216 177 90 216 177 90 216 177 90 216 177 90 216 177 90 216 177 90 216 177 90 216 177 90 216 177 90 216 177 90 216 177 90 216 177 90 216 177 90 216 177 90 216 177 90 216 177 90 216 177 90 216 177 90 216 177 90 216 177 90 216 177 90 216 177 90 216 177 90 216 177 90 216 177 90 216 177 90 216 177 90 216 177 90 216 177 90 216 177 90 216 177 90 216 177 90 216 177 90 216 177 90 216 177 90 216 177 90 216 177 90 216 177 90 216 177 90 216 177 90 216 177 90 216 177 90 216 177 90 216 177 90 216 177 90 0 0 0 0 0 0 0 0 0 0 0 0 0 0 0 0 0 0 0 0 0 0 0 0 0 0 0 0 0 0 0 0 0 0 0 0 0 0 0 0 0 0 0 0 0 0 0 0 0 0 0 0 0 0 0 0 0 0 0 0 0 0 0 0 0 0 0 0 0 0 0 0 0 0 0 0 0 0 0 0 0 0 0 0 0 0 0 0 0 0 0 0 0 0 0 0 0 0 0 0 0 0
0 0 0 0 0 0 0 0 0 0 0 0 0 0 0 0 0 0 0 0 0 0 0 0 0 0 0 0 0 0 0 0 0 0 0 0 0 0 0 0 0 0 0 0 0 0 0 0 0 0 0 0 0 0 0 0 0 0 0 0 0 0 0 0 0 0 0 0 0 0 0 0 0 0 0 0 0 0 0 0 0 0 0 0 0 0 0 0 0 0 0 0 0 0 0 0 0 0 0 0 0 0 0 0 0 0 0 0 0 0 0 0 0 0 0 0 0 0 0 0 0 0 0 91 96 100 159 166 172 159 166 172 159 166 172 159 166 172 159 166 172 159 166 172 159 166 172 159 166 172 159 166 172 159 166 172 159 166 172 159 166 172 159 166 172 159 166 172 159 166 172 159 166 172 159 166 172 159 166 172 159 166 172 159 166 172 159 166 172 159 166 172 159 166 172 159 166 172 159 166 172 159 166 172 159 166 172 159 166 172 159 166 172 159 166 172 159 166 172 159 166 172 159 166 172 159 166 172 159 166 172 159 166 172 159 166 172 159 166 172 159 166 172 159 166 172 159 166 172 159 166 172 159 166 172 159 166 172 159 166 172 91 96 100 0 0 0 0 0 0 0 0 0 0 0 0 0 0 0 0 0 0 0 0 0 0 0 0 0 0 0 0 0 0 0 0 0 0 0 0 0 0 0 0 0 0 0 0 0 0 0 0 0 0 0 0 0 0 0 0 0 0 0 0 0 0 0 0 0 0 0 0 0 0 0 0 0 0 0 0 0 0 0 0 0 0 0 0 0 0 0 0 0 0 0 0 0 0 0 0 0 0 0 0 0 0 0 0 0 0 0 0 0 0 0 0 0 0 0 0 0 0 0 0
0 0 0 0 0 0 0 0 0 0 0 0 0 0 0 0 0 0 0 0 0 0 0 0 0 0 0 0 0 0 0 0 0 0 0 0 0 0 0 0 0 0 0 0 0 0 0 0 0 0 0 0 0 0 0 0 0 0 0 0 0 0 0 0 0 0 0 0 0 0 0 0 0 0 0 0 0 0 0 0 0 0 0 0 0 0 0 0 0 0 0 0 0 0 0 0 0 0 0 0 0 0 0 0 0 0 0 0 0 0 0 0 0 0 91 96 100 157 164 170 157 164 170 157 164 170 157 164 170 157 164 170 157 164 170 157 164 170 157 164 170 157 164 170 157 164 170 157 164 170 157 164 170 157 164 170 157 164 170 157 164 170 157 164 170 157 164 170 157 164 170 157 164 170 157 164 170 157 164 170 157 164 170 157 164 170 157 164 170 157 164 170 157 164 170 157 164 170 157 164 170 157 164 170 157 164 170 157 164 170 157 164 170 157 164 170 157 164 170 157 164 170 157 164 170 157 164 170 157 164 170 157 164 170 157 164 170 157 164 170 157 164 170 157 164 170 157 164 170 157 164 170 157 164 170 157 164 170 157 164 170 157 164 170 157 164 170 157 164 170 91 96 100 0 0 0 0 0 0 0 0 0 0 0 0 0 0 0 0 0 0 0 0 0 0 0 0 0 0 0 0 0 0 0 0 0 0 0 0 0 0 0 0 0 0 0 0 0 0 0 0 0 0 0 0 0 0 0 0 0 0 0 0 0 0 0 0 0 0 0 0 0 0 0 0 0 0 0 0 0 0 0 0 0 0 0 0 0 0 0 0 0 0 0 0 0 0 0 0 0 0 0 0 0 0 0 0 0 0 0 0 0 0 0
0 0 0 0 0 0 0 0 0 0 0 0 0 0 0 0 0 0 0 0 0 0 0 0 0 0 0 0 0 0 0 0 0 0 0 0 0 0 0 0 0 0 0 0 0 0 0 0 0 0 0 0 0 0 0 0 0 0 0 0 0 0 0 0 0 0 0 0 0 0 0 0 0 0 0 0 0 0 0 0 0 0 0 0 0 0 0 0 0 0 0 0 0 0 0 0 0 0 0 0 0 0 0 0 0 91 96 100 155 162 168 155 162 168 155 162 168 155 162 168 155 162 168 155 162 168 155 162 168 155 162 168 155 162 168 155 162 168 155 162 168 155 162 168 155 162 168 155 162 168 155 162 168 155 162 168 155 162 168 155 162 168 155 162 168 155 162 168 155 162 168 155 162 168 155 162 168 155 162 168 155 162 168 155 162 168 155 162 168 155 162 168 155 162 168 155 162 168 155 162 168 155 162 168 155 162 168 155 162 168 155 162 168 155 162 168 155 162 168 155 162 168 155 162 168 155 162 168 155 162 168 155 162 168 155 162 168 155 162 168 155 162 168 155 162 168 155 162 168 155 162 168 155 162 168 155 162 168 155 162 168 155 162 168 155 162 168 155 162 168 155 162 168 155 162 168 155 162 168 91 96 100 0 0 0 0 0 0 0 0 0 0 0 0 0 0 0 0 0 0 0 0 0 0 0 0 0 0 0 0 0 0 0 0 0 0 0 0 0 0 0 0 0 0 0 0 0 0 0 0 0 0 0 0 0 0 0 0 0 0 0 0 0 0 0 0 0 0 0 0 0 0 0 0 0 0 0 0 0 0 0 0 0 0 0 0 0 0 0 0 0 0 0 0 0 0 0 0 0 0 0 0 0 0
0 0 0 0 0 0 0 0 0 0 0 0 0 0 0 0 0 0 0 0 0 0 0 0 0 0 0 0 0 0 0 0 0 0 0 0 0 0 0 0 0 0 0 0 0 0 0 0 0 0 0 0 0 0 0 0 0 0 0 0 0 0 0 0 0 0 0 0 0 0 0 0 0 0 0 0 0 0 0 0 0 0 0 0 0 0 0 0 0 0 0 0 0 91 96 100 153 161 167 153 161 167 153 161 167 153 161 167 153 161 167 153 161 167 153 161 167 153 161 167 153 161 167 153 161 167 153 161 167 153 161 167 153 161 167 153 161 167 153 161 167 153 161 167 153 161 167 153 161 167 153 161 167 153 161 167 153 161 167 153 161 167 153 161 167 153 161 167 153 161 167 153 161 167 153 161 167 153 161 167 153 161 167 153 161 167 153 161 167 153 161 167 153 161 167 153 161 167 153 161 167 153 161 167 153 161 167 153 161 167 153 161 167 153 161 167 153 161 167 153 161 167 153 161 167 153 161 167 153 161 167 153 161 167 153 161 167 153 161 167 153 161 167 153 161 167 153 161 167 153 161 167 153 161 167 153 161 167 153 161 167 153 161 167 153 161 167 153 161 167 153 161 167 153 161 167 153 161 167 153 161 167 153 161 167 153 161 167 153 161 167 91 96 100 0 0 0 0 0 0 0 0 0 0 0 0 0 0 0 0 0 0 0 0 0 0 0 0 0 0 0 0 0 0 0 0 0 0 0 0 0 0 0 0 0 0 0 0 0 0 0 0 0 0 0 0 0 0 0 0 0 0 0 0 0 0 0 0 0 0 0 0 0 0 0 0 0 0 0 0 0 0 0 0 0 0 0 0 0 0 0 0 0 0
0 0 0 0 0 0 0 0 0 0 0 0 0 0 0 0 0 0 0 0 0 0 0 0 0 0 0 0 0 0 0 0 0 0 0 0 0 0 0 0 0 0 0 0 0 0 0 0 0 0 0 0 0 0 0 0 0 0 0 0 0 0 0 0 0 0 0 0 0 0 0 0 0 0 0 0 0 0 0 0 0 0 0 0 0 0 0 0 0 0 0 0 0 76 82 87 76 82 87 76 82 87 0 0 0 91 96 100 146 154 160 146 154 160 146 154 160 146 154 160 146 154 160 146 154 160 146 154 160 146 154 160 146 154 160 146 154 160 146 154 160 146 154 160 146 154 160 146 154 160 146 154 160 146 154 160 146 154 160 146 154 160 146 154 160 146 154 160 146 154 160 146 154 160 146 154 160 146 154 160 146 154 160 146 154 160 146 154 160 146 154 160 146 154 160 146 154 160 146 154 160 146 154 160 146 154 160 146 154 160 146 154 160 146 154 160 146 154 160 146 154 160 146 154 160 146 154 160 146 154 160 146 154 160 146 154 160 146 154 160 146 154 160 146 154 160 146 154 160 146 154 160 146 154 160 146 154 160 146 154 160 146 154 160 146 154 160 146 154 160 146 154 160 146 154 160 146 154 160 91 96 100 85 92 97 85 92 97 85 92 97 0 0 0 0 0 0 0 0 0 0 0 0 0 0 0 0 0 0 0 0 0 0 0 0 0 0 0 0 0 0 0 0 0 0 0 0 0 0 0 0 0 0 0 0 0 0 0 0 0 0 0 0 0 0 0 0 0 0 0 0 0 0 0 0 0 0 0 0 0 0 0 0 0 0 0 0 0 0 0 0 0 0 0 0 0 0 0 0 0 0 0 0 0
0 0 0 0 0 0 0 0 0 0 0 0 0 0 0 0 0 0 0 0 0 0 0 0 0 0 0 0 0 0 0 0 0 0 0 0 0 0 0 0 0 0 0 0 0 0 0 0 0 0 0 0 0 0 0 0 0 0 0 0 0 0 0 0 0 0 0 0 0 0 0 0 0 0 0 0 0 0 0 0 0 0 0 0 0 0 0 0 0 0 0 0 0 76 82 87 76 82 87 76 82 87 76 82 87 76 82 87 76 82 87 0 0 0 91 96 100 140 148 153 140 148 153 140 148 153 140 148 153 140 148 153 140 148 153 140 148 153 140 148 153 140 148 153 140 148 153 140 148 153 140 148 153 140 148 153 140 148 153 140 148 153 140 148 153 140 148 153 140 148 153 140 148 153 140 148 153 140 148 153 140 148 153 140 148 153 140 148 153 140 148 153 140 148 153 140 148 153 140 148 153 140 148 153 140 148 153 140 148 153 140 148 153 140 148 153 140 148 153 140 148 153 140 148 153 140 148 153 140 148 153 140 148 153 140 148 153 140 148 153 140 148 153 140 148 153 140 148 153 140 148 153 140 148 153 140 148 153 140 148 153 140 148 153 140 148 153 140 148 153 91 96 100 85 92 97 85 92 97 85 92 97 85 92 97 85 92 97 85 92 97 0 0 0 0 0 0 0 0 0 0 0 0 0 0 0 0 0 0 0 0 0 0 0 0 0 0 0 0 0 0 0 0 0 0 0 0 0 0 0 0 0 0 0 0 0 0 0 0 0 0 0 0 0 0 0 0 0 0 0 0 0 0 0 0 0 0 0 0 0 0 0 0 0 0 0 0 0 0 0 0 0 0 0 0 0 0 0 0 0 0 0 0 0
0 0 0 0 0 0 0 0 0 0 0 0 0 0 0 0 0 0 0 0 0 0 0 0 0 0 0 0 0 0 0 0 0 0 0 0 0 0 0 0 0 0 0 0 0 0 0 0 0 0 0 0 0 0 0 0 0 0 0 0 0 0 0 0 0 0 0 0 0 0 0 0 0 0 0 0 0 0 0 0 0 0 0 0 0 0 0 0 0 0 0 0 0 76 82 87 76 82 87 76 82 87 76 82 87 76 82 87 76 82 87 76 82 87 76 82 87 76 82 87 0 0 0 91 96 100 134 141 146 134 141 146 134 141 146 134 141 146 134 141 146 134 141 146 134 141 146 134 141 146 134 141 146 134 141 146 134 141 146 134 141 146 134 141 146 134 141 146 134 141 146 134 141 146 134 141 146 134 141 146 134 141 146 134 141 146 134 141 146 134 141 146 134 141 146 134 141 146 134 141 146 134 141 146 134 141 146 134 141 146 134 141 146 134 141 146 134 141 146 134 141 146 134 141 146 134 141 146 134 141 146 134 141 146 134 141 146 134 141 146 134 141 146 134 141 146 134 141 146 134 141 146 134 141 146 134 141 146 134 141 146 91 96 100 85 92 97 85 92 97 85 92 97 85 92 97 85 92 97 85 92 97 85 92 97 85 92 97 85 92 97 0 0 0 0 0 0 0 0 0 0 0 0 0 0 0 0 0 0 0 0 0 0 0 0 0 0 0 0 0 0 0 0 0 0 0 0 0 0 0 0 0 0 0 0 0 0 0 0 0 0 0 0 0 0 0 0 0 0 0 0 0 0 0 0 0 0 0 0 0 0 0 0 0 0 0 0 0 0 0 0 0 0 0 0 0 0 0 0 0 0 0 0 0
0 0 0 0 0 0 0 0 0 0 0 0 0 0 0 0 0 0 0 0 0 0 0 0 0 0 0 0 0 0 0 0 0 0 0 0 0 0 0 0 0 0 0 0 0 0 0 0 0 0 0 0 0 0 0 0 0 0 0 0 0 0 0 0 0 0 0 0 0 0 0 0 0 0 0 0 0 0 0 0 0 0 0 0 0 0 0 0 0 0 0 0 0 76 82 87 76 82 87 76 82 87 76 82 87 76 82 87 76 82 87 76 82 87 76 82 87 76 82 87 76 82 87 76 82 87 76 82 87 76 82 87 0 0 0 91 96 100 128 135 140 128 135 140 128 135 140 128 135 140 128 135 140 128 135 140 128 135 140 128 135 140 128 135 140 128 135 140 128 135 140 128 135 140 128 135 140 128 135 140 128 135 140 128 135 140 128 135 140 128 135 140 128 135 140 128 135 140 128 135 140 128 135 140 128 135 140 128 135 140 128 135 140 128 135 140 128 135 140 128 135 140 128 135 140 128 135 140 128 135 140 128 135 140 128 135 140 128 135 140 128 135 140 128 135 140 128 135 140 91 96 100 85 92 97 85 92 97 85 92 97 85 92 97 85 92 97 85 92 97 85 92 97 85 92 97 85 92 97 85 92 97 85 92 97 85 92 97 85 92 97 0 0 0 0 0 0 0 0 0 0 0 0 0 0 0 0 0 0 0 0 0 0 0 0 0 0 0 0 0 0 0 0 0 0 0 0 0 0 0 0 0 0 0 0 0 0 0 0 0 0 0 0 0 0 0 0 0 0 0 0 0 0 0 0 0 0 0 0 0 0 0 0 0 0 0 0 0 0 0 0 0 0 0 0 0 0 0 0 0 0 0 0 0
0 0 0 0 0 0 0 0 0 0 0 0 0 0 0 0 0 0 0 0 0 0 0 0 0 0 0 0 0 0 0 0 0 0 0 0 0 0 0 0 0 0 0 0 0 0 0 0 0 0 0 0 0 0 0 0 0 0 0 0 0 0 0 0 0 0 0 0 0 0 0 0 0 0 0 0 0 0 0 0 0 0 0 0 0 0 0 0 0 0 0 0 0 76 82 87 76 82 87 76 82 87 76 82 87 76 82 87 76 82 87 76 82 87 76 82 87 76 82 87 76 82 87 76 82 87 76 82 87 76 82 87 76 82 87 76 82 87 76 82 87 0 0 0 91 96 100 122 128 133 122 128 133 122 128 133 122 128 133 122 128 133 122 128 133 122 128 133 122 128 133 122 128 133 122 128 133 122 128 133 122 128 133 122 128 133 122 128 133 122 128 133 122 128 133 122 128 133 122 128 133 122 128 133 122 128 133 122 128 133 122 128 133 122 128 133 122 128 133 122 128 133 122 128 133 122 128 133 122 128 133 122 128 133 122 128 133 122 128 133 91 96 100 85 92 97 85 92 97 85 92 97 85 92 97 85 92 97 85 92 97 85 92 97 85 92 97 85 92 97 85 92 97 85 92 97 85 92 97 85 92 97 85 92 97 85 92 97 85 92 97 0 0 0 0 0 0 0 0 0 0 0 0 0 0 0 0 0 0 0 0 0 0 0 0 0 0 0 0 0 0 0 0 0 0 0 0 0 0 0 0 0 0 0 0 0 0 0 0 0 0 0 0 0 0 0 0 0 0 0 0 0 0 0 0 0 0 0 0 0 0 0 0 0 0 0 0 0 0 0 0 0 0 0 0 0 0 0 0 0 0 0 0 0
0 0 0 0 0 0 0 0 0 0 0 0 0 0 0 0 0 0 0 0 0 0 0 0 0 0 0 0 0 0 0 0 0 0 0 0 0 0 0 0 0 0 0 0 0 0 0 0 0 0 0 0 0 0 0 0 0 0 0 0 0 0 0 0 0 0 0 0 0 0 0 0 0 0 0 0 0 0 0 0 0 0 0 0 0 0 0 0 0 0 0 0 0 76 82 87 76 82 87 76 82 87 76 82 87 76 82 87 76 82 87 76 82 87 76 82 87 76 82 87 76 82 87 76 82 87 76 82 87 76 82 87 76 82 87 76 82 87 76 82 87 76 82 87 76 82 87 76 82 87 149 154 160 91 96 100 115 122 126 115 122 126 115 122 126 115 122 126 115 122 126 115 122 126 115 122 126 115 122 126 115 122 126 115 122 126 115 122 126 115 122 126 115 122 126 115 122 126 115 122 126 115 122 126 115 122 126 115 122 126 115 122 126 115 122 126 115 122 126 115 122 126 115 122 126 115 122 126 115 122 126 91 96 100 85 92 97 85 92 97 85 92 97 85 92 97 85 92 97 85 92 97 85 92 97 85 92 97 85 92 97 85 92 97 85 92 97 85 92 97 85 92 97 85 92 97 85 92 97 85 92 97 85 92 97 85 92 97 85 92 97 0 0 0 0 0 0 0 0 0 0 0 0 0 0 0 0 0 0 0 0 0 0 0 0 0 0 0 0 0 0 0 0 0 0 0 0 0 0 0 0 0 0 0 0 0 0 0 0 0 0 0 0 0 0 0 0 0 0 0 0 0 0 0 0 0 0 0 0 0 0 0 0 0 0 0 0 0 0 0 0 0 0 0 0 0 0 0 0 0 0 0 0 0
0 0 0 0 0 0 0 0 0 0 0 0 0 0 0 0 0 0 0 0 0 0 0 0 0 0 0 0 0 0 0 0 0 0 0 0 0 0 0 0 0 0 0 0 0 0 0 0 0 0 0 0 0 0 0 0 0 0 0 0 0 0 0 0 0 0 0 0 0 0 0 0 0 0 0 0 0 0 0 0 0 0 0 0 0 0 0 0 0 0 0 0 0 76 82 87 76 82 87 76 82 87 76 82 87 76 82 87 76 82 87 76 82 87 76 82 87 76 82 87 76 82 87 76 82 87 76 82 87 76 82 87 76 82 87 76 82 87 76 82 87 76 82 87 76 82 87 76 82 87 76 82 87 76 82 87 76 82 87 76 82 87 147 153 158 91 96 100 109 115 120 109 115 120 109 115 120 109 115 120 109 115 120 109 115 120 109 115 120 109 115 120 109 115 120 109 115 120 109 115 120 109 115 120 109 115 120 109 115 120 109 115 120 109 115 120 109 115 120 91 96 100 85 92 97 85 92 97 85 92 97 85 92 97 85 92 97 85 92 97 85 92 97 85 92 97 85 92 97 85 92 97 85 92 97 85 92 97 85 92 97 85 92 97 85 92 97 85 92 97 85 92 97 85 92 97 85 92 97 85 92 97 85 92 97 85 92 97 85 92 97 0 0 0 0 0 0 0 0 0 0 0 0 0 0 0 0 0 0 0 0 0 0 0 0 0 0 0 0 0 0 0 0 0 0 0 0 0 0 0 0 0 0 0 0 0 0 0 0 0 0 0 0 0 0 0 0 0 0 0 0 0 0 0 0 0 0 0 0 0 0 0 0 0 0 0 0 0 0 0 0 0 0 0 0 0 0 0 0 0 0 0 0 0
0 0 0 0 0 0 0 0 0 0 0 0 0 0 0 0 0 0 0 0 0 0 0 0 0 0 0 0 0 0 0 0 0 0 0 0 0 0 0 0 0 0 0 0 0 0 0 0 0 0 0 0 0 0 0 0 0 0 0 0 0 0 0 0 0 0 0 0 0 0 0 0 0 0 0 0 0 0 0 0 0 0 0 0 0 0 0 0 0 0 0 0 0 76 82 87 76 82 87 76 82 87 76 82 87 76 82 87 76 82 87 76 82 87 76 82 87 76 82 87 76 82 87 76 82 87 76 82 87 76 82 87 76 82 87 76 82 87 76 82 87 76 82 87 76 82 87 76 82 87 76 82 87 76 82 87 76 82 87 76 82 87 76 82 87 76 82 87 76 82 87 145 151 156 91 96 100 103 109 113 103 109 113 103 109 113 103 109 113 103 109 113 103 109 113 103 109 113 103 109 113 103 109 113 103 109 113 103 109 113 91 96 100 85 92 97 85 92 97 85 92 97 85 92 97 85 92 97 85 92 97 85 92 97 85 92 97 85 92 97 85 92 97 85 92 97 85 92 97 85 92 97 85 92 97 85 92 97 85 92 97 85 92 97 85 92 97 85 92 97 85 92 97 85 92 97 85 92 97 85 92 97 85 92 97 85 92 97 85 92 97 0 0 0 0 0 0 0 0 0 0 0 0 0 0 0 0 0 0 0 0 0 0 0 0 0 0 0 0 0 0 0 0 0 0 0 0 0 0 0 0 0 0 0 0 0 0 0 0 0 0 0 0 0 0 0 0 0 0 0 0 0 0 0 0 0 0 0 0 0 0 0 0 0 0 0 0 0 0 0 0 0 0 0 0 0 0 0 0 0 0 0 0 0
0 0 0 0 0 0 0 0 0 0 0 0 0 0 0 0 0 0 0 0 0 0 0 0 0 0 0 0 0 0 0 0 0 0 0 0 0 0 0 0 0 0 0 0 0 0 0 0 0 0 0 0 0 0 0 0 0 0 0 0 0 0 0 0 0 0 0 0 0 0 0 0 0 0 0 0 0 0 0 0 0 0 0 0 0 0 0 0 0 0 0 0 0 76 82 87 76 82 87 76 82 87 76 82 87 76 82 87 76 82 87 76 82 87 76 82 87 76 82 87 76 82 87 76 82 87 76 82 87 76 82 87 76 82 87 76 82 87 76 82 87 76 82 87 76 82 87 76 82 87 76 82 87 76 82 87 76 82 87 76 82 87 76 82 87 76 82 87 76 82 87 76 82 87 76 82 87 76 82 87 143 149 155 91 96 100 97 102 106 97 102 106 97 102 106 97 102 106 97 102 106 91 96 100 85 92 97 85 92 97 85 92 97 85 92 97 85 92 97 85 92 97 85 92 97 85 92 97 85 92 97 85 92 97 85 92 97 85 92 97 85 92 97 85 92 97 85 92 97 85 92 97 85 92 97 85 92 97 85 92 97 85 92 97 85 92 97 85 92 97 85 92 97 85 92 97 85 92 97 85 92 97 85 92 97 85 92 97 85 92 97 0 0 0 0 0 0 0 0 0 0 0 0 0 0 0 0 0 0 0 0 0 0 0 0 0 0 0 0 0 0 0 0 0 0 0 0 0 0 0 0 0 0 0 0 0 0 0 0 0 0 0 0 0 0 0 0 0 0 0 0 0 0 0 0 0 0 0 0 0 0 0 0 0 0 0 0 0 0 0 0 0 0 0 0 0 0 0 0 0 0 0 0 0
0 0 0 0 0 0 0 0 0 0 0 0 0 0 0 0 0 0 0 0 0 0 0 0 0 0 0 0 0 0 0 0 0 0 0 0 0 0 0 0 0 0 0 0 0 0 0 0 0 0 0 0 0 0 0 0 0 0 0 0 0 0 0 0 0 0 0 0 0 0 0 0 0 0 0 0 0 0 0 0 0 0 0 0 0 0 0 0 0 0 0 0 0 76 82 87 76 82 87 76 82 87 76 82 87 76 82 87 76 82 87 76 82 87 76 82 87 76 82 87 76 82 87 76 82 87 76 82 87 76 82 87 76 82 87 76 82 87 76 82 87 76 82 87 76 82 87 76 82 87 76 82 87 76 82 87 76 82 87 76 82 87 76 82 87 76 82 87 76 82 87 76 82 87 76 82 87 76 82 87 76 82 87 76 82 87 76 82 87 76 82 87 85 92 97 85 92 97 85 92 97 85 92 97 85 92 97 85 92 97 85 92 97 85 92 97 85 92 97 85 92 97 85 92 97 85 92 97 85 92 97 85 92 97 85 92 97 85 92 97 85 92 97 85 92 97 85 92 97 85 92 97 85 92 97 85 92 97 85 92 97 85 92 97 85 92 97 85 92 97 85 92 97 85 92 97 85 92 97 85 92 97 85 92 97 85 92 97 85 92 97 0 0 0 0 0 0 0 0 0 0 0 0 0 0 0 0 0 0 0 0 0 0 0 0 0 0 0 0 0 0 0 0 0 0 0 0 0 0 0 0 0 0 0 0 0 0 0 0 0 0 0 0 0 0 0 0 0 0 0 0 0 0 0 0 0 0 0 0 0 0 0 0 0 0 0 0 0 0 0 0 0 0 0 0 0 0 0 0 0 0 0 0 0
0 0 0 0 0 0 0 0 0 0 0 0 0 0 0 0 0 0 0 0 0 0 0 0 0 0 0 0 0 0 0 0 0 0 0 0 0 0 0 0 0 0 0 0 0 0 0 0 0 0 0 0 0 0 0 0 0 0 0 0 0 0 0 0 0 0 0 0 0 0 0 0 0 0 0 0 0 0 0 0 0 0 0 0 0 0 0 0 0 0 81 85 88 139 145 151 139 145 151 139 145 151 139 145 151 76 82 87 76 82 87 76 82 87 76 82 87 76 82 87 76 82 87 76 82 87 76 82 87 76 82 87 76 82 87 76 82 87 76 82 87 76 82 87 76 82 87 76 82 87 76 82 87 76 82 87 76 82 87 76 82 87 76 82 87 76 82 87 76 82 87 76 82 87 76 82 87 76 82 87 76 82 87 76 82 87 76 82 87 76 82 87 85 92 97 85 92 97 85 92 97 85 92 97 85 92 97 85 92 97 85 92 97 85 92 97 85 92 97 85 92 97 85 92 97 85 92 97 85 92 97 85 92 97 85 92 97 85 92 97 85 92 97 85 92 97 85 92 97 85 92 97 85 92 97 85 92 97 85 92 97 85 92 97 85 92 97 85 92 97 85 92 97 85 92 97 85 92 97 139 145 151 139 145 151 139 145 151 139 145 151 139 145 151 81 85 88 0 0 0 0 0 0 0 0 0 0 0 0 0 0 0 0 0 0 0 0 0 0 0 0 0 0 0 0 0 0 0 0 0 0 0 0 0 0 0 0 0 0 0 0 0 0 0 0 0 0 0 0 0 0 0 0 0 0 0 0 0 0 0 0 0 0 0 0 0 0 0 0 0 0 0 0 0 0 0 0 0 0 0 0 0 0 0
0 0 0 0 0 0 0 0 0 0 0 0 0 0 0 0 0 0 0 0 0 0 0 0 0 0 0 0 0 0 0 0 0 0 0 0 0 0 0 0 0 0 0 0 0 0 0 0 0 0 0 0 0 0 0 0 0 0 0 0 0 0 0 0 0 0 0 0 0 0 0 0 0 0 0 0 0 0 0 0 0 81 85 88 137 143 149 137 143 149 137 143 149 137 143 149 137 143 149 137 143 149 137 143 149 137 143 149 137 143 149 137 143 149 76 82 87 76 82 87 76 82 87 76 82 87 76 82 87 76 82 87 76 82 87 76 82 87 76 82 87 76 82 87 76 82 87 76 82 87 76 82 87 76 82 87 76 82 87 76 82 87 76 82 87 76 82 87 76 82 87 76 82 87 76 82 87 76 82 87 76 82 87 76 82 87 76 82 87 76 82 87 85 92 97 85 92 97 85 92 97 85 92 97 85 92 97 85 92 97 85 92 97 85 92 97 85 92 97 85 92 97 85 92 97 85 92 97 85 92 97 85 92 97 85 92 97 85 92 97 85 92 97 85 92 97 85 92 97 85 92 97 85 92 97 85 92 97 85 92 97 85 92 97 85 92 97 85 92 97 137 143 149 137 143 149 137 143 149 137 143 149 137 143 149 137 143 149 137 143 149 137 143 149 137 143 149 137 143 149 137 143 149 81 85 88 0 0 0 0 0 0 0 0 0 0 0 0 0 0 0 0 0 0 0 0 0 0 0 0 0 0 0 0 0 0 0 0 0 0 0 0 0 0 0 0 0 0 0 0 0 0 0 0 0 0 0 0 0 0 0 0 0 0 0 0 0 0 0 0 0 0 0 0 0 0 0 0 0 0 0 0 0 0
0 0 0 0 0 0 0 0 0 0 0 0 0 0 0 0 0 0 0 0 0 0 0 0 0 0 0 0 0 0 0 0 0 0 0 0 0 0 0 0 0 0 0 0 0 0 0 0 0 0 0 0 0 0 0 0 0 0 0 0 0 0 0 0 0 0 0 0 0 81 85 88 135 142 148 135 142 148 135 142 148 135 142 148 135 142 148 135 142 148 135 142 148 135 142 148 135 142 148 135 142 148 135 142 148 135 142 148 135 142 148 135 142 148 135 142 148 135 142 148 135 142 148 76 82 87 76 82 87 76 82 87 76 82 87 76 82 87 76 82 87 76 82 87 76 82 87 76 82 87 76 82 87 76 82 87 76 82 87 76 82 87 76 82 87 76 82 87 76 82 87 76 82 87 76 82 87 76 82 87 76 82 87 76 82 87 76 82 87 76 82 87 85 92 97 85 92 97 85 92 97 85 92 97 85 92 97 85 92 97 85 92 97 85 92 97 85 92 97 85 92 97 85 92 97 85 92 97 85 92 97 85 92 97 85 92 97 85 92 97 85 92 97 85 92 97 85 92 97 85 92 97 85 92 97 85 92 97 85 92 97 135 142 148 135 142 148 135 142 148 135 142 148 135 142 148 135 142 148 135 142 148 135 142 148 135 142 148 135 142 148 135 142 148 135 142 148 135 142 148 135 142 148 135 142 148 135 142 148 135 142 148 135 142 148 81 85 88 0 0 0 0 0 0 0 0 0 0 0 0 0 0 0 0 0 0 0 0 0 0 0 0 0 0 0 0 0 0 0 0 0 0 0 0 0 0 0 0 0 0 0 0 0 0 0 0 0 0 0 0 0 0 0 0 0 0 0 0 0 0 0 0 0 0
0 0 0 0 0 0 0 0 0 0 0 0 0 0 0 0 0 0 0 0 0 0 0 0 0 0 0 0 0 0 0 0 0 0 0 0 0 0 0 0 0 0 0 0 0 0 0 0 0 0 0 0 0 0 0 0 0 0 0 0 0 0 0 0 0 0 0 0 0 63 68 73 63 68 73 63 68 73 0 0 0 81 85 88 130 137 143 130 137 143 130 137 143 130 137 143 130 137 143 130 137 143 130 137 143 130 137 143 130 137 143 130 137 143 130 137 143 130 137 143 130 137 143 130 137 143 130 137 143 130 137 143 130 137 143 76 82 87 76 82 87 76 82 87 76 82 87 76 82 87 76 82 87 76 82 87 76 82 87 76 82 87 76 82 87 76 82 87 76 82 87 76 82 87 76 82 87 76 82 87 76 82 87 76 82 87 76 82 87 76 82 87 85 92 97 85 92 97 85 92 97 85 92 97 85 92 97 85 92 97 85 92 97 85 92 97 85 92 97 85 92 97 85 92 97 85 92 97 85 92 97 85 92 97 85 92 97 85 92 97 85 92 97 85 92 97 85 92 97 130 137 143 130 137 143 130 137 143 130 137 143 130 137 143 130 137 143 130 137 143 130 137 143 130 137 143 130 137 143 130 137 143 130 137 143 130 137 143 130 137 143 130 137 143 130 137 143 130 137 143 130 137 143 81 85 88 70 76 81 70 76 81 70 76 81 0 0 0 0 0 0 0 0 0 0 0 0 0 0 0 0 0 0 0 0 0 0 0 0 0 0 0 0 0 0 0 0 0 0 0 0 0 0 0 0 0 0 0 0 0 0 0 0 0 0 0 0 0 0 0 0 0 0 0 0 0 0 0 0 0 0 0 0 0
0 0 0 0 0 0 0 0 0 0 0 0 0 0 0 0 0 0 0 0 0 0 0 0 0 0 0 0 0 0 0 0 0 0 0 0 0 0 0 0 0 0 0 0 0 0 0 0 0 0 0 0 0 0 0 0 0 0 0 0 0 0 0 0 0 0 0 0 0 63 68 73 63 68 73 63 68 73 63 68 73 63 68 73 63 68 73 0 0 0 81 85 88 126 132 138 126 132 138 126 132 138 126 132 138 126 132 138 126 132 138 126 132 138 126 132 138 126 132 138 126 132 138 126 132 138 126 132 138 126 132 138 126 132 138 126 132 138 126 132 138 126 132 138 76 82 87 76 82 87 76 82 87 76 82 87 76 82 87 76 82 87 76 82 87 76 82 87 76 82 87 76 82 87 76 82 87 76 82 87 76 82 87 76 82 87 76 82 87 76 82 87 85 92 97 85 92 97 85 92 97 85 92 97 85 92 97 85 92 97 85 92 97 85 92 97 85 92 97 85 92 97 85 92 97 85 92 97 85 92 97 85 92 97 85 92 97 85 92 97 126 132 138 126 132 138 126 132 138 126 132 138 126 132 138 126 132 138 126 132 138 126 132 138 126 132 138 126 132 138 126 132 138 126 132 138 126 132 138 126 132 138 126 132 138 126 132 138 126 132 138 126 132 138 81 85 88 70 76 81 70 76 81 70 76 81 70 76 81 70 76 81 70 76 81 0 0 0 0 0 0 0 0 0 0 0 0 0 0 0 0 0 0 0 0 0 0 0 0 0 0 0 0 0 0 0 0 0 0 0 0 0 0 0 0 0 0 0 0 0 0 0 0 0 0 0 0 0 0 0 0 0 0 0 0 0 0 0 0 0 0 0 0 0
0 0 0 0 0 0 0 0 0 0 0 0 0 0 0 0 0 0 0 0 0 0 0 0 0 0 0 0 0 0 0 0 0 0 0 0 0 0 0 0 0 0 0 0 0 0 0 0 0 0 0 0 0 0 0 0 0 0 0 0 0 0 0 0 0 0 0 0 0 63 68 73 63 68 73 63 68 73 63 68 73 63 68 73 63 68 73 63 68 73 63 68 73 63 68 73 63 68 73 0 0 0 81 85 88 121 127 133 121 127 133 121 127 133 121 127 133 121 127 133 121 127 133 121 127 133 121 127 133 121 127 133 121 127 133 121 127 133 121 127 133 121 127 133 121 127 133 121 127 133 121 127 133 76 82 87 76 82 87 76 82 87 76 82 87 76 82 87 76 82 87 76 82 87 76 82 87 76 82 87 76 82 87 76 82 87 76 82 87 76 82 87 85 92 97 85 92 97 85 92 97 85 92 97 85 92 97 85 92 97 85 92 97 85 92 97 85 92 97 85 92 97 85 92 97 85 92 97 85 92 97 121 127 133 121 127 133 121 127 133 121 127 133 121 127 133 121 127 133 121 127 133 121 127 133 121 127 133 121 127 133 121 127 133 121 127 133 121 127 133 121 127 133 121 127 133 121 127 133 121 127 133 81 85 88 70 76 81 70 76 81 70 76 81 70 76 81 70 76 81 70 76 81 70 76 81 70 76 81 70 76 81 70 76 81 0 0 0 0 0 0 0 0 0 0 0 0 0 0 0 0 0 0 0 0 0 0 0 0 0 0 0 0 0 0 0 0 0 0 0 0 0 0 0 0 0 0 0 0 0 0 0 0 0 0 0 0 0 0 0 0 0 0 0 0 0 0 0 0 0 0 0 0 0
0 0 0 0 0 0 0 0 0 0 0 0 0 0 0 0 0 0 0 0 0 0 0 0 0 0 0 0 0 0 0 0 0 0 0 0 0 0 0 0 0 0 0 0 0 0 0 0 0 0 0 0 0 0 0 0 0 0 0 0 0 0 0 0 0 0 0 0 0 63 68 73 63 68 73 63 68 73 63 68 73 63 68 73 63 68 73 63 68 73 63 68 73 63 68 73 63 68 73 63 68 73 63 68 73 63 68 73 0 0 0 81 85 88 117 123 128 117 123 128 117 123 128 117 123 128 117 123 128 117 123 128 117 123 128 117 123 128 117 123 128 117 123 128 117 123 128 117 123 128 117 123 128 117 123 128 117 123 128 117 123 128 117 123 128 76 82 87 76 82 87 76 82 87 76 82 87 76 82 87 76 82 87 76 82 87 76 82 87 76 82 87 85 92 97 85 92 97 85 92 97 85 92 97 85 92 97 85 92 97 85 92 97 85 92 97 85 92 97 117 123 128 117 123 128 117 123 128 117 123 128 117 123 128 117 123 128 117 123 128 117 123 128 117 123 128 117 123 128 117 123 128 117 123 128 117 123 128 117 123 128 117 123 128 117 123 128 117 123 128 117 123 128 81 85 88 70 76 81 70 76 81 70 76 81 70 76 81 70 76 81 70 76 81 70 76 81 70 76 81 70 76 81 70 76 81 70 76 81 70 76 81 70 76 81 0 0 0 0 0 0 0 0 0 0 0 0 0 0 0 0 0 0 0 0 0 0 0 0 0 0 0 0 0 0 0 0 0 0 0 0 0 0 0 0 0 0 0 0 0 0 0 0 0 0 0 0 0 0 0 0 0 0 0 0 0 0 0 0 0 0 0 0 0
0 0 0 0 0 0 0 0 0 0 0 0 0 0 0 0 0 0 0 0 0 0 0 0 0 0 0 0 0 0 0 0 0 0 0 0 0 0 0 0 0 0 0 0 0 0 0 0 0 0 0 0 0 0 0 0 0 0 0 0 0 0 0 0 0 0 0 0 0 63 68 73 63 68 73 63 68 73 63 68 73 63 68 73 63 68 73 63 68 73 63 68 73 63 68 73 63 68 73 63 68 73 63 68 73 63 68 73 63 68 73 63 68 73 63 68 73 63 68 73 0 0 0 81 85 88 112 118 123 112 118 123 112 118 123 112 118 123 112 118 123 112 118 123 112 118 123 112 118 123 112 118 123 112 118 123 112 118 123 112 118 123 112 118 123 112 118 123 112 118 123 112 118 123 76 82 87 76 82 87 76 82 87 76 82 87 76 82 87 76 82 87 85 92 97 85 92 97 85 92 97 85 92 97 85 92 97 85 92 97 112 118 123 112 118 123 112 118 123 112 118 123 112 118 123 112 118 123 112 118 123 112 118 123 112 118 123 112 118 123 112 118 123 112 118 123 112 118 123 112 118 123 112 118 123 112 118 123 112 118 123 81 85 88 70 76 81 70 76 81 70 76 81 70 76 81 70 76 81 70 76 81 70 76 81 70 76 81 70 76 81 70 76 81 70 76 81 70 76 81 70 76 81 70 76 81 70 76 81 70 76 81 70 76 81 0 0 0 0 0 0 0 0 0 0 0 0 0 0 0 0 0 0 0 0 0 0 0 0 0 0 0 0 0 0 0 0 0 0 0 0 0 0 0 0 0 0 0 0 0 0 0 0 0 0 0 0 0 0 0 0 0 0 0 0 0 0 0 0 0 0 0 0 0
0 0 0 0 0 0 0 0 0 0 0 0 0 0 0 0 0 0 0 0 0 0 0 0 0 0 0 0 0 0 0 0 0 0 0 0 0 0 0 0 0 0 0 0 0 0 0 0 0 0 0 0 0 0 0 0 0 0 0 0 0 0 0 0 0 0 0 0 0 63 68 73 63 68 73 63 68 73 63 68 73 63 68 73 63 68 73 63 68 73 63 68 73 63 68 73 63 68 73 63 68 73 63 68 73 63 68 73 63 68 73 63 68 73 63 68 73 63 68 73 63 68 73 63 68 73 63 68 73 0 0 0 81 85 88 108 113 118 108 113 118 108 113 118 108 113 118 108 113 118 108 113 118 108 113 118 108 113 118 108 113 118 108 113 118 108 113 118 108 113 118 108 113 118 108 113 118 108 113 118 108 113 118 76 82 87 76 82 87 76 82 87 85 92 97 85 92 97 85 92 97 108 113 118 108 113 118 108 113 118 108 113 118 108 113 118 108 113 118 108 113 118 108 113 118 108 113 118 108 113 118 108 113 118 108 113 118 108 113 118 108 113 118 108 113 118 108 113 118 108 113 118 81 85 88 70 76 81 70 76 81 70 76 81 70 76 81 70 76 81 70 76 81 70 76 81 70 76 81 70 76 81 70 76 81 70 76 81 70 76 81 70 76 81 70 76 81 70 76 81 70 76 81 70 76 81 70 76 81 70 76 81 70 76 81 0 0 0 0 0 0 0 0 0 0 0 0 0 0 0 0 0 0 0 0 0 0 0 0 0 0 0 0 0 0 0 0 0 0 0 0 0 0 0 0 0 0 0 0 0 0 0 0 0 0 0 0 0 0 0 0 0 0 0 0 0 0 0 0 0 0 0 0 0
0 0 0 0 0 0 0 0 0 0 0 0 0 0 0 0 0 0 0 0 0 0 0 0 0 0 0 0 0 0 0 0 0 0 0 0 0 0 0 0 0 0 0 0 0 0 0 0 0 0 0 0 0 0 0 0 0 0 0 0 0 0 0 0 0 0 0 0 0 63 68 73 63 68 73 63 68 73 63 68 73 63 68 73 63 68 73 63 68 73 63 68 73 63 68 73 63 68 73 63 68 73 63 68 73 63 68 73 63 68 73 63 68 73 63 68 73 63 68 73 63 68 73 63 68 73 63 68 73 63 68 73 63 68 73 63 68 73 129 136 139 81 85 88 103 108 113 103 108 113 103 108 113 103 108 113 103 108 113 103 108 113 103 108 113 103 108 113 103 108 113 103 108 113 103 108 113 103 108 113 103 108 113 103 108 113 103 108 113 103 108 113 103 108 113 103 108 113 103 108 113 103 108 113 103 108 113 103 108 113 103 108 113 103 108 113 103 108 113 103 108 113 103 108 113 103 108 113 103 108 113 103 108 113 103 108 113 103 108 113 103 108 113 81 85 88 70 76 81 70 76 81 70 76 81 70 76 81 70 76 81 70 76 81 70 76 81 70 76 81 70 76 81 70 76 81 70 76 81 70 76 81 70 76 81 70 76 81 70 76 81 70 76 81 70 76 81 70 76 81 70 76 81 70 76 81 70 76 81 70 76 81 70 76 81 0 0 0 0 0 0 0 0 0 0 0 0 0 0 0 0 0 0 0 0 0 0 0 0 0 0 0 0 0 0 0 0 0 0 0 0 0 0 0 0 0 0 0 0 0 0 0 0 0 0 0 0 0 0 0 0 0 0 0 0 0 0 0 0 0 0 0 0 0
0 0 0 0 0 0 0 0 0 0 0 0 0 0 0 0 0 0 0 0 0 0 0 0 0 0 0 0 0 0 0 0 0 0 0 0 0 0 0 0 0 0 0 0 0 0 0 0 0 0 0 0 0 0 0 0 0 0 0 0 0 0 0 0 0 0 0 0 0 63 68 73 63 68 73 63 68 73 63 68 73 63 68 73 63 68 73 63 68 73 63 68 73 63 68 73 63 68 73 63 68 73 63 68 73 63 68 73 63 68 73 63 68 73 63 68 73 63 68 73 63 68 73 63 68 73 63 68 73 63 68 73 63 68 73 63 68 73 63 68 73 63 68 73 63 68 73 63 68 73 127 134 137 81 85 88 99 104 108 99 104 108 99 104 108 99 104 108 99 104 108 99 104 108 99 104 108 99 104 108 99 104 108 99 104 108 99 104 108 99 104 108 99 104 108 99 104 108 99 104 108 99 104 108 99 104 108 99 104 108 99 104 108 99 104 108 99 104 108 99 104 108 99 104 108 99 104 108 99 104 108 81 85 88 70 76 81 70 76 81 70 76 81 70 76 81 70 76 81 70 76 81 70 76 81 70 76 81 70 76 81 70 76 81 70 76 81 70 76 81 70 76 81 70 76 81 70 76 81 70 76 81 70 76 81 70 76 81 70 76 81 70 76 81 70 76 81 70 76 81 70 76 81 70 76 81 70 76 81 70 76 81 70 76 81 0 0 0 0 0 0 0 0 0 0 0 0 0 0 0 0 0 0 0 0 0 0 0 0 0 0 0 0 0 0 0 0 0 0 0 0 0 0 0 0 0 0 0 0 0 0 0 0 0 0 0 0 0 0 0 0 0 0 0 0 0 0 0 0 0 0 0 0 0
0 0 0 0 0 0 0 0 0 0 0 0 0 0 0 0 0 0 0 0 0 0 0 0 0 0 0 0 0 0 0 0 0 0 0 0 0 0 0 0 0 0 0 0 0 0 0 0 0 0 0 0 0 0 0 0 0 0 0 0 0 0 0 0 0 0 0 0 0 63 68 73 63 68 73 63 68 73 63 68 73 63 68 73 63 68 73 63 68 73 63 68 73 63 68 73 63 68 73 63 68 73 63 68 73 63 68 73 63 68 73 63 68 73 63 68 73 63 68 73 63 68 73 63 68 73 63 68 73 63 68 73 63 68 73 63 68 73 63 68 73 63 68 73 63 68 73 63 68 73 63 68 73 63 68 73 63 68 73 125 132 135 81 85 88 94 99 103 94 99 103 94 99 103 94 99 103 94 99 103 94 99 103 94 99 103 94 99 103 94 99 103 94 99 103 94 99 103 94 99 103 94 99 103 94 99 103 94 99 103 94 99 103 94 99 103 94 99 103 94 99 103 81 85 88 70 76 81 70 76 81 70 76 81 70 76 81 70 76 81 70 76 81 70 76 81 70 76 81 70 76 81 70 76 81 70 76 81 70 76 81 70 76 81 70 76 81 70 76 81 70 76 81 70 76 81 70 76 81 70 76 81 70 76 81 70 76 81 70 76 81 70 76 81 70 76 81 70 76 81 70 76 81 70 76 81 70 76 81 70 76 81 70 76 81 0 0 0 0 0 0 0 0 0 0 0 0 0 0 0 0 0 0 0 0 0 0 0 0 0 0 0 0 0 0 0 0 0 0 0 0 0 0 0 0 0 0 0 0 0 0 0 0 0 0 0 0 0 0 0 0 0 0 0 0 0 0 0 0 0 0 0 0 0
0 0 0 0 0 0 0 0 0 0 0 0 0 0 0 0 0 0 0 0 0 0 0 0 0 0 0 0 0 0 0 0 0 0 0 0 0 0 0 0 0 0 0 0 0 0 0 0 0 0 0 0 0 0 0 0 0 0 0 0 0 0 0 0 0 0 0 0 0 63 68 73 63 68 73 63 68 73 63 68 73 63 68 73 63 68 73 63 68 73 63 68 73 63 68 73 63 68 73 63 68 73 63 68 73 63 68 73 63 68 73 63 68 73 63 68 73 63 68 73 63 68 73 63 68 73 63 68 73 63 68 73 63 68 73 63 68 73 63 68 73 63 68 73 63 68 73 63 68 73 63 68 73 63 68 73 63 68 73 63 68 73 63 68 73 63 68 73 63 68 73 123 130 134 81 85 88 90 94 98 90 94 98 90 94 98 90 94 98 90 94 98 90 94 98 90 94 98 90 94 98 90 94 98 90 94 98 90 94 98 81 85 88 70 76 81 70 76 81 70 76 81 70 76 81 70 76 81 70 76 81 70 76 81 70 76 81 70 76 81 70 76 81 70 76 81 70 76 81 70 76 81 70 76 81 70 76 81 70 76 81 70 76 81 70 76 81 70 76 81 70 76 81 70 76 81 70 76 81 70 76 81 70 76 81 70 76 81 70 76 81 70 76 81 70 76 81 70 76 81 70 76 81 70 76 81 70 76 81 70 76 81 70 76 81 0 0 0 0 0 0 0 0 0 0 0 0 0 0 0 0 0 0 0 0 0 0 0 0 0 0 0 0 0 0 0 0 0 0 0 0 0 0 0 0 0 0 0 0 0 0 0 0 0 0 0 0 0 0 0 0 0 0 0 0 0 0 0 0 0 0 0 0 0
0 0 0 0 0 0 0 0 0 0 0 0 0 0 0 0 0 0 0 0 0 0 0 0 0 0 0 0 0 0 0 0 0 0 0 0 0 0 0 0 0 0 0 0 0 0 0 0 0 0 0 0 0 0 0 0 0 0 0 0 0 0 0 0 0 0 0 0 0 63 68 73 63 68 73 63 68 73 63 68 73 63 68 73 63 68 73 63 68 73 63 68 73 63 68 73 63 68 73 63 68 73 63 68 73 63 68 73 63 68 73 63 68 73 63 68 73 63 68 73 63 68 73 63 68 73 63 68 73 63 68 73 63 68 73 63 68 73 63 68 73 63 68 73 63 68 73 63 68 73 63 68 73 63 68 73 63 68 73 63 68 73 63 68 73 63 68 73 63 68 73 63 68 73 63 68 73 63 68 73 121 128 132 81 85 88 85 89 93 85 89 93 85 89 93 85 89 93 85 89 93 81 85 88 70 76 81 70 76 81 70 76 81 70 76 81 70 76 81 70 76 81 70 76 81 70 76 81 70 76 81 70 76 81 70 76 81 70 76 81 70 76 81 70 76 81 70 76 81 70 76 81 70 76 81 70 76 81 70 76 81 70 76 81 70 76 81 70 76 81 70 76 81 70 76 81 70 76 81 70 76 81 70 76 81 70 76 81 70 76 81 70 76 81 70 76 81 70 76 81 70 76 81 70 76 81 70 76 81 70 76 81 70 76 81 0 0 0 0 0 0 0 0 0 0 0 0 0 0 0 0 0 0 0 0 0 0 0 0 0 0 0 0 0 0 0 0 0 0 0 0 0 0 0 0 0 0 0 0 0 0 0 0 0 0 0 0 0 0 0 0 0 0 0 0 0 0 0 0 0 0 0 0 0
0 0 0 0 0 0 0 0 0 0 0 0 0 0 0 0 0 0 0 0 0 0 0 0 0 0 0 0 0 0 0 0 0 0 0 0 0 0 0 0 0 0 0 0 0 0 0 0 0 0 0 0 0 0 0 0 0 0 0 0 0 0 0 0 0 0 0 0 0 63 68 73 63 68 73 63 68 73 63 68 73 63 68 73 63 68 73 63 68 73 63 68 73 63 68 73 63 68 73 63 68 73 63 68 73 63 68 73 63 68 73 63 68 73 63 68 73 63 68 73 63 68 73 63 68 73 63 68 73 63 68 73 63 68 73 63 68 73 63 68 73 63 68 73 63 68 73 63 68 73 63 68 73 63 68 73 63 68 73 63 68 73 63 68 73 63 68 73 63 68 73 63 68 73 63 68 73 63 68 73 63 68 73 63 68 73 63 68 73 63 68 73 70 76 81 70 76 81 70 76 81 70 76 81 70 76 81 70 76 81 70 76 81 70 76 81 70 76 81 70 76 81 70 76 81 70 76 81 70 76 81 70 76 81 70 76 81 70 76 81 70 76 81 70 76 81 70 76 81 70 76 81 70 76 81 70 76 81 70 76 81 70 76 81 70 76 81 70 76 81 70 76 81 70 76 81 70 76 81 70 76 81 70 76 81 70 76 81 70 76 81 70 76 81 70 76 81 70 76 81 70 76 81 70 76 81 70 76 81 70 76 81 70 76 81 69 73 76 0 0 0 0 0 0 0 0 0 0 0 0 0 0 0 0 0 0 0 0 0 0 0 0 0 0 0 0 0 0 0 0 0 0 0 0 0 0 0 0 0 0 0 0 0 0 0 0 0 0 0 0 0 0 0 0 0 0 0 0 0 0 0 0 0 0
0 0 0 0 0 0 0 0 0 0 0 0 0 0 0 0 0 0 0 0 0 0 0 0 0 0 0 0 0 0 0 0 0 0 0 0 0 0 0 0 0 0 0 0 0 0 0 0 0 0 0 0 0 0 0 0 0 0 0 0 69 73 76 117 124 128 117 124 128 117 124 128 117 124 128 117 124 128 117 124 128 63 68 73 63 68 73 63 68 73 63 68 73 63 68 73 63 68 73 63 68 73 63 68 73 63 68 73 63 68 73 63 68 73 63 68 73 63 68 73 63 68 73 63 68 73 63 68 73 63 68 73 63 68 73 63 68 73 63 68 73 63 68 73 63 68 73 63 68 73 63 68 73 63 68 73 63 68 73 63 68 73 63 68 73 63 68 73 63 68 73 63 68 73 63 68 73 63 68 73 63 68 73 63 68 73 63 68 73 63 68 73 70 76 81 70 76 81 70 76 81 70 76 81 70 76 81 70 76 81 70 76 81 70 76 81 70 76 81 70 76 81 70 76 81 70 76 81 70 76 81 70 76 81 70 76 81 70 76 81 70 76 81 70 76 81 70 76 81 70 76 81 70 76 81 70 76 81 70 76 81 70 76 81 70 76 81 70 76 81 70 76 81 70 76 81 70 76 81 70 76 81 70 76 81 70 76 81 70 76 81 70 76 81 70 76 81 70 76 81 70 76 81 117 124 128 117 124 128 117 124 128 117 124 128 117 124 128 117 124 128 117 124 128 69 73 76 0 0 0 0 0 0 0 0 0 0 0 0 0 0 0 0 0 0 0 0 0 0 0 0 0 0 0 0 0 0 0 0 0 0 0 0 0 0 0 0 0 0 0 0 0 0 0 0 0 0 0 0 0 0 0 0 0
0 0 0 0 0 0 0 0 0 0 0 0 0 0 0 0 0 0 0 0 0 0 0 0 0 0 0 0 0 0 0 0 0 0 0 0 0 0 0 0 0 0 0 0 0 0 0 0 69 73 76 116 123 127 116 123 127 116 123 127 116 123 127 116 123 127 116 123 127 116 123 127 116 123 127 116 123 127 116 123 127 116 123 127 116 123 127 116 123 127 63 68 73 63 68 73 63 68 73 63 68 73 63 68 73 63 68 73 63 68 73 63 68 73 63 68 73 63 68 73 63 68 73 63 68 73 63 68 73 63 68 73 63 68 73 63 68 73 63 68 73 63 68 73 63 68 73 63 68 73 63 68 73 63 68 73 63 68 73 63 68 73 63 68 73 63 68 73 63 68 73 63 68 73 63 68 73 63 68 73 63 68 73 63 68 73 63 68 73 63 68 73 70 76 81 70 76 81 70 76 81 70 76 81 70 76 81 70 76 81 70 76 81 70 76 81 70 76 81 70 76 81 70 76 81 70 76 81 70 76 81 70 76 81 70 76 81 70 76 81 70 76 81 70 76 81 70 76 81 70 76 81 70 76 81 70 76 81 70 76 81 70 76 81 70 76 81 70 76 81 70 76 81 70 76 81 70 76 81 70 76 81 70 76 81 70 76 81 70 76 81 70 76 81 116 123 127 116 123 127 116 123 127 116 123 127 116 123 127 116 123 127 116 123 127 116 123 127 116 123 127 116 123 127 116 123 127 116 123 127 116 123 127 116 123 127 69 73 76 0 0 0 0 0 0 0 0 0 0 0 0 0 0 0 0 0 0 0 0 0 0 0 0 0 0 0 0 0 0 0 0 0 0 0 0 0 0 0 0 0 0 0 0 0
0 0 0 0 0 0 0 0 0 0 0 0 0 0 0 0 0 0 0 0 0 0 0 0 0 0 0 0 0 0 0 0 0 0 0 0 0 0 0 0 0 0 0 0 0 0 0 0 49 54 57 49 54 57 49 54 57 0 0 0 69 73 76 112 119 123 112 119 123 112 119 123 112 119 123 112 119 123 112 119 123 112 119 123 112 119 123 112 119 123 112 119 123 112 119 123 112 119 123 112 119 123 63 68 73 63 68 73 63 68 73 63 68 73 63 68 73 63 68 73 63 68 73 63 68 73 63 68 73 63 68 73 63 68 73 63 68 73 63 68 73 63 68 73 63 68 73 63 68 73 63 68 73 63 68 73 63 68 73 63 68 73 63 68 73 63 68 73 63 68 73 63 68 73 63 68 73 63 68 73 63 68 73 63 68 73 63 68 73 63 68 73 70 76 81 70 76 81 70 76 81 70 76 81 70 76 81 70 76 81 70 76 81 70 76 81 70 76 81 70 76 81 70 76 81 70 76 81 70 76 81 70 76 81 70 76 81 70 76 81 70 76 81 70 76 81 70 76 81 70 76 81 70 76 81 70 76 81 70 76 81 70 76 81 70 76 81 70 76 81 70 76 81 70 76 81 70 76 81 70 76 81 112 119 123 112 119 123 112 119 123 112 119 123 112 119 123 112 119 123 112 119 123 112 119 123 112 119 123 112 119 123 112 119 123 112 119 123 112 119 123 112 119 123 69 73 76 54 60 64 54 60 64 54 60 64 0 0 0 0 0 0 0 0 0 0 0 0 0 0 0 0 0 0 0 0 0 0 0 0 0 0 0 0 0 0 0 0 0 0 0 0 0 0 0 0 0 0 0 0 0 0 0 0
0 0 0 0 0 0 0 0 0 0 0 0 0 0 0 0 0 0 0 0 0 0 0 0 0 0 0 0 0 0 0 0 0 0 0 0 0 0 0 0 0 0 0 0 0 0 0 0 49 54 57 49 54 57 49 54 57 49 54 57 49 54 57 49 54 57 0 0 0 69 73 76 109 115 119 109 115 119 109 115 119 109 115 119 109 115 119 109 115 119 109 115 119 109 115 119 109 115 119 109 115 119 109 115 119 109 115 119 109 115 119 63 68 73 63 68 73 63 68 73 63 68 73 63 68 73 63 68 73 63 68 73 63 68 73 63 68 73 63 68 73 63 68 73 63 68 73 63 68 73 63 68 73 63 68 73 63 68 73 63 68 73 63 68 73 63 68 73 63 68 73 63 68 73 63 68 73 63 68 73 63 68 73 63 68 73 63 68 73 63 68 73 70 76 81 70 76 81 70 76 81 70 76 81 70 76 81 70 76 81 70 76 81 70 76 81 70 76 81 70 76 81 70 76 81 70 76 81 70 76 81 70 76 81 70 76 81 70 76 81 70 76 81 70 76 81 70 76 81 70 76 81 70 76 81 70 76 81 70 76 81 70 76 81 70 76 81 70 76 81 70 76 81 109 115 119 109 115 119 109 115 119 109 115 119 109 115 119 109 115 119 109 115 119 109 115 119 109 115 119 109 115 119 109 115 119 109 115 119 109 115 119 109 115 119 69 73 76 54 60 64 54 60 64 54 60 64 54 60 64 54 60 64 54 60 64 0 0 0 0 0 0 0 0 0 0 0 0 0 0 0 0 0 0 0 0 0 0 0 0 0 0 0 0 0 0 0 0 0 0 0 0 0 0 0 0 0 0 0 0 0 0 0 0
0 0 0 0 0 0 0 0 0 0 0 0 0 0 0 0 0 0 0 0 0 0 0 0 0 0 0 0 0 0 0 0 0 0 0 0 0 0 0 0 0 0 0 0 0 0 0 0 49 54 57 49 54 57 49 54 57 49 54 57 49 54 57 49 54 57 49 54 57 49 54 57 49 54 57 49 54 57 0 0 0 69 73 76 105 112 116 105 112 116 105 112 116 105 112 116 105 112 116 105 112 116 105 112 116 105 112 116 105 112 116 105 112 116 105 112 116 105 112 116 105 112 116 63 68 73 63 68 73 63 68 73 63 68 73 63 68 73 63 68 73 63 68 73 63 68 73 63 68 73 63 68 73 63 68 73 63 68 73 63 68 73 63 68 73 63 68 73 63 68 73 63 68 73 63 68 73 63 68 73 63 68 73 63 68 73 63 68 73 63 68 73 70 76 81 70 76 81 70 76 81 70 76 81 70 76 81 70 76 81 70 76 81 70 76 81 70 76 81 70 76 81 70 76 81 70 76 81 70 76 81 70 76 81 70 76 81 70 76 81 70 76 81 70 76 81 70 76 81 70 76 81 70 76 81 70 76 81 70 76 81 105 112 116 105 112 116 105 112 116 105 112 116 105 112 116 105 112 116 105 112 116 105 112 116 105 112 116 105 112 116 105 112 116 105 112 116 105 112 116 105 112 116 69 73 76 54 60 64 54 60 64 54 60 64 54 60 64 54 60 64 54 60 64 54 60 64 54 60 64 54 60 64 54 60 64 0 0 0 0 0 0 0 0 0 0 0 0 0 0 0 0 0 0 0 0 0 0 0 0 0 0 0 0 0 0 0 0 0 0 0 0 0 0 0 0 0 0 0 0 0 0 0 0
0 0 0 0 0 0 0 0 0 0 0 0 0 0 0 0 0 0 0 0 0 0 0 0 0 0 0 0 0 0 0 0 0 0 0 0 0 0 0 0 0 0 0 0 0 0 0 0 49 54 57 49 54 57 49 54 57 49 54 57 49 54 57 49 54 57 49 54 57 49 54 57 49 54 57 49 54 57 49 54 57 49 54 57 49 54 57 0 0 0 69 73 76 102 108 112 102 108 112 102 108 112 102 108 112 102 108 112 102 108 112 102 108 112 102 108 112 102 108 112 102 108 112 102 108 112 102 108 112 102 108 112 63 68 73 63 68 73 63 68 73 63 68 73 63 68 73 63 68 73 63 68 73 63 68 73 63 68 73 63 68 73 63 68 73 63 68 73 63 68 73 63 68 73 63 68 73 63 68 73 63 68 73 63 68 73 63 68 73 63 68 73 70 76 81 70 76 81 70 76 81 70 76 81 70 76 81 70 76 81 70 76 81 70 76 81 70 76 81 70 76 81 70 76 81 70 76 81 70 76 81 70 76 81 70 76 81 70 76 81 70 76 81 70 76 81 70 76 81 70 76 81 102 108 112 102 108 112 102 108 112 102 108 112 102 108 112 102 108 112 102 108 112 102 108 112 102 108 112 102 108 112 102 108 112 102 108 112 102 108 112 102 108 112 69 73 76 54 60 64 54 60 64 54 60 64 54 60 64 54 60 64 54 60 64 54 60 64 54 60 64 54 60 64 54 60 64 54 60 64 54 60 64 54 60 64 0 0 0 0 0 0 0 0 0 0 0 0 0 0 0 0 0 0 0 0 0 0 0 0 0 0 0 0 0 0 0 0 0 0 0 0 0 0 0 0 0 0 0 0 0 0 0 0
0 0 0 0 0 0 0 0 0 0 0 0 0 0 0 0 0 0 0 0 0 0 0 0 0 0 0 0 0 0 0 0 0 0 0 0 0 0 0 0 0 0 0 0 0 0 0 0 49 54 57 49 54 57 49 54 57 49 54 57 49 54 57 49 54 57 49 54 57 49 54 57 49 54 57 49 54 57 49 54 57 49 54 57 49 54 57 49 54 57 49 54 57 49 54 57 49 54 57 0 0 0 69 73 76 99 105 108 99 105 108 99 105 108 99 105 108 99 105 108 99 105 108 99 105 108 99 105 108 99 105 108 99 105 108 99 105 108 99 105 108 63 68 73 63 68 73 63 68 73 63 68 73 63 68 73 63 68 73 63 68 73 63 68 73 63 68 73 63 68 73 63 68 73 63 68 73 63 68 73 63 68 73 63 68 73 63 68 73 63 68 73 70 76 81 70 76 81 70 76 81 70 76 81 70 76 81 70 76 81 70 76 81 70 76 81 70 76 81 70 76 81 70 76 81 70 76 81 70 76 81 70 76 81 70 76 81 70 76 81 70 76 81 99 105 108 99 105 108 99 105 108 99 105 108 99 105 108 99 105 108 99 105 108 99 105 108 99 105 108 99 105 108 99 105 108 99 105 108 99 105 108 69 73 76 54 60 64 54 60 64 54 60 64 54 60 64 54 60 64 54 60 64 54 60 64 54 60 64 54 60 64 54 60 64 54 60 64 54 60 64 54 60 64 54 60 64 54 60 64 54 60 64 54 60 64 0 0 0 0 0 0 0 0 0 0 0 0 0 0 0 0 0 0 0 0 0 0 0 0 0 0 0 0 0 0 0 0 0 0 0 0 0 0 0 0 0 0 0 0 0 0 0 0
0 0 0 0 0 0 0 0 0 0 0 0 0 0 0 0 0 0 0 0 0 0 0 0 0 0 0 0 0 0 0 0 0 0 0 0 0 0 0 0 0 0 0 0 0 0 0 0 49 54 57 49 54 57 49 54 57 49 54 57 49 54 57 49 54 57 49 54 57 49 54 57 49 54 57 49 54 57 49 54 57 49 54 57 49 54 57 49 54 57 49 54 57 49 54 57 49 54 57 49 54 57 49 54 57 49 54 57 0 0 0 69 73 76 95 101 105 95 101 105 95 101 105 95 101 105 95 101 105 95 101 105 95 101 105 95 101 105 95 101 105 95 101 105 95 101 105 95 101 105 95 101 105 63 68 73 63 68 73 63 68 73 63 68 73 63 68 73 63 68 73 63 68 73 63 68 73 63 68 73 63 68 73 63 68 73 63 68 73 63 68 73 70 76 81 70 76 81 70 76 81 70 76 81 70 76 81 70 76 81 70 76 81 70 76 81 70 76 81 70 76 81 70 76 81 70 76 81 70 76 81 95 101 105 95 101 105 95 101 105 95 101 105 95 101 105 95 101 105 95 101 105 95 101 105 95 101 105 95 101 105 95 101 105 95 101 105 95 101 105 95 101 105 69 73 76 54 60 64 54 60 64 54 60 64 54 60 64 54 60 64 54 60 64 54 60 64 54 60 64 54 60 64 54 60 64 54 60 64 54 60 64 54 60 64 54 60 64 54 60 64 54 60 64 54 60 64 54 60 64 54 60 64 54 60 64 0 0 0 0 0 0 0 0 0 0 0 0 0 0 0 0 0 0 0 0 0 0 0 0 0 0 0 0 0 0 0 0 0 0 0 0 0 0 0 0 0 0 0 0 0 0 0 0
0 0 0 0 0 0 0 0 0 0 0 0 0 0 0 0 0 0 0 0 0 0 0 0 0 0 0 0 0 0 0 0 0 0 0 0 0 0 0 0 0 0 0 0 0 0 0 0 49 54 57 49 54 57 49 54 57 49 54 57 49 54 57 49 54 57 49 54 57 49 54 57 49 54 57 49 54 57 49 54 57 49 54 57 49 54 57 49 54 57 49 54 57 49 54 57 49 54 57 49 54 57 49 54 57 49 54 57 49 54 57 49 54 57 49 54 57 49 54 57 69 73 76 92 98 101 92 98 101 92 98 101 92 98 101 92 98 101 92 98 101 92 98 101 92 98 101 92 98 101 92 98 101 92 98 101 92 98 101 92 98 101 63 68 73 63 68 73 63 68 73 63 68 73 63 68 73 63 68 73 63 68 73 63 68 73 63 68 73 63 68 73 70 76 81 70 76 81 70 76 81 70 76 81 70 76 81 70 76 81 70 76 81 70 76 81 70 76 81 70 76 81 92 98 101 92 98 101 92 98 101 92 98 101 92 98 101 92 98 101 92 98 101 92 98 101 92 98 101 92 98 101 92 98 101 92 98 101 92 98 101 92 98 101 69 73 76 54 60 64 54 60 64 54 60 64 54 60 64 54 60 64 54 60 64 54 60 64 54 60 64 54 60 64 54 60 64 54 60 64 54 60 64 54 60 64 54 60 64 54 60 64 54 60 64 54 60 64 54 60 64 54 60 64 54 60 64 54 60 64 54 60 64 54 60 64 0 0 0 0 0 0 0 0 0 0 0 0 0 0 0 0 0 0 0 0 0 0 0 0 0 0 0 0 0 0 0 0 0 0 0 0 0 0 0 0 0 0 0 0 0 0 0 0
0 0 0 0 0 0 0 0 0 0 0 0 0 0 0 0 0 0 0 0 0 0 0 0 0 0 0 0 0 0 0 0 0 0 0 0 0 0 0 0 0 0 0 0 0 0 0 0 49 54 57 49 54 57 49 54 57 49 54 57 49 54 57 49 54 57 49 54 57 49 54 57 49 54 57 49 54 57 49 54 57 49 54 57 49 54 57 49 54 57 49 54 57 49 54 57 49 54 57 49 54 57 49 54 57 49 54 57 49 54 57 49 54 57 49 54 57 49 54 57 49 54 57 49 54 57 49 54 57 0 0 0 69 73 76 89 94 97 89 94 97 89 94 97 89 94 97 89 94 97 89 94 97 89 94 97 89 94 97 89 94 97 89 94 97 89 94 97 89 94 97 89 94 97 63 68 73 63 68 73 63 68 73 63 68 73 63 68 73 63 68 73 70 76 81 70 76 81 70 76 81 70 76 81 70 76 81 70 76 81 89 94 97 89 94 97 89 94 97 89 94 97 89 94 97 89 94 97 89 94 97 89 94 97 89 94 97 89 94 97 89 94 97 89 94 97 89 94 97 89 94 97 69 73 76 54 60 64 54 60 64 54 60 64 54 60 64 54 60 64 54 60 64 54 60 64 54 60 64 54 60 64 54 60 64 54 60 64 54 60 64 54 60 64 54 60 64 54 60 64 54 60 64 54 60 64 54 60 64 54 60 64 54 60 64 54 60 64 54 60 64 54 60 64 54 60 64 54 60 64 54 60 64 54 60 64 0 0 0 0 0 0 0 0 0 0 0 0 0 0 0 0 0 0 0 0 0 0 0 0 0 0 0 0 0 0 0 0 0 0 0 0 0 0 0 0 0 0 0 0 0 0 0 0
0 0 0 0 0 0 0 0 0 0 0 0 0 0 0 0 0 0 0 0 0 0 0 0 0 0 0 0 0 0 0 0 0 0 0 0 0 0 0 0 0 0 0 0 0 0 0 0 49 54 57 49 54 57 49 54 57 49 54 57 49 54 57 49 54 57 49 54 57 49 54 57 49 54 57 49 54 57 49 54 57 49 54 57 49 54 57 49 54 57 49 54 57 49 54 57 49 54 57 49 54 57 49 54 57 49 54 57 49 54 57 49 54 57 49 54 57 49 54 57 49 54 57 49 54 57 49 54 57 49 54 57 49 54 57 49 54 57 0 0 0 69 73 76 85 90 94 85 90 94 85 90 94 85 90 94 85 90 94 85 90 94 85 90 94 85 90 94 85 90 94 85 90 94 85 90 94 85 90 94 85 90 94 63 68 73 63 68 73 63 68 73 70 76 81 70 76 81 70 76 81 85 90 94 85 90 94 85 90 94 85 90 94 85 90 94 85 90 94 85 90 94 85 90 94 85 90 94 85 90 94 85 90 94 85 90 94 85 90 94 85 90 94 69 73 76 54 60 64 54 60 64 54 60 64 54 60 64 54 60 64 54 60 64 54 60 64 54 60 64 54 60 64 54 60 64 54 60 64 54 60 64 54 60 64 54 60 64 54 60 64 54 60 64 54 60 64 54 60 64 54 60 64 54 60 64 54 60 64 54 60 64 54 60 64 54 60 64 54 60 64 54 60 64 54 60 64 54 60 64 54 60 64 54 60 64 0 0 0 0 0 0 0 0 0 0 0 0 0 0 0 0 0 0 0 0 0 0 0 0 0 0 0 0 0 0 0 0 0 0 0 0 0 0 0 0 0 0 0 0 0 0 0 0
0 0 0 0 0 0 0 0 0 0 0 0 0 0 0 0 0 0 0 0 0 0 0 0 0 0 0 0 0 0 0 0 0 0 0 0 0 0 0 0 0 0 0 0 0 0 0 0 49 54 57 49 54 57 49 54 57 49 54 57 49 54 57 49 54 57 49 54 57 49 54 57 49 54 57 49 54 57 49 54 57 49 54 57 49 54 57 49 54 57 49 54 57 49 54 57 49 54 57 49 54 57 49 54 57 49 54 57 49 54 57 49 54 57 49 54 57 49 54 57 49 54 57 49 54 57 49 54 57 49 54 57 49 54 57 49 54 57 49 54 57 49 54 57 49 54 57 49 54 57 0 0 0 69 73 76 82 87 90 82 87 90 82 87 90 82 87 90 82 87 90 82 87 90 82 87 90 82 87 90 82 87 90 82 87 90 82 87 90 82 87 90 82 87 90 82 87 90 82 87 90 82 87 90 82 87 90 82 87 90 82 87 90 82 87 90 82 87 90 82 87 90 82 87 90 82 87 90 82 87 90 69 73 76 54 60 64 54 60 64 54 60 64 54 60 64 54 60 64 54 60 64 54 60 64 54 60 64 54 60 64 54 60 64 54 60 64 54 60 64 54 60 64 54 60 64 54 60 64 54 60 64 54 60 64 54 60 64 54 60 64 54 60 64 54 60 64 54 60 64 54 60 64 54 60 64 54 60 64 54 60 64 54 60 64 54 60 64 54 60 64 54 60 64 54 60 64 54 60 64 54 60 64 54 60 64 0 0 0 0 0 0 0 0 0 0 0 0 0 0 0 0 0 0 0 0 0 0 0 0 0 0 0 0 0 0 0 0 0 0 0 0 0 0 0 0 0 0 0 0 0 0 0 0
0 0 0 0 0 0 0 0 0 0 0 0 0 0 0 0 0 0 0 0 0 0 0 0 0 0 0 0 0 0 0 0 0 0 0 0 0 0 0 0 0 0 0 0 0 0 0 0 49 54 57 49 54 57 49 54 57 49 54 57 49 54 57 49 54 57 49 54 57 49 54 57 49 54 57 49 54 57 49 54 57 49 54 57 49 54 57 49 54 57 49 54 57 49 54 57 49 54 57 49 54 57 49 54 57 49 54 57 49 54 57 49 54 57 49 54 57 49 54 57 49 54 57 49 54 57 49 54 57 49 54 57 49 54 57 49 54 57 49 54 57 49 54 57 49 54 57 49 54 57 49 54 57 49 54 57 49 54 57 0 0 0 69 73 76 79 83 86 79 83 86 79 83 86 79 83 86 79 83 86 79 83 86 79 83 86 79 83 86 79 83 86 79 83 86 79 83 86 79 83 86 79 83 86 79 83 86 79 83 86 79 83 86 79 83 86 79 83 86 79 83 86 69 73 76 54 60 64 54 60 64 54 60 64 54 60 64 54 60 64 54 60 64 54 60 64 54 60 64 54 60 64 54 60 64 54 60 64 54 60 64 54 60 64 54 60 64 54 60 64 54 60 64 54 60 64 54 60 64 54 60 64 54 60 64 54 60 64 54 60 64 54 60 64 54 60 64 54 60 64 54 60 64 54 60 64 54 60 64 54 60 64 54 60 64 54 60 64 54 60 64 54 60 64 54 60 64 54 60 64 54 60 64 54 60 64 0 0 0 0 0 0 0 0 0 0 0 0 0 0 0 0 0 0 0 0 0 0 0 0 0 0 0 0 0 0 0 0 0 0 0 0 0 0 0 0 0 0 0 0 0 0 0 0
0 0 0 0 0 0 0 0 0 0 0 0 0 0 0 0 0 0 0 0 0 0 0 0 0 0 0 0 0 0 0 0 0 0 0 0 0 0 0 0 0 0 0 0 0 0 0 0 49 54 57 49 54 57 49 54 57 49 54 57 49 54 57 49 54 57 49 54 57 49 54 57 49 54 57 49 54 57 49 54 57 49 54 57 49 54 57 49 54 57 49 54 57 49 54 57 49 54 57 49 54 57 49 54 57 49 54 57 49 54 57 49 54 57 49 54 57 49 54 57 49 54 57 49 54 57 49 54 57 49 54 57 49 54 57 49 54 57 49 54 57 49 54 57 49 54 57 49 54 57 49 54 57 49 54 57 49 54 57 49 54 57 49 54 57 49 54 57 49 54 57 0 0 0 69 73 76 75 80 83 75 80 83 75 80 83 75 80 83 75 80 83 75 80 83 75 80 83 75 80 83 75 80 83 75 80 83 75 80 83 69 73 76 54 60 64 54 60 64 54 60 64 54 60 64 54 60 64 54 60 64 54 60 64 54 60 64 54 60 64 54 60 64 54 60 64 54 60 64 54 60 64 54 60 64 54 60 64 54 60 64 54 60 64 54 60 64 54 60 64 54 60 64 54 60 64 54 60 64 54 60 64 54 60 64 54 60 64 54 60 64 54 60 64 54 60 64 54 60 64 54 60 64 54 60 64 54 60 64 54 60 64 54 60 64 54 60 64 54 60 64 54 60 64 54 60 64 54 60 64 54 60 64 54 60 64 0 0 0 0 0 0 0 0 0 0 0 0 0 0 0 0 0 0 0 0 0 0 0 0 0 0 0 0 0 0 0 0 0 0 0 0 0 0 0 0 0 0 0 0 0 0 0 0
0 0 0 0 0 0 0 0 0 0 0 0 0 0 0 0 0 0 0 0 0 0 0 0 0 0 0 0 0 0 0 0 0 0 0 0 0 0 0 0 0 0 0 0 0 0 0 0 49 54 57 49 54 57 49 54 57 49 54 57 49 54 57 49 54 57 49 54 57 49 54 57 49 54 57 49 54 57 49 54 57 49 54 57 49 54 57 49 54 57 49 54 57 49 54 57 49 54 57 49 54 57 49 54 57 49 54 57 49 54 57 49 54 57 49 54 57 49 54 57 49 54 57 49 54 57 49 54 57 49 54 57 49 54 57 49 54 57 49 54 57 49 54 57 49 54 57 49 54 57 49 54 57 49 54 57 49 54 57 49 54 57 49 54 57 49 54 57 49 54 57 49 54 57 49 54 57 49 54 57 0 0 0 69 73 76 72 76 79 72 76 79 72 76 79 72 76 79 72 76 79 69 73 76 54 60 64 54 60 64 54 60 64 54 60 64 54 60 64 54 60 64 54 60 64 54 60 64 54 60 64 54 60 64 54 60 64 54 60 64 54 60 64 54 60 64 54 60 64 54 60 64 54 60 64 54 60 64 54 60 64 54 60 64 54 60 64 54 60 64 54 60 64 54 60 64 54 60 64 54 60 64 54 60 64 54 60 64 54 60 64 54 60 64 54 60 64 54 60 64 54 60 64 54 60 64 54 60 64 54 60 64 54 60 64 54 60 64 54 60 64 54 60 64 54 60 64 54 60 64 54 60 64 54 60 64 0 0 0 0 0 0 0 0 0 0 0 0 0 0 0 0 0 0 0 0 0 0 0 0 0 0 0 0 0 0 0 0 0 0 0 0 0 0 0 0 0 0 0 0 0 0 0 0
0 0 0 0 0 0 0 0 0 0 0 0 0 0 0 0 0 0 0 0 0 0 0 0 0 0 0 0 0 0 0 0 0 0 0 0 0 0 0 0 0 0 0 0 0 0 0 0 49 54 57 49 54 57 49 54 57 49 54 57 49 54 57 49 54 57 49 54 57 49 54 57 49 54 57 49 54 57 49 54 57 49 54 57 49 54 57 49 54 57 49 54 57 49 54 57 49 54 57 49 54 57 49 54 57 49 54 57 49 54 57 49 54 57 49 54 57 49 54 57 49 54 57 49 54 57 49 54 57 49 54 57 49 54 57 49 54 57 49 54 57 49 54 57 49 54 57 49 54 57 49 54 57 49 54 57 49 54 57 49 54 57 49 54 57 49 54 57 49 54 57 49 54 57 49 54 57 49 54 57 49 54 57 49 54 57 49 54 57 49 54 57 54 60 64 54 60 64 54 60 64 54 60 64 54 60 64 54 60 64 54 60 64 54 60 64 54 60 64 54 60 64 54 60 64 54 60 64 54 60 64 54 60 64 54 60 64 54 60 64 54 60 64 54 60 64 54 60 64 54 60 64 54 60 64 54 60 64 54 60 64 54 60 64 54 60 64 54 60 64 54 60 64 54 60 64 54 60 64 54 60 64 54 60 64 54 60 64 54 60 64 54 60 64 54 60 64 54 60 64 54 60 64 54 60 64 54 60 64 54 60 64 54 60 64 54 60 64 54 60 64 54 60 64 54 60 64 54 60 64 54 60 64 54 60 64 0 0 0 0 0 0 0 0 0 0 0 0 0 0 0 0 0 0 0 0 0 0 0 0 0 0 0 0 0 0 0 0 0 0 0 0 0 0 0 0 0 0 0 0 0 0 0 0
0 0 0 0 0 0 0 0 0 0 0 0 0 0 0 0 0 0 0 0 0 0 0 0 0 0 0 0 0 0 0 0 0 0 0 0 0 0 0 0 0 0 0 0 0 0 0 0 0 0 0 0 0 0 0 0 0 0 0 0 49 54 57 49 54 57 49 54 57 49 54 57 49 54 57 49 54 57 49 54 57 49 54 57 49 54 57 49 54 57 49 54 57 49 54 57 49 54 57 49 54 57 49 54 57 49 54 57 49 54 57 49 54 57 49 54 57 49 54 57 49 54 57 49 54 57 49 54 57 49 54 57 49 54 57 49 54 57 49 54 57 49 54 57 49 54 57 49 54 57 49 54 57 49 54 57 49 54 57 49 54 57 49 54 57 49 54 57 49 54 57 49 54 57 49 54 57 49 54 57 49 54 57 49 54 57 49 54 57 49 54 57 54 60 64 54 60 64 54 60 64 54 60 64 54 60 64 54 60 64 54 60 64 54 60 64 54 60 64 54 60 64 54 60 64 54 60 64 54 60 64 54 60 64 54 60 64 54 60 64 54 60 64 54 60 64 54 60 64 54 60 64 54 60 64 54 60 64 54 60 64 54 60 64 54 60 64 54 60 64 54 60 64 54 60 64 54 60 64 54 60 64 54 60 64 54 60 64 54 60 64 54 60 64 54 60 64 54 60 64 54 60 64 54 60 64 54 60 64 54 60 64 54 60 64 54 60 64 54 60 64 54 60 64 0 0 0 0 0 0 0 0 0 0 0 0 0 0 0 0 0 0 0 0 0 0 0 0 0 0 0 0 0 0 0 0 0 0 0 0 0 0 0 0 0 0 0 0 0 0 0 0 0 0 0 0 0 0 0 0 0 0 0 0
0 0 0 0 0 0 0 0 0 0 0 0 0 0 0 0 0 0 0 0 0 0 0 0 0 0 0 0 0 0 0 0 0 0 0 0 0 0 0 0 0 0 0 0 0 0 0 0 0 0 0 0 0 0 0 0 0 0 0 0 0 0 0 0 0 0 0 0 0 49 54 57 49 54 57 49 54 57 49 54 57 49 54 57 49 54 57 49 54 57 49 54 57 49 54 57 49 54 57 49 54 57 49 54 57 49 54 57 49 54 57 49 54 57 49 54 57 49 54 57 49 54 57 49 54 57 49 54 57 49 54 57 49 54 57 49 54 57 49 54 57 49 54 57 49 54 57 49 54 57 49 54 57 49 54 57 49 54 57 49 54 57 49 54 57 49 54 57 49 54 57 49 54 57 49 54 57 49 54 57 49 54 57 49 54 57 49 54 57 49 54 57 54 60 64 54 60 64 54 60 64 54 60 64 54 60 64 54 60 64 54 60 64 54 60 64 54 60 64 54 60 64 54 60 64 54 60 64 54 60 64 54 60 64 54 60 64 54 60 64 54 60 64 54 60 64 54 60 64 54 60 64 54 60 64 54 60 64 54 60 64 54 60 64 54 60 64 54 60 64 54 60 64 54 60 64 54 60 64 54 60 64 54 60 64 54 60 64 54 60 64 54 60 64 54 60 64 54 60 64 54 60 64 54 60 64 54 60 64 54 60 64 54 60 64 0 0 0 0 0 0 0 0 0 0 0 0 0 0 0 0 0 0 0 0 0 0 0 0 0 0 0 0 0 0 0 0 0 0 0 0 0 0 0 0 0 0 0 0 0 0 0 0 0 0 0 0 0 0 0 0 0 0 0 0 0 0 0 0 0 0 0 0 0
0 0 0 0 0 0 0 0 0 0 0 0 0 0 0 0 0 0 0 0 0 0 0 0 0 0 0 0 0 0 0 0 0 0 0 0 0 0 0 0 0 0 0 0 0 0 0 0 0 0 0 0 0 0 0 0 0 0 0 0 0 0 0 0 0 0 0 0 0 0 0 0 0 0 0 0 0 0 0 0 0 49 54 57 49 54 57 49 54 57 49 54 57 49 54 57 49 54 57 49 54 57 49 54 57 49 54 57 49 54 57 49 54 57 49 54 57 49 54 57 49 54 57 49 54 57 49 54 57 49 54 57 49 54 57 49 54 57 49 54 57 49 54 57 49 54 57 49 54 57 49 54 57 49 54 57 49 54 57 49 54 57 49 54 57 49 54 57 49 54 57 49 54 57 49 54 57 49 54 57 49 54 57 49 54 57 49 54 57 49 54 57 54 60 64 54 60 64 54 60 64 54 60 64 54 60 64 54 60 64 54 60 64 54 60 64 54 60 64 54 60 64 54 60 64 54 60 64 54 60 64 54 60 64 54 60 64 54 60 64 54 60 64 54 60 64 54 60 64 54 60 64 54 60 64 54 60 64 54 60 64 54 60 64 54 60 64 54 60 64 54 60 64 54 60 64 54 60 64 54 60 64 54 60 64 54 60 64 54 60 64 54 60 64 54 60 64 54 60 64 54 60 64 0 0 0 0 0 0 0 0 0 0 0 0 0 0 0 0 0 0 0 0 0 0 0 0 0 0 0 0 0 0 0 0 0 0 0 0 0 0 0 0 0 0 0 0 0 0 0 0 0 0 0 0 0 0 0 0 0 0 0 0 0 0 0 0 0 0 0 0 0 0 0 0 0 0 0 0 0 0 0 0 0
0 0 0 0 0 0 0 0 0 0 0 0 0 0 0 0 0 0 0 0 0 0 0 0 0 0 0 0 0 0 0 0 0 0 0 0 0 0 0 0 0 0 0 0 0 0 0 0 0 0 0 0 0 0 0 0 0 0 0 0 0 0 0 0 0 0 0 0 0 0 0 0 0 0 0 0 0 0 0 0 0 0 0 0 0 0 0 0 0 0 49 54 57 49 54 57 49 54 57 49 54 57 49 54 57 49 54 57 49 54 57 49 54 57 49 54 57 49 54 57 49 54 57 49 54 57 49 54 57 49 54 57 49 54 57 49 54 57 49 54 57 49 54 57 49 54 57 49 54 57 49 54 57 49 54 57 49 54 57 49 54 57 49 54 57 49 54 57 49 54 57 49 54 57 49 54 57 49 54 57 49 54 57 49 54 57 49 54 57 49 54 57 54 60 64 54 60 64 54 60 64 54 60 64 54 60 64 54 60 64 54 60 64 54 60 64 54 60 64 54 60 64 54 60 64 54 60 64 54 60 64 54 60 64 54 60 64 54 60 64 54 60 64 54 60 64 54 60 64 54 60 64 54 60 64 54 60 64 54 60 64 54 60 64 54 60 64 54 60 64 54 60 64 54 60 64 54 60 64 54 60 64 54 60 64 54 60 64 54 60 64 54 60 64 0 0 0 0 0 0 0 0 0 0 0 0 0 0 0 0 0 0 0 0 0 0 0 0 0 0 0 0 0 0 0 0 0 0 0 0 0 0 0 0 0 0 0 0 0 0 0 0 0 0 0 0 0 0 0 0 0 0 0 0 0 0 0 0 0 0 0 0 0 0 0 0 0 0 0 0 0 0 0 0 0 0 0 0 0 0 0 0 0 0
0 0 0 0 0 0 0 0 0 0 0 0 0 0 0 0 0 0 0 0 0 0 0 0 0 0 0 0 0 0 0 0 0 0 0 0 0 0 0 0 0 0 0 0 0 0 0 0 0 0 0 0 0 0 0 0 0 0 0 0 0 0 0 0 0 0 0 0 0 0 0 0 0 0 0 0 0 0 0 0 0 0 0 0 0 0 0 0 0 0 0 0 0 0 0 0 0 0 0 0 0 0 49 54 57 49 54 57 49 54 57 49 54 57 49 54 57 49 54 57 49 54 57 49 54 57 49 54 57 49 54 57 49 54 57 49 54 57 49 54 57 49 54 57 49 54 57 49 54 57 49 54 57 49 54 57 49 54 57 49 54 57 49 54 57 49 54 57 49 54 57 49 54 57 49 54 57 49 54 57 49 54 57 49 54 57 49 54 57 49 54 57 54 60 64 54 60 64 54 60 64 54 60 64 54 60 64 54 60 64 54 60 64 54 60 64 54 60 64 54 60 64 54 60 64 54 60 64 54 60 64 54 60 64 54 60 64 54 60 64 54 60 64 54 60 64 54 60 64 54 60 64 54 60 64 54 60 64 54 60 64 54 60 64 54 60 64 54 60 64 54 60 64 54 60 64 54 60 64 54 60 64 0 0 0 0 0 0 0 0 0 0 0 0 0 0 0 0 0 0 0 0 0 0 0 0 0 0 0 0 0 0 0 0 0 0 0 0 0 0 0 0 0 0 0 0 0 0 0 0 0 0 0 0 0 0 0 0 0 0 0 0 0 0 0 0 0 0 0 0 0 0 0 0 0 0 0 0 0 0 0 0 0 0 0 0 0 0 0 0 0 0 0 0 0 0 0 0 0 0 0 0 0 0
