P3
64 48
255
0 0 0 0 0 0 0 0 0 0 0 0 0 0 0 0 0 0 0 0 0 0 0 0 0 0 0 0 0 0 0 0 0 0 0 0 0 0 0 0 0 0 0 0 0 0 0 0 0 0 0 0 0 0 0 0 0 0 0 0 0 0 0 0 0 0 0 0 0 0 0 0 0 0 0 0 0 0 0 0 0 0 0 0 0 0 0 0 0 0 0 0 0 0 0 0 0 0 0 0 0 0 0 0 0 0 0 0 0 0 0 0 0 0 0 0 0 0 0 0 0 0 0 0 0 0 0 0 0 0 0 0 0 0 0 0 0 0 0 0 0 0 0 0 0 0 0 0 0 0 0 0 0 0 0 0 0 0 0 0 0 0 0 0 0 0 0 0 0 0 0 0 0 0 0 0 0 0 0 0 0 0 0 0 0 0 0 0 0 0 0 0
0 0 0 0 0 0 0 0 0 0 0 0 0 0 0 0 0 0 0 0 0 0 0 0 0 0 0 0 0 0 0 0 0 0 0 0 0 0 0 0 0 0 0 0 0 0 0 0 0 0 0 0 0 0 0 0 0 0 0 0 0 0 0 0 0 0 0 0 0 0 0 0 0 0 0 0 0 0 0 0 0 0 0 0 0 0 0 0 0 0 0 0 0 0 0 0 0 0 0 0 0 0 0 0 0 0 0 0 0 0 0 0 0 0 0 0 0 0 0 0 0 0 0 0 0 0 0 0 0 0 0 0 0 0 0 0 0 0 0 0 0 0 0 0 0 0 0 0 0 0 0 0 0 0 0 0 0 0 0 0 0 0 0 0 0 0 0 0 0 0 0 0 0 0 0 0 0 0 0 0 0 0 0 0 0 0 0 0 0 0 0 0
0 0 0 0 0 0 0 0 0 0 0 0 0 0 0 0 0 0 0 0 0 0 0 0 0 0 0 0 0 0 0 0 0 0 0 0 0 0 0 0 0 0 0 0 0 0 0 0 0 0 0 0 0 0 0 0 0 0 0 0 0 0 0 0 0 0 0 0 0 0 0 0 0 0 0 0 0 0 0 0 0 0 0 0 0 0 0 0 0 0 0 0 0 0 0 0 0 0 0 0 0 0 0 0 0 0 0 0 0 0 0 0 0 0 0 0 0 0 0 0 0 0 0 0 0 0 0 0 0 0 0 0 0 0 0 0 0 0 0 0 0 0 0 0 0 0 0 0 0 0 0 0 0 0 0 0 0 0 0 0 0 0 0 0 0 0 0 0 0 0 0 0 0 0 0 0 0 0 0 0 0 0 0 0 0 0 0 0 0 0 0 0
0 0 0 0 0 0 0 0 0 0 0 0 0 0 0 0 0 0 0 0 0 0 0 0 0 0 0 0 0 0 0 0 0 0 0 0 0 0 0 0 0 0 0 0 0 0 0 0 0 0 0 0 0 0 0 0 0 0 0 0 0 0 0 0 0 0 0 0 0 0 0 0 0 0 0 0 0 0 0 0 0 0 0 0 0 0 0 0 0 0 0 0 0 0 0 0 0 0 0 0 0 0 0 0 0 0 0 0 0 0 0 0 0 0 0 0 0 0 0 0 0 0 0 0 0 0 0 0 0 0 0 0 0 0 0 0 0 0 0 0 0 0 0 0 0 0 0 0 0 0 0 0 0 0 0 0 0 0 0 0 0 0 0 0 0 0 0 0 0 0 0 0 0 0 0 0 0 0 0 0 0 0 0 0 0 0 0 0 0 0 0 0
0 0 0 0 0 0 0 0 0 0 0 0 0 0 0 0 0 0 0 0 0 0 0 0 0 0 0 0 0 0 0 0 0 0 0 0 0 0 0 0 0 0 0 0 0 0 0 0 0 0 0 0 0 0 0 0 0 0 0 0 0 0 0 0 0 0 0 0 0 0 0 0 0 0 0 0 0 0 0 0 0 0 0 0 0 0 0 0 0 0 0 0 0 0 0 0 0 0 0 0 0 0 0 0 0 0 0 0 0 0 0 0 0 0 0 0 0 0 0 0 0 0 0 0 0 0 0 0 0 0 0 0 0 0 0 0 0 0 0 0 0 0 0 0 0 0 0 0 0 0 0 0 0 0 0 0 0 0 0 0 0 0 0 0 0 0 0 0 0 0 0 0 0 0 0 0 0 0 0 0 0 0 0 0 0 0 0 0 0 0 0 0
0 0 0 0 0 0 0 0 0 0 0 0 0 0 0 0 0 0 0 0 0 0 0 0 0 0 0 0 0 0 0 0 0 0 0 0 0 0 0 0 0 0 0 0 0 0 0 0 0 0 0 0 0 0 162 149 135 0 0 0 0 0 0 0 0 0 0 0 0 0 0 0 0 0 0 0 0 0 0 0 0 0 0 0 0 0 0 0 0 0 0 0 0 0 0 0 0 0 0 0 0 0 0 0 0 0 0 0 0 0 0 0 0 0 0 0 0 0 0 0 0 0 0 0 0 0 0 0 0 0 0 0 0 0 0 0 0 0 162 149 135 0 0 0 0 0 0 0 0 0 0 0 0 0 0 0 0 0 0 0 0 0 0 0 0 0 0 0 0 0 0 0 0 0 0 0 0 0 0 0 0 0 0 0 0 0 0 0 0 0 0 0
0 0 0 0 0 0 0 0 0 0 0 0 0 0 0 0 0 0 0 0 0 0 0 0 0 0 0 0 0 0 0 0 0 0 0 0 0 0 0 0 0 0 0 0 0 0 0 0 0 0 0 83 73 63 158 144 130 83 73 63 0 0 0 0 0 0 0 0 0 0 0 0 0 0 0 0 0 0 0 0 0 0 0 0 0 0 0 0 0 0 0 0 0 0 0 0 0 0 0 0 0 0 0 0 0 0 0 0 0 0 0 0 0 0 0 0 0 0 0 0 0 0 0 0 0 0 0 0 0 0 0 0 0 0 0 83 73 63 158 144 130 83 73 63 0 0 0 0 0 0 0 0 0 0 0 0 0 0 0 0 0 0 0 0 0 0 0 0 0 0 0 0 0 0 0 0 0 0 0 0 0 0 0 0 0 0 0 0 0 0 0 0
0 0 0 0 0 0 0 0 0 0 0 0 0 0 0 0 0 0 0 0 0 0 0 0 0 0 0 0 0 0 0 0 0 0 0 0 0 0 0 0 0 0 0 0 0 0 0 0 83 73 63 154 140 125 154 140 125 154 140 125 83 73 63 0 0 0 0 0 0 0 0 0 0 0 0 0 0 0 0 0 0 0 0 0 0 0 0 0 0 0 0 0 0 0 0 0 0 0 0 0 0 0 0 0 0 0 0 0 0 0 0 0 0 0 0 0 0 0 0 0 0 0 0 0 0 0 0 0 0 0 0 0 83 73 63 154 140 125 154 140 125 154 140 125 83 73 63 0 0 0 0 0 0 0 0 0 0 0 0 0 0 0 0 0 0 0 0 0 0 0 0 0 0 0 0 0 0 0 0 0 0 0 0 0 0 0 0 0 0 0 0 0
0 0 0 0 0 0 0 0 0 0 0 0 0 0 0 0 0 0 0 0 0 0 0 0 0 0 0 0 0 0 0 0 0 0 0 0 0 0 0 0 0 0 0 0 0 83 73 63 150 136 120 150 136 120 150 136 120 150 136 120 150 136 120 83 73 63 0 0 0 0 0 0 0 0 0 0 0 0 0 0 0 0 0 0 0 0 0 0 0 0 0 0 0 0 0 0 0 0 0 0 0 0 0 0 0 0 0 0 0 0 0 0 0 0 0 0 0 0 0 0 0 0 0 0 0 0 0 0 0 83 73 63 150 136 120 150 136 120 150 136 120 150 136 120 150 136 120 83 73 63 0 0 0 0 0 0 0 0 0 0 0 0 0 0 0 0 0 0 0 0 0 0 0 0 0 0 0 0 0 0 0 0 0 0 0 0 0 0 0 0 0 0
0 0 0 0 0 0 0 0 0 0 0 0 0 0 0 0 0 0 0 0 0 0 0 0 0 0 0 0 0 0 0 0 0 0 0 0 0 0 0 0 0 0 83 73 63 146 131 115 214 101 107 214 101 107 214 101 107 214 101 107 214 101 107 214 101 107 214 101 107 214 101 107 214 101 107 214 101 107 214 101 107 214 101 107 214 101 107 214 101 107 214 101 107 214 101 107 214 101 107 214 101 107 214 101 107 214 101 107 214 101 107 214 101 107 214 101 107 214 101 107 214 101 107 214 101 107 214 101 107 214 101 107 214 101 107 214 101 107 214 101 107 214 101 107 146 131 115 146 131 115 83 73 63 0 0 0 0 0 0 0 0 0 0 0 0 0 0 0 0 0 0 0 0 0 0 0 0 0 0 0 0 0 0 0 0 0 0 0 0 0 0 0
0 0 0 0 0 0 0 0 0 0 0 0 0 0 0 0 0 0 0 0 0 0 0 0 0 0 0 0 0 0 0 0 0 0 0 0 0 0 0 83 73 63 142 127 110 142 127 110 214 101 107 214 101 107 214 101 107 214 101 107 214 101 107 214 101 107 214 101 107 214 101 107 214 101 107 214 101 107 214 101 107 214 101 107 214 101 107 214 101 107 214 101 107 214 101 107 214 101 107 214 101 107 214 101 107 214 101 107 214 101 107 214 101 107 214 101 107 214 101 107 214 101 107 214 101 107 214 101 107 214 101 107 214 101 107 214 101 107 214 101 107 214 101 107 142 127 110 142 127 110 142 127 110 83 73 63 0 0 0 0 0 0 0 0 0 0 0 0 0 0 0 0 0 0 0 0 0 0 0 0 0 0 0 0 0 0 0 0 0 0 0 0
0 0 0 0 0 0 0 0 0 0 0 0 0 0 0 0 0 0 0 0 0 0 0 0 0 0 0 0 0 0 0 0 0 83 73 63 139 123 105 139 123 105 139 123 105 139 123 105 214 101 107 214 101 107 214 101 107 214 101 107 214 101 107 214 101 107 214 101 107 214 101 107 214 101 107 214 101 107 214 101 107 214 101 107 214 101 107 214 101 107 214 101 107 214 101 107 214 101 107 214 101 107 214 101 107 214 101 107 214 101 107 214 101 107 214 101 107 214 101 107 214 101 107 214 101 107 214 101 107 214 101 107 214 101 107 214 101 107 214 101 107 214 101 107 139 123 105 139 123 105 139 123 105 139 123 105 139 123 105 83 73 63 0 0 0 0 0 0 0 0 0 0 0 0 0 0 0 0 0 0 0 0 0 0 0 0 0 0 0 0 0 0
0 0 0 0 0 0 0 0 0 0 0 0 0 0 0 0 0 0 0 0 0 0 0 0 0 0 0 0 0 0 0 0 0 66 54 40 0 0 0 83 73 63 129 114 98 129 114 98 214 101 107 214 101 107 214 101 107 214 101 107 214 101 107 214 101 107 214 101 107 214 101 107 214 101 107 214 101 107 214 101 107 214 101 107 214 101 107 214 101 107 214 101 107 214 101 107 214 101 107 214 101 107 214 101 107 214 101 107 214 101 107 214 101 107 214 101 107 214 101 107 214 101 107 214 101 107 214 101 107 214 101 107 214 101 107 214 101 107 214 101 107 214 101 107 129 114 98 129 114 98 129 114 98 83 73 63 73 60 45 0 0 0 0 0 0 0 0 0 0 0 0 0 0 0 0 0 0 0 0 0 0 0 0 0 0 0 0 0 0 0 0 0
0 0 0 0 0 0 0 0 0 0 0 0 0 0 0 0 0 0 0 0 0 0 0 0 0 0 0 0 0 0 0 0 0 66 54 40 66 54 40 0 0 0 83 73 63 120 106 91 214 101 107 214 101 107 214 101 107 214 101 107 214 101 107 214 101 107 214 101 107 214 101 107 214 101 107 214 101 107 214 101 107 214 101 107 214 101 107 214 101 107 214 101 107 214 101 107 214 101 107 214 101 107 214 101 107 214 101 107 214 101 107 214 101 107 214 101 107 214 101 107 214 101 107 214 101 107 214 101 107 214 101 107 214 101 107 214 101 107 214 101 107 214 101 107 120 106 91 120 106 91 83 73 63 73 60 45 73 60 45 0 0 0 0 0 0 0 0 0 0 0 0 0 0 0 0 0 0 0 0 0 0 0 0 0 0 0 0 0 0 0 0 0
0 0 0 0 0 0 0 0 0 0 0 0 0 0 0 0 0 0 0 0 0 0 0 0 0 0 0 0 0 0 0 0 0 66 54 40 66 54 40 66 54 40 0 0 0 83 73 63 214 101 107 214 101 107 214 101 107 214 101 107 214 101 107 214 101 107 214 101 107 214 101 107 214 101 107 214 101 107 214 101 107 214 101 107 214 101 107 214 101 107 214 101 107 214 101 107 214 101 107 214 101 107 214 101 107 214 101 107 214 101 107 214 101 107 214 101 107 214 101 107 214 101 107 214 101 107 214 101 107 214 101 107 214 101 107 214 101 107 214 101 107 214 101 107 111 98 84 83 73 63 73 60 45 73 60 45 73 60 45 0 0 0 0 0 0 0 0 0 0 0 0 0 0 0 0 0 0 0 0 0 0 0 0 0 0 0 0 0 0 0 0 0
0 0 0 0 0 0 0 0 0 0 0 0 0 0 0 0 0 0 0 0 0 0 0 0 0 0 0 0 0 0 0 0 0 66 54 40 66 54 40 66 54 40 66 54 40 0 0 0 214 101 107 214 101 107 214 101 107 214 101 107 214 101 107 214 101 107 214 101 107 214 101 107 214 101 107 214 101 107 214 101 107 214 101 107 214 101 107 214 101 107 214 101 107 214 101 107 214 101 107 214 101 107 214 101 107 214 101 107 214 101 107 214 101 107 214 101 107 214 101 107 214 101 107 214 101 107 214 101 107 214 101 107 214 101 107 214 101 107 214 101 107 214 101 107 83 73 63 73 60 45 73 60 45 73 60 45 73 60 45 0 0 0 0 0 0 0 0 0 0 0 0 0 0 0 0 0 0 0 0 0 0 0 0 0 0 0 0 0 0 0 0 0
0 0 0 0 0 0 0 0 0 0 0 0 0 0 0 0 0 0 0 0 0 0 0 0 0 0 0 0 0 0 0 0 0 66 54 40 66 54 40 66 54 40 66 54 40 66 54 40 0 0 0 83 73 63 92 81 70 83 73 63 73 60 45 73 60 45 73 60 45 73 60 45 73 60 45 0 0 0 0 0 0 0 0 0 0 0 0 0 0 0 0 0 0 0 0 0 0 0 0 0 0 0 0 0 0 0 0 0 0 0 0 0 0 0 0 0 0 66 54 40 66 54 40 66 54 40 66 54 40 66 54 40 0 0 0 83 73 63 92 81 70 83 73 63 73 60 45 73 60 45 73 60 45 73 60 45 73 60 45 0 0 0 0 0 0 0 0 0 0 0 0 0 0 0 0 0 0 0 0 0 0 0 0 0 0 0 0 0 0 0 0 0
0 0 0 0 0 0 0 0 0 0 0 0 0 0 0 0 0 0 0 0 0 0 0 0 0 0 0 0 0 0 0 0 0 66 54 40 66 54 40 66 54 40 66 54 40 66 54 40 66 54 40 66 54 40 73 60 45 73 60 45 73 60 45 73 60 45 73 60 45 73 60 45 73 60 45 0 0 0 0 0 0 0 0 0 0 0 0 0 0 0 0 0 0 0 0 0 0 0 0 0 0 0 0 0 0 0 0 0 0 0 0 0 0 0 0 0 0 66 54 40 66 54 40 66 54 40 66 54 40 66 54 40 66 54 40 66 54 40 73 60 45 73 60 45 73 60 45 73 60 45 73 60 45 73 60 45 73 60 45 0 0 0 0 0 0 0 0 0 0 0 0 0 0 0 0 0 0 0 0 0 0 0 0 0 0 0 0 0 0 0 0 0
0 0 0 0 0 0 0 0 0 0 0 0 0 0 0 0 0 0 0 0 0 0 0 0 0 0 0 0 0 0 0 0 0 66 54 40 66 54 40 66 54 40 66 54 40 66 54 40 66 54 40 66 54 40 73 60 45 73 60 45 73 60 45 212 168 75 212 168 75 212 168 75 212 168 75 212 168 75 212 168 75 212 168 75 212 168 75 212 168 75 212 168 75 212 168 75 212 168 75 212 168 75 212 168 75 212 168 75 212 168 75 212 168 75 212 168 75 212 168 75 212 168 75 212 168 75 212 168 75 66 54 40 66 54 40 66 54 40 73 60 45 73 60 45 73 60 45 73 60 45 73 60 45 73 60 45 73 60 45 0 0 0 0 0 0 0 0 0 0 0 0 0 0 0 0 0 0 0 0 0 0 0 0 0 0 0 0 0 0 0 0 0
0 0 0 0 0 0 0 0 0 0 0 0 0 0 0 0 0 0 0 0 0 0 0 0 0 0 0 0 0 0 0 0 0 66 54 40 66 54 40 66 54 40 66 54 40 66 54 40 66 54 40 66 54 40 73 60 45 73 60 45 73 60 45 212 168 75 212 168 75 212 168 75 212 168 75 212 168 75 212 168 75 212 168 75 212 168 75 212 168 75 212 168 75 212 168 75 212 168 75 212 168 75 212 168 75 212 168 75 212 168 75 212 168 75 212 168 75 212 168 75 212 168 75 212 168 75 212 168 75 66 54 40 66 54 40 66 54 40 73 60 45 73 60 45 73 60 45 73 60 45 73 60 45 73 60 45 73 60 45 0 0 0 0 0 0 0 0 0 0 0 0 0 0 0 0 0 0 0 0 0 0 0 0 0 0 0 0 0 0 0 0 0
0 0 0 0 0 0 0 0 0 0 0 0 0 0 0 0 0 0 0 0 0 0 0 0 0 0 0 0 0 0 0 0 0 66 54 40 66 54 40 66 54 40 66 54 40 66 54 40 66 54 40 66 54 40 73 60 45 73 60 45 73 60 45 212 168 75 212 168 75 212 168 75 212 168 75 212 168 75 212 168 75 212 168 75 212 168 75 212 168 75 212 168 75 212 168 75 212 168 75 212 168 75 212 168 75 212 168 75 212 168 75 212 168 75 212 168 75 212 168 75 212 168 75 212 168 75 212 168 75 66 54 40 66 54 40 66 54 40 73 60 45 73 60 45 73 60 45 73 60 45 73 60 45 73 60 45 73 60 45 0 0 0 0 0 0 0 0 0 0 0 0 0 0 0 0 0 0 0 0 0 0 0 0 0 0 0 0 0 0 0 0 0
0 0 0 0 0 0 0 0 0 0 0 0 0 0 0 0 0 0 0 0 0 0 0 0 0 0 0 0 0 0 0 0 0 66 54 40 66 54 40 66 54 40 66 54 40 66 54 40 66 54 40 66 54 40 73 60 45 73 60 45 73 60 45 212 168 75 212 168 75 212 168 75 212 168 75 212 168 75 212 168 75 212 168 75 212 168 75 212 168 75 212 168 75 212 168 75 212 168 75 212 168 75 212 168 75 212 168 75 212 168 75 212 168 75 212 168 75 212 168 75 212 168 75 212 168 75 212 168 75 66 54 40 66 54 40 66 54 40 73 60 45 73 60 45 73 60 45 73 60 45 73 60 45 73 60 45 73 60 45 0 0 0 0 0 0 0 0 0 0 0 0 0 0 0 0 0 0 0 0 0 0 0 0 0 0 0 0 0 0 0 0 0
0 0 0 0 0 0 0 0 0 0 0 0 0 0 0 0 0 0 0 0 0 0 0 0 0 0 0 0 0 0 0 0 0 66 54 40 66 54 40 66 54 40 66 54 40 66 54 40 66 54 40 66 54 40 73 60 45 73 60 45 73 60 45 73 60 45 73 60 45 73 60 45 73 60 45 0 0 0 0 0 0 0 0 0 0 0 0 0 0 0 0 0 0 0 0 0 0 0 0 0 0 0 0 0 0 0 0 0 0 0 0 0 0 0 0 0 0 66 54 40 66 54 40 66 54 40 66 54 40 66 54 40 66 54 40 66 54 40 73 60 45 73 60 45 73 60 45 73 60 45 73 60 45 73 60 45 73 60 45 0 0 0 0 0 0 0 0 0 0 0 0 0 0 0 0 0 0 0 0 0 0 0 0 0 0 0 0 0 0 0 0 0
0 0 0 0 0 0 0 0 0 0 0 0 0 0 0 0 0 0 0 0 0 0 0 0 0 0 0 0 0 0 0 0 0 66 54 40 66 54 40 66 54 40 66 54 40 66 54 40 66 54 40 66 54 40 73 60 45 73 60 45 73 60 45 73 60 45 73 60 45 73 60 45 73 60 45 0 0 0 0 0 0 0 0 0 0 0 0 0 0 0 0 0 0 0 0 0 0 0 0 0 0 0 0 0 0 0 0 0 0 0 0 0 0 0 0 0 0 66 54 40 66 54 40 66 54 40 66 54 40 66 54 40 66 54 40 66 54 40 73 60 45 73 60 45 73 60 45 73 60 45 73 60 45 73 60 45 73 60 45 0 0 0 0 0 0 0 0 0 0 0 0 0 0 0 0 0 0 0 0 0 0 0 0 0 0 0 0 0 0 0 0 0
0 0 0 0 0 0 0 0 0 0 0 0 0 0 0 0 0 0 0 0 0 0 0 0 0 0 0 0 0 0 0 0 0 66 54 40 66 54 40 66 54 40 66 54 40 66 54 40 66 54 40 66 54 40 73 60 45 73 60 45 73 60 45 73 60 45 73 60 45 73 60 45 73 60 45 0 0 0 0 0 0 0 0 0 0 0 0 0 0 0 0 0 0 0 0 0 0 0 0 0 0 0 0 0 0 0 0 0 0 0 0 0 0 0 0 0 0 66 54 40 66 54 40 66 54 40 66 54 40 66 54 40 66 54 40 66 54 40 73 60 45 73 60 45 73 60 45 73 60 45 73 60 45 73 60 45 73 60 45 0 0 0 0 0 0 0 0 0 0 0 0 0 0 0 0 0 0 0 0 0 0 0 0 0 0 0 0 0 0 0 0 0
0 0 0 0 0 0 0 0 0 0 0 0 0 0 0 0 0 0 0 0 0 0 0 0 0 0 0 0 0 0 0 0 0 66 54 40 66 54 40 66 54 40 66 54 40 66 54 40 66 54 40 66 54 40 73 60 45 73 60 45 73 60 45 73 60 45 73 60 45 73 60 45 73 60 45 0 0 0 0 0 0 0 0 0 0 0 0 0 0 0 0 0 0 0 0 0 0 0 0 0 0 0 0 0 0 0 0 0 0 0 0 0 0 0 0 0 0 66 54 40 66 54 40 66 54 40 66 54 40 66 54 40 66 54 40 66 54 40 73 60 45 73 60 45 73 60 45 73 60 45 73 60 45 73 60 45 73 60 45 0 0 0 0 0 0 0 0 0 0 0 0 0 0 0 0 0 0 0 0 0 0 0 0 0 0 0 0 0 0 0 0 0
0 0 0 0 0 0 0 0 0 0 0 0 0 0 0 0 0 0 0 0 0 0 0 0 0 0 0 0 0 0 0 0 0 66 54 40 66 54 40 66 54 40 66 54 40 66 54 40 66 54 40 66 54 40 73 60 45 73 60 45 73 60 45 73 60 45 73 60 45 73 60 45 73 60 45 0 0 0 0 0 0 0 0 0 0 0 0 0 0 0 0 0 0 0 0 0 0 0 0 0 0 0 0 0 0 0 0 0 0 0 0 0 0 0 0 0 0 66 54 40 66 54 40 66 54 40 66 54 40 66 54 40 66 54 40 66 54 40 73 60 45 73 60 45 73 60 45 73 60 45 73 60 45 73 60 45 73 60 45 0 0 0 0 0 0 0 0 0 0 0 0 0 0 0 0 0 0 0 0 0 0 0 0 0 0 0 0 0 0 0 0 0
0 0 0 0 0 0 0 0 0 0 0 0 0 0 0 0 0 0 0 0 0 0 0 0 0 0 0 0 0 0 0 0 0 66 54 40 66 54 40 66 54 40 66 54 40 66 54 40 66 54 40 66 54 40 73 60 45 73 60 45 73 60 45 73 60 45 73 60 45 73 60 45 73 60 45 0 0 0 0 0 0 0 0 0 0 0 0 0 0 0 0 0 0 0 0 0 0 0 0 0 0 0 0 0 0 0 0 0 0 0 0 0 0 0 0 0 0 66 54 40 66 54 40 66 54 40 66 54 40 66 54 40 66 54 40 66 54 40 73 60 45 73 60 45 73 60 45 73 60 45 73 60 45 73 60 45 73 60 45 0 0 0 0 0 0 0 0 0 0 0 0 0 0 0 0 0 0 0 0 0 0 0 0 0 0 0 0 0 0 0 0 0
0 0 0 0 0 0 0 0 0 0 0 0 0 0 0 0 0 0 0 0 0 0 0 0 0 0 0 0 0 0 0 0 0 66 54 40 66 54 40 66 54 40 66 54 40 66 54 40 66 54 40 66 54 40 73 60 45 73 60 45 73 60 45 73 60 45 73 60 45 73 60 45 73 60 45 0 0 0 0 0 0 0 0 0 0 0 0 0 0 0 0 0 0 0 0 0 0 0 0 0 0 0 0 0 0 0 0 0 0 0 0 0 0 0 0 0 0 66 54 40 66 54 40 66 54 40 66 54 40 66 54 40 66 54 40 66 54 40 73 60 45 73 60 45 73 60 45 73 60 45 73 60 45 73 60 45 73 60 45 0 0 0 0 0 0 0 0 0 0 0 0 0 0 0 0 0 0 0 0 0 0 0 0 0 0 0 0 0 0 0 0 0
0 0 0 0 0 0 0 0 0 0 0 0 0 0 0 0 0 0 0 0 0 0 0 0 0 0 0 0 0 0 0 0 0 66 54 40 66 54 40 66 54 40 66 54 40 66 54 40 66 54 40 66 54 40 73 60 45 73 60 45 73 60 45 73 60 45 73 60 45 73 60 45 73 60 45 0 0 0 0 0 0 0 0 0 0 0 0 0 0 0 0 0 0 0 0 0 0 0 0 0 0 0 0 0 0 0 0 0 0 0 0 0 0 0 0 0 0 66 54 40 66 54 40 66 54 40 66 54 40 66 54 40 66 54 40 66 54 40 73 60 45 73 60 45 73 60 45 73 60 45 73 60 45 73 60 45 73 60 45 0 0 0 0 0 0 0 0 0 0 0 0 0 0 0 0 0 0 0 0 0 0 0 0 0 0 0 0 0 0 0 0 0
0 0 0 0 0 0 0 0 0 0 0 0 0 0 0 0 0 0 0 0 0 0 0 0 0 0 0 0 0 0 0 0 0 66 54 40 66 54 40 66 54 40 66 54 40 66 54 40 66 54 40 66 54 40 73 60 45 73 60 45 73 60 45 73 60 45 73 60 45 73 60 45 73 60 45 0 0 0 0 0 0 0 0 0 0 0 0 0 0 0 0 0 0 0 0 0 0 0 0 0 0 0 0 0 0 0 0 0 0 0 0 0 0 0 0 0 0 66 54 40 66 54 40 66 54 40 66 54 40 66 54 40 66 54 40 66 54 40 73 60 45 73 60 45 73 60 45 73 60 45 73 60 45 73 60 45 73 60 45 0 0 0 0 0 0 0 0 0 0 0 0 0 0 0 0 0 0 0 0 0 0 0 0 0 0 0 0 0 0 0 0 0
0 0 0 0 0 0 0 0 0 0 0 0 0 0 0 0 0 0 0 0 0 0 0 0 0 0 0 0 0 0 0 0 0 66 54 40 66 54 40 66 54 40 66 54 40 66 54 40 66 54 40 66 54 40 73 60 45 73 60 45 73 60 45 73 60 45 73 60 45 73 60 45 73 60 45 0 0 0 0 0 0 0 0 0 0 0 0 0 0 0 0 0 0 0 0 0 0 0 0 0 0 0 0 0 0 0 0 0 0 0 0 0 0 0 0 0 0 66 54 40 66 54 40 66 54 40 66 54 40 66 54 40 66 54 40 66 54 40 73 60 45 73 60 45 73 60 45 73 60 45 73 60 45 73 60 45 73 60 45 0 0 0 0 0 0 0 0 0 0 0 0 0 0 0 0 0 0 0 0 0 0 0 0 0 0 0 0 0 0 0 0 0
0 0 0 0 0 0 0 0 0 0 0 0 0 0 0 0 0 0 0 0 0 0 0 0 0 0 0 0 0 0 0 0 0 66 54 40 66 54 40 66 54 40 66 54 40 66 54 40 66 54 40 66 54 40 73 60 45 73 60 45 73 60 45 73 60 45 73 60 45 73 60 45 73 60 45 0 0 0 0 0 0 0 0 0 0 0 0 0 0 0 0 0 0 0 0 0 0 0 0 0 0 0 0 0 0 0 0 0 0 0 0 0 0 0 0 0 0 66 54 40 66 54 40 66 54 40 66 54 40 66 54 40 66 54 40 66 54 40 73 60 45 73 60 45 73 60 45 73 60 45 73 60 45 73 60 45 73 60 45 0 0 0 0 0 0 0 0 0 0 0 0 0 0 0 0 0 0 0 0 0 0 0 0 0 0 0 0 0 0 0 0 0
0 0 0 0 0 0 0 0 0 0 0 0 0 0 0 0 0 0 0 0 0 0 0 0 0 0 0 0 0 0 0 0 0 66 54 40 66 54 40 66 54 40 66 54 40 66 54 40 66 54 40 66 54 40 73 60 45 73 60 45 73 60 45 73 60 45 73 60 45 73 60 45 73 60 45 0 0 0 0 0 0 0 0 0 0 0 0 0 0 0 0 0 0 0 0 0 0 0 0 0 0 0 0 0 0 0 0 0 0 0 0 0 0 0 0 0 0 66 54 40 66 54 40 66 54 40 66 54 40 66 54 40 66 54 40 66 54 40 73 60 45 73 60 45 73 60 45 73 60 45 73 60 45 73 60 45 73 60 45 0 0 0 0 0 0 0 0 0 0 0 0 0 0 0 0 0 0 0 0 0 0 0 0 0 0 0 0 0 0 0 0 0
0 0 0 0 0 0 0 0 0 0 0 0 0 0 0 0 0 0 0 0 0 0 0 0 0 0 0 0 0 0 0 0 0 66 54 40 66 54 40 66 54 40 66 54 40 66 54 40 66 54 40 66 54 40 73 60 45 73 60 45 73 60 45 73 60 45 73 60 45 73 60 45 73 60 45 0 0 0 0 0 0 0 0 0 0 0 0 0 0 0 0 0 0 0 0 0 0 0 0 0 0 0 0 0 0 0 0 0 0 0 0 0 0 0 0 0 0 66 54 40 66 54 40 66 54 40 66 54 40 66 54 40 66 54 40 66 54 40 73 60 45 73 60 45 73 60 45 73 60 45 73 60 45 73 60 45 73 60 45 0 0 0 0 0 0 0 0 0 0 0 0 0 0 0 0 0 0 0 0 0 0 0 0 0 0 0 0 0 0 0 0 0
0 0 0 0 0 0 0 0 0 0 0 0 0 0 0 0 0 0 0 0 0 0 0 0 0 0 0 0 0 0 0 0 0 66 54 40 66 54 40 66 54 40 66 54 40 66 54 40 66 54 40 66 54 40 73 60 45 73 60 45 73 60 45 73 60 45 73 60 45 73 60 45 73 60 45 0 0 0 0 0 0 0 0 0 0 0 0 0 0 0 0 0 0 0 0 0 0 0 0 0 0 0 0 0 0 0 0 0 0 0 0 0 0 0 0 0 0 66 54 40 66 54 40 66 54 40 66 54 40 66 54 40 66 54 40 66 54 40 73 60 45 73 60 45 73 60 45 73 60 45 73 60 45 73 60 45 73 60 45 0 0 0 0 0 0 0 0 0 0 0 0 0 0 0 0 0 0 0 0 0 0 0 0 0 0 0 0 0 0 0 0 0
0 0 0 0 0 0 0 0 0 0 0 0 0 0 0 0 0 0 0 0 0 0 0 0 0 0 0 0 0 0 0 0 0 66 54 40 66 54 40 66 54 40 66 54 40 66 54 40 66 54 40 66 54 40 73 60 45 73 60 45 73 60 45 73 60 45 73 60 45 73 60 45 73 60 45 0 0 0 0 0 0 0 0 0 0 0 0 0 0 0 0 0 0 0 0 0 0 0 0 0 0 0 0 0 0 0 0 0 0 0 0 0 0 0 0 0 0 66 54 40 66 54 40 66 54 40 66 54 40 66 54 40 66 54 40 66 54 40 73 60 45 73 60 45 73 60 45 73 60 45 73 60 45 73 60 45 73 60 45 0 0 0 0 0 0 0 0 0 0 0 0 0 0 0 0 0 0 0 0 0 0 0 0 0 0 0 0 0 0 0 0 0
0 0 0 0 0 0 0 0 0 0 0 0 0 0 0 0 0 0 0 0 0 0 0 0 0 0 0 0 0 0 0 0 0 66 54 40 66 54 40 66 54 40 66 54 40 66 54 40 66 54 40 66 54 40 73 60 45 73 60 45 73 60 45 73 60 45 73 60 45 73 60 45 73 60 45 0 0 0 0 0 0 0 0 0 0 0 0 0 0 0 0 0 0 0 0 0 0 0 0 0 0 0 0 0 0 0 0 0 0 0 0 0 0 0 0 0 0 66 54 40 66 54 40 66 54 40 66 54 40 66 54 40 66 54 40 66 54 40 73 60 45 73 60 45 73 60 45 73 60 45 73 60 45 73 60 45 73 60 45 0 0 0 0 0 0 0 0 0 0 0 0 0 0 0 0 0 0 0 0 0 0 0 0 0 0 0 0 0 0 0 0 0
0 0 0 0 0 0 0 0 0 0 0 0 0 0 0 0 0 0 0 0 0 0 0 0 0 0 0 0 0 0 0 0 0 66 54 40 66 54 40 66 54 40 66 54 40 66 54 40 66 54 40 66 54 40 73 60 45 73 60 45 73 60 45 73 60 45 73 60 45 73 60 45 73 60 45 0 0 0 0 0 0 0 0 0 0 0 0 0 0 0 0 0 0 0 0 0 0 0 0 0 0 0 0 0 0 0 0 0 0 0 0 0 0 0 0 0 0 66 54 40 66 54 40 66 54 40 66 54 40 66 54 40 66 54 40 66 54 40 73 60 45 73 60 45 73 60 45 73 60 45 73 60 45 73 60 45 73 60 45 0 0 0 0 0 0 0 0 0 0 0 0 0 0 0 0 0 0 0 0 0 0 0 0 0 0 0 0 0 0 0 0 0
0 0 0 0 0 0 0 0 0 0 0 0 0 0 0 0 0 0 0 0 0 0 0 0 0 0 0 0 0 0 0 0 0 66 54 40 66 54 40 66 54 40 66 54 40 66 54 40 66 54 40 66 54 40 73 60 45 73 60 45 73 60 45 73 60 45 73 60 45 73 60 45 73 60 45 0 0 0 0 0 0 0 0 0 0 0 0 0 0 0 0 0 0 0 0 0 8 11 9 0 0 0 0 0 0 0 0 0 0 0 0 0 0 0 0 0 0 66 54 40 66 54 40 66 54 40 66 54 40 66 54 40 66 54 40 66 54 40 73 60 45 73 60 45 73 60 45 73 60 45 73 60 45 73 60 45 73 60 45 0 0 0 0 0 0 0 0 0 0 0 0 0 0 0 0 0 0 0 0 0 0 0 0 0 0 0 0 0 0 0 0 0
0 0 0 0 0 0 0 0 0 0 0 0 0 0 0 0 0 0 0 0 0 0 0 0 0 0 0 0 0 0 0 0 0 66 54 40 66 54 40 66 54 40 66 54 40 66 54 40 66 54 40 66 54 40 73 60 45 73 60 45 73 60 45 73 60 45 73 60 45 73 60 45 73 60 45 8 11 9 8 11 9 8 11 9 8 11 9 8 11 9 8 11 9 8 11 9 8 11 9 8 11 9 8 11 9 8 11 9 8 11 9 8 11 9 8 11 9 66 54 40 66 54 40 66 54 40 66 54 40 66 54 40 66 54 40 66 54 40 73 60 45 73 60 45 73 60 45 73 60 45 73 60 45 73 60 45 73 60 45 0 0 0 0 0 0 0 0 0 0 0 0 0 0 0 0 0 0 0 0 0 0 0 0 0 0 0 0 0 0 0 0 0
0 0 0 0 0 0 0 0 0 0 0 0 0 0 0 0 0 0 0 0 0 0 0 0 0 0 0 0 0 0 0 0 0 0 0 0 0 0 0 66 54 40 66 54 40 66 54 40 66 54 40 66 54 40 73 60 45 73 60 45 73 60 45 73 60 45 73 60 45 8 11 9 8 11 9 8 11 9 8 11 9 8 11 9 8 11 9 8 11 9 8 11 9 8 11 9 8 11 9 8 11 9 8 11 9 8 11 9 8 11 9 8 11 9 8 11 9 8 11 9 8 11 9 66 54 40 66 54 40 66 54 40 66 54 40 66 54 40 73 60 45 73 60 45 73 60 45 73 60 45 73 60 45 8 11 9 0 0 0 0 0 0 0 0 0 0 0 0 0 0 0 0 0 0 0 0 0 0 0 0 0 0 0 0 0 0 0 0 0 0 0 0
0 0 0 0 0 0 0 0 0 0 0 0 0 0 0 0 0 0 0 0 0 0 0 0 0 0 0 0 0 0 8 11 9 8 11 9 8 11 9 8 11 9 66 54 40 66 54 40 66 54 40 66 54 40 73 60 45 73 60 45 73 60 45 73 60 45 8 11 9 8 11 9 8 11 9 8 11 9 8 11 9 8 11 9 8 11 9 8 11 9 8 11 9 8 11 9 8 11 9 8 11 9 8 11 9 8 11 9 8 11 9 8 11 9 8 11 9 8 11 9 8 11 9 8 11 9 66 54 40 66 54 40 66 54 40 66 54 40 73 60 45 73 60 45 73 60 45 73 60 45 8 11 9 8 11 9 8 11 9 8 11 9 8 11 9 0 0 0 0 0 0 0 0 0 0 0 0 0 0 0 0 0 0 0 0 0 0 0 0 0 0 0
0 0 0 0 0 0 0 0 0 0 0 0 0 0 0 0 0 0 0 0 0 0 0 0 0 0 0 8 11 9 8 11 9 8 11 9 8 11 9 8 11 9 8 11 9 66 54 40 66 54 40 66 54 40 73 60 45 73 60 45 73 60 45 8 11 9 8 11 9 8 11 9 8 11 9 8 11 9 8 11 9 8 11 9 8 11 9 8 11 9 8 11 9 8 11 9 8 11 9 8 11 9 8 11 9 8 11 9 8 11 9 8 11 9 8 11 9 8 11 9 8 11 9 8 11 9 8 11 9 66 54 40 66 54 40 66 54 40 73 60 45 73 60 45 73 60 45 8 11 9 8 11 9 8 11 9 8 11 9 8 11 9 8 11 9 8 11 9 0 0 0 0 0 0 0 0 0 0 0 0 0 0 0 0 0 0 0 0 0 0 0 0
0 0 0 0 0 0 0 0 0 0 0 0 0 0 0 0 0 0 0 0 0 0 0 0 8 11 9 8 11 9 8 11 9 8 11 9 8 11 9 8 11 9 8 11 9 8 11 9 66 54 40 66 54 40 73 60 45 73 60 45 8 11 9 8 11 9 8 11 9 8 11 9 8 11 9 8 11 9 8 11 9 8 11 9 8 11 9 8 11 9 8 11 9 8 11 9 8 11 9 8 11 9 8 11 9 8 11 9 8 11 9 8 11 9 8 11 9 8 11 9 8 11 9 8 11 9 8 11 9 8 11 9 66 54 40 66 54 40 73 60 45 73 60 45 8 11 9 8 11 9 8 11 9 8 11 9 8 11 9 8 11 9 8 11 9 8 11 9 8 11 9 0 0 0 0 0 0 0 0 0 0 0 0 0 0 0 0 0 0 0 0 0
0 0 0 0 0 0 0 0 0 0 0 0 0 0 0 0 0 0 0 0 0 0 0 0 0 0 0 8 11 9 8 11 9 8 11 9 8 11 9 8 11 9 8 11 9 8 11 9 8 11 9 66 54 40 73 60 45 8 11 9 8 11 9 8 11 9 8 11 9 8 11 9 8 11 9 8 11 9 8 11 9 8 11 9 8 11 9 8 11 9 8 11 9 8 11 9 8 11 9 8 11 9 8 11 9 8 11 9 8 11 9 8 11 9 8 11 9 8 11 9 8 11 9 8 11 9 8 11 9 8 11 9 8 11 9 66 54 40 73 60 45 8 11 9 8 11 9 8 11 9 8 11 9 8 11 9 8 11 9 8 11 9 8 11 9 8 11 9 0 0 0 0 0 0 0 0 0 0 0 0 0 0 0 0 0 0 0 0 0 0 0 0
0 0 0 0 0 0 0 0 0 0 0 0 0 0 0 0 0 0 0 0 0 0 0 0 0 0 0 0 0 0 8 11 9 8 11 9 8 11 9 8 11 9 8 11 9 8 11 9 8 11 9 8 11 9 8 11 9 8 11 9 8 11 9 8 11 9 8 11 9 8 11 9 8 11 9 8 11 9 8 11 9 8 11 9 8 11 9 8 11 9 8 11 9 8 11 9 8 11 9 8 11 9 8 11 9 8 11 9 8 11 9 8 11 9 8 11 9 8 11 9 8 11 9 8 11 9 8 11 9 8 11 9 8 11 9 8 11 9 8 11 9 8 11 9 8 11 9 8 11 9 8 11 9 8 11 9 8 11 9 8 11 9 8 11 9 0 0 0 0 0 0 0 0 0 0 0 0 0 0 0 0 0 0 0 0 0 0 0 0 0 0 0
0 0 0 0 0 0 0 0 0 0 0 0 0 0 0 0 0 0 0 0 0 0 0 0 0 0 0 0 0 0 0 0 0 0 0 0 0 0 0 8 11 9 8 11 9 8 11 9 8 11 9 8 11 9 8 11 9 8 11 9 8 11 9 8 11 9 8 11 9 8 11 9 8 11 9 8 11 9 8 11 9 8 11 9 8 11 9 8 11 9 8 11 9 8 11 9 8 11 9 8 11 9 8 11 9 8 11 9 8 11 9 8 11 9 8 11 9 8 11 9 8 11 9 8 11 9 8 11 9 8 11 9 8 11 9 8 11 9 8 11 9 8 11 9 8 11 9 8 11 9 8 11 9 8 11 9 0 0 0 0 0 0 0 0 0 0 0 0 0 0 0 0 0 0 0 0 0 0 0 0 0 0 0 0 0 0 0 0 0 0 0 0
