P3
64 48
255
0 0 0 0 0 0 0 0 0 0 0 0 0 0 0 0 0 0 0 0 0 0 0 0 0 0 0 0 0 0 0 0 0 0 0 0 0 0 0 0 0 0 0 0 0 0 0 0 0 0 0 0 0 0 0 0 0 0 0 0 0 0 0 0 0 0 0 0 0 0 0 0 0 0 0 0 0 0 0 0 0 0 0 0 0 0 0 0 0 0 0 0 0 0 0 0 0 0 0 0 0 0 0 0 0 0 0 0 0 0 0 0 0 0 0 0 0 0 0 0 0 0 0 0 0 0 0 0 0 0 0 0 0 0 0 0 0 0 0 0 0 0 0 0 0 0 0 0 0 0 0 0 0 0 0 0 0 0 0 0 0 0 0 0 0 0 0 0 0 0 0 0 0 0 0 0 0 0 0 0 0 0 0 0 0 0 0 0 0 0 0 0
0 0 0 0 0 0 0 0 0 0 0 0 0 0 0 0 0 0 0 0 0 0 0 0 0 0 0 0 0 0 0 0 0 0 0 0 0 0 0 0 0 0 0 0 0 0 0 0 0 0 0 0 0 0 0 0 0 0 0 0 0 0 0 0 0 0 0 0 0 0 0 0 0 0 0 0 0 0 0 0 0 0 0 0 0 0 0 0 0 0 0 0 0 0 0 0 0 0 0 0 0 0 0 0 0 0 0 0 0 0 0 0 0 0 0 0 0 0 0 0 0 0 0 0 0 0 0 0 0 0 0 0 0 0 0 0 0 0 0 0 0 0 0 0 0 0 0 0 0 0 0 0 0 0 0 0 0 0 0 0 0 0 0 0 0 0 0 0 0 0 0 0 0 0 0 0 0 0 0 0 0 0 0 0 0 0 0 0 0 0 0 0
0 0 0 0 0 0 0 0 0 0 0 0 0 0 0 0 0 0 0 0 0 0 0 0 0 0 0 0 0 0 0 0 0 0 0 0 0 0 0 0 0 0 0 0 0 0 0 0 0 0 0 0 0 0 0 0 0 0 0 0 0 0 0 0 0 0 0 0 0 0 0 0 0 0 0 0 0 0 0 0 0 0 0 0 0 0 0 0 0 0 0 0 0 0 0 0 0 0 0 0 0 0 0 0 0 0 0 0 0 0 0 0 0 0 0 0 0 0 0 0 0 0 0 0 0 0 0 0 0 0 0 0 0 0 0 0 0 0 0 0 0 0 0 0 0 0 0 0 0 0 0 0 0 0 0 0 0 0 0 0 0 0 0 0 0 0 0 0 0 0 0 0 0 0 0 0 0 0 0 0 0 0 0 0 0 0 0 0 0 0 0 0
0 0 0 0 0 0 0 0 0 0 0 0 0 0 0 0 0 0 0 0 0 0 0 0 0 0 0 0 0 0 0 0 0 0 0 0 0 0 0 0 0 0 0 0 0 0 0 0 0 0 0 0 0 0 0 0 0 0 0 0 0 0 0 0 0 0 0 0 0 0 0 0 0 0 0 0 0 0 0 0 0 0 0 0 0 0 0 0 0 0 0 0 0 0 0 0 0 0 0 0 0 0 0 0 0 0 0 0 0 0 0 0 0 0 0 0 0 0 0 0 0 0 0 0 0 0 0 0 0 0 0 0 0 0 0 0 0 0 0 0 0 0 0 0 0 0 0 0 0 0 0 0 0 0 0 0 0 0 0 0 0 0 0 0 0 0 0 0 0 0 0 0 0 0 0 0 0 0 0 0 0 0 0 0 0 0 0 0 0 0 0 0
0 0 0 0 0 0 0 0 0 0 0 0 0 0 0 0 0 0 0 0 0 0 0 0 0 0 0 0 0 0 0 0 0 0 0 0 0 0 0 0 0 0 0 0 0 0 0 0 0 0 0 0 0 0 0 0 0 0 0 0 0 0 0 0 0 0 0 0 0 0 0 0 0 0 0 0 0 0 0 0 0 0 0 0 0 0 0 0 0 0 0 0 0 0 0 0 0 0 0 0 0 0 0 0 0 0 0 0 0 0 0 0 0 0 0 0 0 0 0 0 0 0 0 0 0 0 0 0 0 0 0 0 0 0 0 0 0 0 0 0 0 0 0 0 0 0 0 0 0 0 0 0 0 0 0 0 0 0 0 0 0 0 0 0 0 0 0 0 0 0 0 0 0 0 0 0 0 0 0 0 0 0 0 0 0 0 0 0 0 0 0 0
0 0 0 0 0 0 0 0 0 0 0 0 0 0 0 0 0 0 0 0 0 0 0 0 0 0 0 0 0 0 0 0 0 0 0 0 0 0 0 0 0 0 0 0 0 0 0 0 0 0 0 0 0 0 0 0 0 0 0 0 0 0 0 0 0 0 0 0 0 0 0 0 0 0 0 0 0 0 0 0 0 0 0 0 0 0 0 0 0 0 0 0 0 0 0 0 0 0 0 0 0 0 0 0 0 0 0 0 0 0 0 0 0 0 0 0 0 0 0 0 0 0 0 0 0 0 0 0 0 0 0 0 0 0 0 0 0 0 0 0 0 0 0 0 0 0 0 0 0 0 0 0 0 0 0 0 0 0 0 0 0 0 0 0 0 0 0 0 0 0 0 0 0 0 0 0 0 0 0 0 0 0 0 0 0 0 0 0 0 0 0 0
0 0 0 0 0 0 0 0 0 0 0 0 0 0 0 0 0 0 0 0 0 0 0 0 0 0 0 0 0 0 0 0 0 0 0 0 0 0 0 0 0 0 0 0 0 0 0 0 0 0 0 0 0 0 0 0 0 0 0 0 0 0 0 0 0 0 0 0 0 0 0 0 0 0 0 0 0 0 0 0 0 0 0 0 0 0 0 0 0 0 0 0 0 0 0 0 0 0 0 0 0 0 0 0 0 0 0 0 0 0 0 0 0 0 0 0 0 0 0 0 0 0 0 0 0 0 0 0 0 0 0 0 0 0 0 0 0 0 0 0 0 0 0 0 0 0 0 0 0 0 0 0 0 0 0 0 0 0 0 0 0 0 0 0 0 0 0 0 0 0 0 0 0 0 0 0 0 0 0 0 0 0 0 0 0 0 0 0 0 0 0 0
0 0 0 0 0 0 0 0 0 0 0 0 0 0 0 0 0 0 0 0 0 0 0 0 0 0 0 0 0 0 0 0 0 0 0 0 0 0 0 0 0 0 0 0 0 0 0 0 0 0 0 0 0 0 0 0 0 0 0 0 0 0 0 0 0 0 0 0 0 0 0 0 0 0 0 0 0 0 0 0 0 0 0 0 0 0 0 0 0 0 0 0 0 0 0 0 0 0 0 0 0 0 0 0 0 0 0 0 0 0 0 0 0 0 0 0 0 0 0 0 0 0 0 0 0 0 0 0 0 0 0 0 0 0 0 0 0 0 0 0 0 0 0 0 0 0 0 0 0 0 0 0 0 0 0 0 0 0 0 0 0 0 0 0 0 0 0 0 0 0 0 0 0 0 0 0 0 0 0 0 0 0 0 0 0 0 0 0 0 0 0 0
0 0 0 0 0 0 0 0 0 0 0 0 0 0 0 0 0 0 0 0 0 0 0 0 0 0 0 0 0 0 0 0 0 0 0 0 0 0 0 0 0 0 0 0 0 0 0 0 0 0 0 0 0 0 0 0 0 0 0 0 0 0 0 0 0 0 0 0 0 0 0 0 0 0 0 0 0 0 0 0 0 0 0 0 0 0 0 0 0 0 0 0 0 0 0 0 0 0 0 0 0 0 0 0 0 0 0 0 0 0 0 0 0 0 0 0 0 0 0 0 0 0 0 0 0 0 0 0 0 0 0 0 0 0 0 0 0 0 0 0 0 0 0 0 0 0 0 0 0 0 0 0 0 0 0 0 0 0 0 0 0 0 0 0 0 0 0 0 0 0 0 0 0 0 0 0 0 0 0 0 0 0 0 0 0 0 0 0 0 0 0 0
0 0 0 0 0 0 0 0 0 0 0 0 0 0 0 0 0 0 0 0 0 0 0 0 0 0 0 0 0 0 0 0 0 0 0 0 0 0 0 0 0 0 0 0 0 0 0 0 0 0 0 0 0 0 0 0 0 0 0 0 0 0 0 0 0 0 0 0 0 0 0 0 0 0 0 0 0 0 0 0 0 0 0 0 0 0 0 0 0 0 0 0 0 0 0 0 0 0 0 0 0 0 0 0 0 0 0 0 0 0 0 0 0 0 0 0 0 0 0 0 0 0 0 0 0 0 0 0 0 0 0 0 0 0 0 0 0 0 0 0 0 0 0 0 0 0 0 0 0 0 0 0 0 0 0 0 0 0 0 0 0 0 0 0 0 0 0 0 0 0 0 0 0 0 0 0 0 0 0 0 0 0 0 0 0 0 0 0 0 0 0 0
0 0 0 0 0 0 0 0 0 0 0 0 0 0 0 0 0 0 0 0 0 0 0 0 0 0 0 0 0 0 0 0 0 0 0 0 0 0 0 0 0 0 0 0 0 0 0 0 0 0 0 0 0 0 0 0 0 0 0 0 0 0 0 0 0 0 0 0 0 0 0 0 0 0 0 0 0 0 0 0 0 0 0 0 0 0 0 0 0 0 0 0 0 0 0 0 0 0 0 0 0 0 0 0 0 0 0 0 0 0 0 0 0 0 0 0 0 0 0 0 0 0 0 0 0 0 0 0 0 0 0 0 0 0 0 0 0 0 0 0 0 0 0 0 0 0 0 0 0 0 0 0 0 0 0 0 0 0 0 0 0 0 0 0 0 0 0 0 0 0 0 0 0 0 0 0 0 0 0 0 0 0 0 0 0 0 0 0 0 0 0 0
0 0 0 0 0 0 0 0 0 0 0 0 0 0 0 0 0 0 0 0 0 0 0 0 0 0 0 0 0 0 0 0 0 0 0 0 0 0 0 0 0 0 0 0 0 0 0 0 0 0 0 0 0 0 0 0 0 0 0 0 0 0 0 0 0 0 0 0 0 0 0 0 0 0 0 0 0 0 0 0 0 0 0 0 0 0 0 0 0 0 0 0 0 0 0 0 0 0 0 0 0 0 0 0 0 0 0 0 0 0 0 0 0 0 0 0 0 0 0 0 0 0 0 0 0 0 0 0 0 0 0 0 0 0 0 0 0 0 0 0 0 0 0 0 0 0 0 0 0 0 0 0 0 0 0 0 0 0 0 0 0 0 0 0 0 0 0 0 0 0 0 0 0 0 0 0 0 0 0 0 0 0 0 0 0 0 0 0 0 0 0 0
0 0 0 0 0 0 0 0 0 0 0 0 0 0 0 0 0 0 0 0 0 0 0 0 0 0 0 0 0 0 0 0 0 0 0 0 214 101 107 214 101 107 214 101 107 214 101 107 214 101 107 214 101 107 214 101 107 214 101 107 214 101 107 214 101 107 214 101 107 214 101 107 214 101 107 214 101 107 214 101 107 214 101 107 214 101 107 214 101 107 214 101 107 214 101 107 214 101 107 214 101 107 214 101 107 214 101 107 214 101 107 214 101 107 214 101 107 214 101 107 214 101 107 214 101 107 214 101 107 214 101 107 214 101 107 214 101 107 214 101 107 214 101 107 214 101 107 214 101 107 214 101 107 214 101 107 0 0 0 0 0 0 0 0 0 0 0 0 0 0 0 0 0 0 0 0 0 0 0 0 0 0 0 0 0 0 0 0 0 0 0 0
0 0 0 0 0 0 0 0 0 0 0 0 0 0 0 0 0 0 0 0 0 0 0 0 0 0 0 0 0 0 0 0 0 0 0 0 214 101 107 214 101 107 214 101 107 214 101 107 214 101 107 214 101 107 214 101 107 214 101 107 214 101 107 214 101 107 214 101 107 214 101 107 214 101 107 214 101 107 214 101 107 214 101 107 214 101 107 214 101 107 214 101 107 214 101 107 214 101 107 214 101 107 214 101 107 214 101 107 214 101 107 214 101 107 214 101 107 214 101 107 214 101 107 214 101 107 214 101 107 214 101 107 214 101 107 214 101 107 214 101 107 214 101 107 214 101 107 214 101 107 214 101 107 214 101 107 0 0 0 0 0 0 0 0 0 0 0 0 0 0 0 0 0 0 0 0 0 0 0 0 0 0 0 0 0 0 0 0 0 0 0 0
0 0 0 0 0 0 0 0 0 0 0 0 0 0 0 0 0 0 0 0 0 0 0 0 0 0 0 0 0 0 0 0 0 0 0 0 214 101 107 214 101 107 214 101 107 214 101 107 214 101 107 214 101 107 214 101 107 214 101 107 214 101 107 214 101 107 214 101 107 214 101 107 214 101 107 214 101 107 214 101 107 214 101 107 214 101 107 214 101 107 214 101 107 214 101 107 214 101 107 214 101 107 214 101 107 214 101 107 214 101 107 214 101 107 214 101 107 214 101 107 214 101 107 214 101 107 214 101 107 214 101 107 214 101 107 214 101 107 214 101 107 214 101 107 214 101 107 214 101 107 214 101 107 214 101 107 0 0 0 0 0 0 0 0 0 0 0 0 0 0 0 0 0 0 0 0 0 0 0 0 0 0 0 0 0 0 0 0 0 0 0 0
0 0 0 0 0 0 0 0 0 0 0 0 0 0 0 0 0 0 0 0 0 0 0 0 0 0 0 0 0 0 0 0 0 0 0 0 214 101 107 214 101 107 214 101 107 214 101 107 214 101 107 214 101 107 214 101 107 214 101 107 214 101 107 214 101 107 214 101 107 214 101 107 214 101 107 214 101 107 214 101 107 214 101 107 214 101 107 214 101 107 214 101 107 214 101 107 214 101 107 214 101 107 214 101 107 214 101 107 214 101 107 214 101 107 214 101 107 214 101 107 214 101 107 214 101 107 214 101 107 214 101 107 214 101 107 214 101 107 214 101 107 214 101 107 214 101 107 214 101 107 214 101 107 214 101 107 0 0 0 0 0 0 0 0 0 0 0 0 0 0 0 0 0 0 0 0 0 0 0 0 0 0 0 0 0 0 0 0 0 0 0 0
0 0 0 0 0 0 0 0 0 0 0 0 0 0 0 0 0 0 0 0 0 0 0 0 0 0 0 0 0 0 0 0 0 0 0 0 214 101 107 214 101 107 214 101 107 214 101 107 214 101 107 214 101 107 214 101 107 214 101 107 214 101 107 214 101 107 214 101 107 214 101 107 214 101 107 214 101 107 214 101 107 214 101 107 214 101 107 214 101 107 214 101 107 214 101 107 214 101 107 214 101 107 214 101 107 214 101 107 214 101 107 214 101 107 214 101 107 214 101 107 214 101 107 214 101 107 214 101 107 214 101 107 214 101 107 214 101 107 214 101 107 214 101 107 214 101 107 214 101 107 214 101 107 214 101 107 0 0 0 0 0 0 0 0 0 0 0 0 0 0 0 0 0 0 0 0 0 0 0 0 0 0 0 0 0 0 0 0 0 0 0 0
0 0 0 0 0 0 0 0 0 0 0 0 0 0 0 0 0 0 0 0 0 0 0 0 0 0 0 0 0 0 0 0 0 0 0 0 214 101 107 214 101 107 214 101 107 214 101 107 214 101 107 214 101 107 214 101 107 214 101 107 214 101 107 214 101 107 214 101 107 214 101 107 214 101 107 214 101 107 214 101 107 214 101 107 214 101 107 214 101 107 214 101 107 214 101 107 214 101 107 214 101 107 214 101 107 214 101 107 214 101 107 214 101 107 214 101 107 214 101 107 214 101 107 214 101 107 214 101 107 214 101 107 214 101 107 214 101 107 214 101 107 214 101 107 214 101 107 214 101 107 214 101 107 214 101 107 0 0 0 0 0 0 0 0 0 0 0 0 0 0 0 0 0 0 0 0 0 0 0 0 0 0 0 0 0 0 0 0 0 0 0 0
0 0 0 0 0 0 0 0 0 0 0 0 0 0 0 0 0 0 0 0 0 0 0 0 0 0 0 0 0 0 0 0 0 0 0 0 214 101 107 214 101 107 214 101 107 214 101 107 214 101 107 214 101 107 214 101 107 214 101 107 214 101 107 214 101 107 214 101 107 214 101 107 214 101 107 214 101 107 214 101 107 214 101 107 214 101 107 214 101 107 214 101 107 214 101 107 214 101 107 214 101 107 214 101 107 214 101 107 214 101 107 214 101 107 214 101 107 214 101 107 214 101 107 214 101 107 214 101 107 214 101 107 214 101 107 214 101 107 214 101 107 214 101 107 214 101 107 214 101 107 214 101 107 214 101 107 0 0 0 0 0 0 0 0 0 0 0 0 0 0 0 0 0 0 0 0 0 0 0 0 0 0 0 0 0 0 0 0 0 0 0 0
0 0 0 0 0 0 0 0 0 0 0 0 0 0 0 0 0 0 0 0 0 0 0 0 0 0 0 0 0 0 0 0 0 0 0 0 214 101 107 214 101 107 214 101 107 214 101 107 214 101 107 214 101 107 214 101 107 214 101 107 214 101 107 214 101 107 214 101 107 214 101 107 214 101 107 214 101 107 214 101 107 214 101 107 214 101 107 214 101 107 214 101 107 214 101 107 214 101 107 214 101 107 214 101 107 214 101 107 214 101 107 214 101 107 214 101 107 214 101 107 214 101 107 214 101 107 214 101 107 214 101 107 214 101 107 214 101 107 214 101 107 214 101 107 214 101 107 214 101 107 214 101 107 214 101 107 0 0 0 0 0 0 0 0 0 0 0 0 0 0 0 0 0 0 0 0 0 0 0 0 0 0 0 0 0 0 0 0 0 0 0 0
0 0 0 0 0 0 0 0 0 0 0 0 0 0 0 0 0 0 0 0 0 0 0 0 0 0 0 0 0 0 0 0 0 0 0 0 0 0 0 0 0 0 0 0 0 0 0 0 0 0 0 0 0 0 0 0 0 0 0 0 0 0 0 0 0 0 88 71 56 158 132 110 158 132 110 158 132 110 158 132 110 158 132 110 158 132 110 158 132 110 158 132 110 158 132 110 158 132 110 158 132 110 158 132 110 158 132 110 158 132 110 158 132 110 158 132 110 158 132 110 158 132 110 158 132 110 88 71 56 0 0 0 0 0 0 0 0 0 0 0 0 0 0 0 0 0 0 0 0 0 0 0 0 0 0 0 0 0 0 0 0 0 0 0 0 0 0 0 0 0 0 0 0 0 0 0 0 0 0 0 0 0 0 0 0 0 0 0 0 0 0 0
0 0 0 0 0 0 0 0 0 0 0 0 0 0 0 0 0 0 0 0 0 0 0 0 0 0 0 0 0 0 0 0 0 0 0 0 0 0 0 0 0 0 0 0 0 0 0 0 0 0 0 0 0 0 0 0 0 88 71 56 155 129 106 155 129 106 155 129 106 155 129 106 155 129 106 155 129 106 155 129 106 155 129 106 155 129 106 155 129 106 155 129 106 155 129 106 155 129 106 155 129 106 155 129 106 155 129 106 155 129 106 155 129 106 155 129 106 155 129 106 155 129 106 155 129 106 155 129 106 155 129 106 155 129 106 88 71 56 0 0 0 0 0 0 0 0 0 0 0 0 0 0 0 0 0 0 0 0 0 0 0 0 0 0 0 0 0 0 0 0 0 0 0 0 0 0 0 0 0 0 0 0 0 0 0 0 0 0 0 0 0 0
0 0 0 0 0 0 0 0 0 0 0 0 0 0 0 0 0 0 0 0 0 0 0 0 0 0 0 0 0 0 0 0 0 0 0 0 0 0 0 0 0 0 0 0 0 0 0 0 0 0 0 212 168 75 212 168 75 212 168 75 212 168 75 212 168 75 212 168 75 212 168 75 212 168 75 153 125 102 153 125 102 153 125 102 153 125 102 153 125 102 153 125 102 153 125 102 153 125 102 153 125 102 153 125 102 153 125 102 153 125 102 153 125 102 63 155 88 63 155 88 63 155 88 63 155 88 63 155 88 63 155 88 63 155 88 63 155 88 63 155 88 88 71 56 0 0 0 0 0 0 0 0 0 0 0 0 0 0 0 0 0 0 0 0 0 0 0 0 0 0 0 0 0 0 0 0 0 0 0 0 0 0 0 0 0 0 0 0 0 0 0 0
0 0 0 0 0 0 0 0 0 0 0 0 0 0 0 0 0 0 0 0 0 0 0 0 0 0 0 0 0 0 0 0 0 0 0 0 0 0 0 0 0 0 88 71 56 150 122 98 150 122 98 212 168 75 212 168 75 212 168 75 212 168 75 212 168 75 212 168 75 212 168 75 212 168 75 150 122 98 150 122 98 150 122 98 150 122 98 150 122 98 150 122 98 150 122 98 150 122 98 150 122 98 150 122 98 150 122 98 150 122 98 150 122 98 63 155 88 63 155 88 63 155 88 63 155 88 63 155 88 63 155 88 63 155 88 63 155 88 63 155 88 150 122 98 150 122 98 150 122 98 88 71 56 0 0 0 0 0 0 0 0 0 0 0 0 0 0 0 0 0 0 0 0 0 0 0 0 0 0 0 0 0 0 0 0 0 0 0 0 0 0 0
0 0 0 0 0 0 0 0 0 0 0 0 0 0 0 0 0 0 0 0 0 0 0 0 0 0 0 0 0 0 0 0 0 88 71 56 148 119 94 148 119 94 148 119 94 148 119 94 148 119 94 212 168 75 212 168 75 212 168 75 212 168 75 212 168 75 212 168 75 212 168 75 212 168 75 148 119 94 148 119 94 148 119 94 148 119 94 148 119 94 148 119 94 148 119 94 148 119 94 148 119 94 148 119 94 148 119 94 148 119 94 148 119 94 63 155 88 63 155 88 63 155 88 63 155 88 63 155 88 63 155 88 63 155 88 63 155 88 63 155 88 148 119 94 148 119 94 148 119 94 148 119 94 148 119 94 148 119 94 88 71 56 0 0 0 0 0 0 0 0 0 0 0 0 0 0 0 0 0 0 0 0 0 0 0 0 0 0 0 0 0 0
0 0 0 0 0 0 0 0 0 0 0 0 0 0 0 0 0 0 0 0 0 0 0 0 0 0 0 0 0 0 0 0 0 73 51 32 73 51 32 0 0 0 88 71 56 140 113 89 140 113 89 212 168 75 212 168 75 212 168 75 212 168 75 212 168 75 212 168 75 212 168 75 212 168 75 140 113 89 140 113 89 140 113 89 140 113 89 140 113 89 140 113 89 140 113 89 140 113 89 140 113 89 140 113 89 140 113 89 140 113 89 140 113 89 63 155 88 63 155 88 63 155 88 63 155 88 63 155 88 63 155 88 63 155 88 63 155 88 63 155 88 140 113 89 140 113 89 140 113 89 88 71 56 81 56 36 81 56 36 0 0 0 0 0 0 0 0 0 0 0 0 0 0 0 0 0 0 0 0 0 0 0 0 0 0 0 0 0 0 0 0 0
0 0 0 0 0 0 0 0 0 0 0 0 0 0 0 0 0 0 0 0 0 0 0 0 0 0 0 0 0 0 0 0 0 73 51 32 73 51 32 73 51 32 73 51 32 73 51 32 0 0 0 212 168 75 212 168 75 212 168 75 212 168 75 212 168 75 212 168 75 212 168 75 212 168 75 133 107 84 133 107 84 133 107 84 133 107 84 133 107 84 133 107 84 133 107 84 133 107 84 133 107 84 133 107 84 133 107 84 133 107 84 133 107 84 63 155 88 63 155 88 63 155 88 63 155 88 63 155 88 63 155 88 63 155 88 63 155 88 63 155 88 88 71 56 81 56 36 81 56 36 81 56 36 81 56 36 81 56 36 0 0 0 0 0 0 0 0 0 0 0 0 0 0 0 0 0 0 0 0 0 0 0 0 0 0 0 0 0 0 0 0 0
0 0 0 0 0 0 0 0 0 0 0 0 0 0 0 0 0 0 0 0 0 0 0 0 0 0 0 0 0 0 0 0 0 73 51 32 73 51 32 73 51 32 73 51 32 73 51 32 73 51 32 73 51 32 0 0 0 88 71 56 125 101 79 125 101 79 125 101 79 125 101 79 125 101 79 125 101 79 125 101 79 125 101 79 125 101 79 125 101 79 125 101 79 125 101 79 125 101 79 125 101 79 125 101 79 125 101 79 125 101 79 125 101 79 125 101 79 125 101 79 125 101 79 125 101 79 125 101 79 125 101 79 125 101 79 88 71 56 81 56 36 81 56 36 81 56 36 81 56 36 81 56 36 81 56 36 81 56 36 0 0 0 0 0 0 0 0 0 0 0 0 0 0 0 0 0 0 0 0 0 0 0 0 0 0 0 0 0 0 0 0 0
0 0 0 0 0 0 0 0 0 0 0 0 0 0 0 0 0 0 0 0 0 0 0 0 0 0 0 0 0 0 0 0 0 73 51 32 73 51 32 73 51 32 73 51 32 73 51 32 73 51 32 73 51 32 73 51 32 73 51 32 73 51 32 0 0 0 88 71 56 118 95 75 118 95 75 118 95 75 118 95 75 118 95 75 118 95 75 118 95 75 118 95 75 118 95 75 118 95 75 118 95 75 118 95 75 118 95 75 118 95 75 118 95 75 118 95 75 118 95 75 118 95 75 118 95 75 88 71 56 81 56 36 81 56 36 81 56 36 81 56 36 81 56 36 81 56 36 81 56 36 81 56 36 81 56 36 81 56 36 0 0 0 0 0 0 0 0 0 0 0 0 0 0 0 0 0 0 0 0 0 0 0 0 0 0 0 0 0 0 0 0 0
0 0 0 0 0 0 0 0 0 0 0 0 0 0 0 0 0 0 0 0 0 0 0 0 0 0 0 0 0 0 0 0 0 73 51 32 73 51 32 73 51 32 73 51 32 73 51 32 73 51 32 73 51 32 73 51 32 73 51 32 73 51 32 73 51 32 73 51 32 73 51 32 0 0 0 88 71 56 110 89 70 110 89 70 110 89 70 110 89 70 110 89 70 110 89 70 110 89 70 110 89 70 110 89 70 110 89 70 110 89 70 110 89 70 110 89 70 88 71 56 81 56 36 81 56 36 81 56 36 81 56 36 81 56 36 81 56 36 81 56 36 81 56 36 81 56 36 81 56 36 81 56 36 81 56 36 81 56 36 0 0 0 0 0 0 0 0 0 0 0 0 0 0 0 0 0 0 0 0 0 0 0 0 0 0 0 0 0 0 0 0 0
0 0 0 0 0 0 0 0 0 0 0 0 0 0 0 0 0 0 0 0 0 0 0 0 0 0 0 0 0 0 0 0 0 73 51 32 73 51 32 73 51 32 73 51 32 73 51 32 73 51 32 73 51 32 73 51 32 73 51 32 73 51 32 73 51 32 73 51 32 73 51 32 73 51 32 73 51 32 0 0 0 88 71 56 103 83 65 103 83 65 103 83 65 103 83 65 103 83 65 103 83 65 103 83 65 103 83 65 103 83 65 88 71 56 81 56 36 81 56 36 81 56 36 81 56 36 81 56 36 81 56 36 81 56 36 81 56 36 81 56 36 81 56 36 81 56 36 81 56 36 81 56 36 81 56 36 81 56 36 0 0 0 0 0 0 0 0 0 0 0 0 0 0 0 0 0 0 0 0 0 0 0 0 0 0 0 0 0 0 0 0 0
0 0 0 0 0 0 0 0 0 0 0 0 0 0 0 0 0 0 0 0 0 0 0 0 0 0 0 0 0 0 0 0 0 73 51 32 73 51 32 73 51 32 73 51 32 73 51 32 73 51 32 73 51 32 73 51 32 73 51 32 73 51 32 73 51 32 73 51 32 73 51 32 73 51 32 73 51 32 73 51 32 73 51 32 73 51 32 0 0 0 88 71 56 95 77 60 95 77 60 95 77 60 88 71 56 81 56 36 81 56 36 81 56 36 81 56 36 81 56 36 81 56 36 81 56 36 81 56 36 81 56 36 81 56 36 81 56 36 81 56 36 81 56 36 81 56 36 81 56 36 81 56 36 81 56 36 81 56 36 0 0 0 0 0 0 0 0 0 0 0 0 0 0 0 0 0 0 0 0 0 0 0 0 0 0 0 0 0 0 0 0 0
0 0 0 0 0 0 0 0 0 0 0 0 0 0 0 0 0 0 0 0 0 0 0 0 0 0 0 0 0 0 0 0 0 73 51 32 73 51 32 73 51 32 73 51 32 73 51 32 73 51 32 73 51 32 73 51 32 73 51 32 73 51 32 73 51 32 73 51 32 73 51 32 73 51 32 73 51 32 73 51 32 73 51 32 73 51 32 73 51 32 73 51 32 73 51 32 81 56 36 81 56 36 81 56 36 81 56 36 81 56 36 81 56 36 81 56 36 81 56 36 81 56 36 81 56 36 81 56 36 81 56 36 81 56 36 81 56 36 81 56 36 81 56 36 81 56 36 81 56 36 81 56 36 81 56 36 81 56 36 0 0 0 0 0 0 0 0 0 0 0 0 0 0 0 0 0 0 0 0 0 0 0 0 0 0 0 0 0 0 0 0 0
0 0 0 0 0 0 0 0 0 0 0 0 0 0 0 0 0 0 0 0 0 0 0 0 0 0 0 0 0 0 0 0 0 73 51 32 73 51 32 73 51 32 73 51 32 73 51 32 73 51 32 73 51 32 73 51 32 73 51 32 73 51 32 73 51 32 73 51 32 73 51 32 73 51 32 73 51 32 73 51 32 73 51 32 73 51 32 73 51 32 73 51 32 73 51 32 81 56 36 81 56 36 81 56 36 81 56 36 81 56 36 81 56 36 81 56 36 81 56 36 81 56 36 81 56 36 81 56 36 81 56 36 81 56 36 81 56 36 81 56 36 81 56 36 81 56 36 81 56 36 81 56 36 81 56 36 81 56 36 0 0 0 0 0 0 0 0 0 0 0 0 0 0 0 0 0 0 0 0 0 0 0 0 0 0 0 0 0 0 0 0 0
0 0 0 0 0 0 0 0 0 0 0 0 0 0 0 0 0 0 0 0 0 0 0 0 0 0 0 0 0 0 0 0 0 73 51 32 73 51 32 73 51 32 73 51 32 73 51 32 73 51 32 73 51 32 73 51 32 73 51 32 73 51 32 73 51 32 73 51 32 73 51 32 73 51 32 73 51 32 73 51 32 73 51 32 73 51 32 73 51 32 73 51 32 73 51 32 81 56 36 81 56 36 81 56 36 81 56 36 81 56 36 81 56 36 81 56 36 81 56 36 81 56 36 81 56 36 81 56 36 81 56 36 81 56 36 81 56 36 81 56 36 81 56 36 81 56 36 81 56 36 81 56 36 81 56 36 81 56 36 0 0 0 0 0 0 0 0 0 0 0 0 0 0 0 0 0 0 0 0 0 0 0 0 0 0 0 0 0 0 0 0 0
0 0 0 0 0 0 0 0 0 0 0 0 0 0 0 0 0 0 0 0 0 0 0 0 0 0 0 0 0 0 0 0 0 73 51 32 73 51 32 73 51 32 73 51 32 73 51 32 73 51 32 73 51 32 73 51 32 73 51 32 73 51 32 73 51 32 73 51 32 73 51 32 73 51 32 73 51 32 73 51 32 73 51 32 73 51 32 73 51 32 73 51 32 73 51 32 81 56 36 81 56 36 81 56 36 81 56 36 81 56 36 81 56 36 81 56 36 81 56 36 81 56 36 81 56 36 81 56 36 81 56 36 81 56 36 81 56 36 81 56 36 81 56 36 81 56 36 81 56 36 81 56 36 81 56 36 81 56 36 0 0 0 0 0 0 0 0 0 0 0 0 0 0 0 0 0 0 0 0 0 0 0 0 0 0 0 0 0 0 0 0 0
0 0 0 0 0 0 0 0 0 0 0 0 0 0 0 0 0 0 0 0 0 0 0 0 0 0 0 0 0 0 0 0 0 73 51 32 73 51 32 73 51 32 73 51 32 73 51 32 73 51 32 73 51 32 73 51 32 73 51 32 73 51 32 73 51 32 73 51 32 73 51 32 73 51 32 73 51 32 73 51 32 73 51 32 73 51 32 73 51 32 73 51 32 73 51 32 81 56 36 81 56 36 81 56 36 81 56 36 81 56 36 81 56 36 81 56 36 81 56 36 81 56 36 81 56 36 81 56 36 81 56 36 81 56 36 81 56 36 81 56 36 81 56 36 81 56 36 81 56 36 81 56 36 81 56 36 81 56 36 0 0 0 0 0 0 0 0 0 0 0 0 0 0 0 0 0 0 0 0 0 0 0 0 0 0 0 0 0 0 0 0 0
0 0 0 0 0 0 0 0 0 0 0 0 0 0 0 0 0 0 0 0 0 0 0 0 0 0 0 0 0 0 0 0 0 73 51 32 73 51 32 73 51 32 73 51 32 73 51 32 73 51 32 73 51 32 73 51 32 73 51 32 73 51 32 73 51 32 73 51 32 73 51 32 73 51 32 73 51 32 73 51 32 73 51 32 73 51 32 73 51 32 73 51 32 73 51 32 81 56 36 81 56 36 81 56 36 81 56 36 81 56 36 81 56 36 81 56 36 81 56 36 81 56 36 81 56 36 81 56 36 81 56 36 81 56 36 81 56 36 81 56 36 81 56 36 81 56 36 81 56 36 81 56 36 81 56 36 81 56 36 0 0 0 0 0 0 0 0 0 0 0 0 0 0 0 0 0 0 0 0 0 0 0 0 0 0 0 0 0 0 0 0 0
0 0 0 0 0 0 0 0 0 0 0 0 0 0 0 0 0 0 0 0 0 0 0 0 0 0 0 0 0 0 0 0 0 73 51 32 73 51 32 73 51 32 73 51 32 73 51 32 73 51 32 73 51 32 73 51 32 73 51 32 73 51 32 73 51 32 73 51 32 73 51 32 73 51 32 73 51 32 73 51 32 73 51 32 73 51 32 73 51 32 73 51 32 73 51 32 81 56 36 81 56 36 81 56 36 81 56 36 81 56 36 81 56 36 81 56 36 81 56 36 81 56 36 81 56 36 81 56 36 81 56 36 81 56 36 81 56 36 81 56 36 81 56 36 81 56 36 81 56 36 81 56 36 81 56 36 81 56 36 0 0 0 0 0 0 0 0 0 0 0 0 0 0 0 0 0 0 0 0 0 0 0 0 0 0 0 0 0 0 0 0 0
0 0 0 0 0 0 0 0 0 0 0 0 0 0 0 0 0 0 0 0 0 0 0 0 0 0 0 0 0 0 0 0 0 73 51 32 73 51 32 73 51 32 73 51 32 73 51 32 73 51 32 73 51 32 73 51 32 73 51 32 73 51 32 73 51 32 73 51 32 73 51 32 73 51 32 73 51 32 73 51 32 73 51 32 73 51 32 73 51 32 73 51 32 73 51 32 81 56 36 81 56 36 81 56 36 81 56 36 81 56 36 81 56 36 81 56 36 81 56 36 81 56 36 81 56 36 81 56 36 81 56 36 81 56 36 81 56 36 81 56 36 81 56 36 81 56 36 81 56 36 81 56 36 81 56 36 81 56 36 0 0 0 0 0 0 0 0 0 0 0 0 0 0 0 0 0 0 0 0 0 0 0 0 0 0 0 0 0 0 0 0 0
0 0 0 0 0 0 0 0 0 0 0 0 0 0 0 0 0 0 0 0 0 0 0 0 0 0 0 0 0 0 0 0 0 73 51 32 73 51 32 73 51 32 73 51 32 73 51 32 73 51 32 73 51 32 73 51 32 73 51 32 73 51 32 73 51 32 73 51 32 73 51 32 73 51 32 73 51 32 73 51 32 73 51 32 73 51 32 73 51 32 73 51 32 73 51 32 81 56 36 81 56 36 81 56 36 81 56 36 81 56 36 81 56 36 81 56 36 81 56 36 81 56 36 81 56 36 81 56 36 81 56 36 81 56 36 81 56 36 81 56 36 81 56 36 81 56 36 81 56 36 81 56 36 81 56 36 81 56 36 0 0 0 0 0 0 0 0 0 0 0 0 0 0 0 0 0 0 0 0 0 0 0 0 0 0 0 0 0 0 0 0 0
0 0 0 0 0 0 0 0 0 0 0 0 0 0 0 0 0 0 0 0 0 0 0 0 0 0 0 0 0 0 0 0 0 73 51 32 73 51 32 73 51 32 73 51 32 73 51 32 73 51 32 73 51 32 73 51 32 73 51 32 73 51 32 73 51 32 73 51 32 73 51 32 73 51 32 73 51 32 73 51 32 73 51 32 73 51 32 73 51 32 73 51 32 73 51 32 81 56 36 81 56 36 81 56 36 81 56 36 81 56 36 81 56 36 81 56 36 81 56 36 81 56 36 81 56 36 81 56 36 81 56 36 81 56 36 81 56 36 81 56 36 81 56 36 81 56 36 81 56 36 81 56 36 81 56 36 81 56 36 0 0 0 0 0 0 0 0 0 0 0 0 0 0 0 0 0 0 0 0 0 0 0 0 0 0 0 0 0 0 0 0 0
0 0 0 0 0 0 0 0 0 0 0 0 0 0 0 0 0 0 0 0 0 0 0 0 0 0 0 0 0 0 8 11 9 73 51 32 73 51 32 73 51 32 73 51 32 73 51 32 73 51 32 73 51 32 73 51 32 73 51 32 73 51 32 73 51 32 73 51 32 73 51 32 73 51 32 73 51 32 73 51 32 73 51 32 73 51 32 73 51 32 73 51 32 73 51 32 81 56 36 81 56 36 81 56 36 81 56 36 81 56 36 81 56 36 81 56 36 81 56 36 81 56 36 81 56 36 81 56 36 81 56 36 81 56 36 81 56 36 81 56 36 81 56 36 81 56 36 81 56 36 81 56 36 81 56 36 81 56 36 8 11 9 8 11 9 0 0 0 0 0 0 0 0 0 0 0 0 0 0 0 0 0 0 0 0 0 0 0 0 0 0 0
0 0 0 0 0 0 0 0 0 0 0 0 0 0 0 0 0 0 0 0 0 0 0 0 0 0 0 8 11 9 8 11 9 8 11 9 8 11 9 8 11 9 73 51 32 73 51 32 73 51 32 73 51 32 73 51 32 73 51 32 73 51 32 73 51 32 73 51 32 73 51 32 73 51 32 73 51 32 73 51 32 73 51 32 73 51 32 73 51 32 73 51 32 73 51 32 81 56 36 81 56 36 81 56 36 81 56 36 81 56 36 81 56 36 81 56 36 81 56 36 81 56 36 81 56 36 81 56 36 81 56 36 81 56 36 81 56 36 81 56 36 81 56 36 81 56 36 81 56 36 8 11 9 8 11 9 8 11 9 8 11 9 8 11 9 8 11 9 0 0 0 0 0 0 0 0 0 0 0 0 0 0 0 0 0 0 0 0 0 0 0 0
0 0 0 0 0 0 0 0 0 0 0 0 0 0 0 0 0 0 0 0 0 0 0 0 8 11 9 8 11 9 8 11 9 8 11 9 8 11 9 8 11 9 8 11 9 8 11 9 8 11 9 73 51 32 73 51 32 73 51 32 73 51 32 73 51 32 73 51 32 73 51 32 73 51 32 73 51 32 73 51 32 73 51 32 73 51 32 73 51 32 73 51 32 73 51 32 81 56 36 81 56 36 81 56 36 81 56 36 81 56 36 81 56 36 81 56 36 81 56 36 81 56 36 81 56 36 81 56 36 81 56 36 81 56 36 81 56 36 81 56 36 8 11 9 8 11 9 8 11 9 8 11 9 8 11 9 8 11 9 8 11 9 8 11 9 8 11 9 8 11 9 0 0 0 0 0 0 0 0 0 0 0 0 0 0 0 0 0 0 0 0 0
0 0 0 0 0 0 0 0 0 0 0 0 0 0 0 0 0 0 0 0 0 0 0 0 0 0 0 8 11 9 8 11 9 8 11 9 8 11 9 8 11 9 8 11 9 8 11 9 8 11 9 8 11 9 8 11 9 73 51 32 73 51 32 73 51 32 73 51 32 73 51 32 73 51 32 73 51 32 73 51 32 73 51 32 73 51 32 73 51 32 73 51 32 73 51 32 81 56 36 81 56 36 81 56 36 81 56 36 81 56 36 81 56 36 81 56 36 81 56 36 81 56 36 81 56 36 81 56 36 81 56 36 81 56 36 8 11 9 8 11 9 8 11 9 8 11 9 8 11 9 8 11 9 8 11 9 8 11 9 8 11 9 8 11 9 8 11 9 0 0 0 0 0 0 0 0 0 0 0 0 0 0 0 0 0 0 0 0 0 0 0 0
0 0 0 0 0 0 0 0 0 0 0 0 0 0 0 0 0 0 0 0 0 0 0 0 0 0 0 0 0 0 8 11 9 8 11 9 8 11 9 8 11 9 8 11 9 8 11 9 8 11 9 8 11 9 8 11 9 8 11 9 8 11 9 8 11 9 73 51 32 73 51 32 73 51 32 73 51 32 73 51 32 73 51 32 73 51 32 73 51 32 73 51 32 73 51 32 81 56 36 81 56 36 81 56 36 81 56 36 81 56 36 81 56 36 81 56 36 81 56 36 81 56 36 81 56 36 8 11 9 8 11 9 8 11 9 8 11 9 8 11 9 8 11 9 8 11 9 8 11 9 8 11 9 8 11 9 8 11 9 8 11 9 8 11 9 0 0 0 0 0 0 0 0 0 0 0 0 0 0 0 0 0 0 0 0 0 0 0 0 0 0 0
0 0 0 0 0 0 0 0 0 0 0 0 0 0 0 0 0 0 0 0 0 0 0 0 0 0 0 0 0 0 0 0 0 0 0 0 0 0 0 8 11 9 8 11 9 8 11 9 8 11 9 8 11 9 8 11 9 8 11 9 8 11 9 8 11 9 8 11 9 8 11 9 8 11 9 73 51 32 73 51 32 73 51 32 73 51 32 73 51 32 73 51 32 73 51 32 81 56 36 81 56 36 81 56 36 81 56 36 81 56 36 81 56 36 81 56 36 8 11 9 8 11 9 8 11 9 8 11 9 8 11 9 8 11 9 8 11 9 8 11 9 8 11 9 8 11 9 8 11 9 8 11 9 8 11 9 0 0 0 0 0 0 0 0 0 0 0 0 0 0 0 0 0 0 0 0 0 0 0 0 0 0 0 0 0 0 0 0 0 0 0 0
