P3
48 24
255
0 0 0 0 0 0 0 0 0 0 0 0 0 0 0 0 0 0 0 0 0 0 0 0 0 0 0 0 0 0 0 0 0 0 0 0 0 0 0 0 0 0 0 0 0 0 0 0 0 0 0 0 0 0 0 0 0 0 0 0 0 0 0 0 0 0 0 0 0 0 0 0 0 0 0 0 0 0 0 0 0 0 0 0 0 0 0 0 0 0 0 0 0 0 0 0 0 0 0 0 0 0 0 0 0 0 0 0 0 0 0 0 0 0 0 0 0 0 0 0 0 0 0 0 0 0 0 0 0 0 0 0 0 0 0 0 0 0 0 0 0 0 0 0
0 0 0 0 0 0 0 0 0 0 0 0 0 0 0 0 0 0 0 0 0 0 0 0 0 0 0 0 0 0 0 0 0 0 0 0 0 0 0 0 0 0 0 0 0 0 0 0 0 0 0 0 0 0 0 0 0 0 0 0 0 0 0 0 0 0 0 0 0 0 0 0 0 0 0 0 0 0 0 0 0 0 0 0 0 0 0 0 0 0 0 0 0 0 0 0 0 0 0 0 0 0 0 0 0 0 0 0 0 0 0 0 0 0 0 0 0 0 0 0 0 0 0 0 0 0 0 0 0 0 0 0 0 0 0 0 0 0 0 0 0 0 0 0
0 0 0 0 0 0 0 0 0 0 0 0 0 0 0 0 0 0 0 0 0 0 0 0 0 0 0 0 0 0 0 0 0 0 0 0 0 0 0 0 0 0 0 0 0 0 0 0 0 0 0 0 0 0 0 0 0 0 0 0 0 0 0 0 0 0 0 0 0 0 0 0 87 139 105 0 0 0 0 0 0 0 0 0 0 0 0 0 0 0 0 0 0 0 0 0 0 0 0 0 0 0 0 0 0 0 0 0 0 0 0 0 0 0 0 0 0 0 0 0 0 0 0 0 0 0 0 0 0 0 0 0 0 0 0 0 0 0 0 0 0 0 0 0
0 0 0 0 0 0 0 0 0 0 0 0 0 0 0 0 0 0 0 0 0 0 0 0 0 0 0 0 0 0 0 0 0 0 0 0 0 0 0 0 0 0 0 0 0 0 0 0 0 0 0 0 0 0 0 0 0 0 0 0 0 0 0 0 0 0 27 66 40 83 136 101 83 136 101 83 136 101 27 66 40 0 0 0 0 0 0 0 0 0 0 0 0 0 0 0 0 0 0 0 0 0 0 0 0 0 0 0 0 0 0 0 0 0 0 0 0 0 0 0 0 0 0 0 0 0 0 0 0 0 0 0 0 0 0 0 0 0 0 0 0 0 0 0
0 0 0 0 0 0 0 0 0 0 0 0 0 0 0 0 0 0 0 0 0 0 0 0 0 0 0 0 0 0 0 0 0 0 0 0 0 0 0 0 0 0 0 0 0 0 0 0 0 0 0 0 0 0 0 0 0 0 0 0 27 66 40 79 133 98 79 133 98 79 133 98 79 133 98 79 133 98 79 133 98 79 133 98 27 66 40 0 0 0 0 0 0 0 0 0 0 0 0 0 0 0 0 0 0 0 0 0 0 0 0 0 0 0 0 0 0 0 0 0 0 0 0 0 0 0 0 0 0 0 0 0 0 0 0 0 0 0 0 0 0 0 0 0
0 0 0 0 0 0 0 0 0 0 0 0 0 0 0 0 0 0 0 0 0 0 0 0 0 0 0 0 0 0 0 0 0 0 0 0 0 0 0 0 0 0 0 0 0 0 0 0 0 0 0 0 0 0 27 66 40 75 131 94 75 131 94 75 131 94 75 131 94 75 131 94 75 131 94 75 131 94 75 131 94 75 131 94 75 131 94 75 131 94 27 66 40 0 0 0 0 0 0 0 0 0 0 0 0 0 0 0 0 0 0 0 0 0 0 0 0 0 0 0 0 0 0 0 0 0 0 0 0 0 0 0 0 0 0 0 0 0 0 0 0 0 0 0
0 0 0 0 0 0 0 0 0 0 0 0 0 0 0 0 0 0 0 0 0 0 0 0 0 0 0 0 0 0 0 0 0 0 0 0 0 0 0 0 0 0 0 0 0 0 0 0 27 66 40 72 128 91 72 128 91 72 128 91 72 128 91 72 128 91 72 128 91 72 128 91 72 128 91 72 128 91 72 128 91 64 120 73 64 120 73 64 120 73 64 120 73 64 120 73 64 120 73 64 120 73 64 120 73 64 120 73 0 0 0 0 0 0 0 0 0 0 0 0 0 0 0 0 0 0 0 0 0 0 0 0 0 0 0 0 0 0 0 0 0 0 0 0
0 0 0 0 0 0 0 0 0 0 0 0 0 0 0 0 0 0 0 0 0 0 0 0 0 0 0 0 0 0 0 0 0 0 0 0 0 0 0 0 0 0 27 66 40 68 126 88 68 126 88 68 126 88 68 126 88 68 126 88 68 126 88 68 126 88 68 126 88 68 126 88 68 126 88 68 126 88 68 126 88 64 120 73 64 120 73 64 120 73 64 120 73 64 120 73 64 120 73 64 120 73 64 120 73 64 120 73 0 0 0 0 0 0 0 0 0 0 0 0 0 0 0 0 0 0 0 0 0 0 0 0 0 0 0 0 0 0 0 0 0 0 0 0
0 0 0 0 0 0 0 0 0 0 0 0 0 0 0 0 0 0 0 0 0 0 0 0 0 0 0 0 0 0 0 0 0 0 0 0 27 66 40 64 123 84 64 123 84 64 123 84 64 123 84 64 123 84 64 123 84 64 123 84 64 123 84 64 123 84 64 123 84 64 123 84 64 123 84 64 123 84 64 123 84 64 123 84 64 123 84 64 123 84 64 123 84 64 123 84 64 123 84 64 123 84 64 123 84 64 123 84 27 66 40 0 0 0 0 0 0 0 0 0 0 0 0 0 0 0 0 0 0 0 0 0 0 0 0 0 0 0 0 0 0 0 0 0
0 0 0 0 0 0 0 0 0 0 0 0 0 0 0 0 0 0 0 0 0 0 0 0 0 0 0 0 0 0 27 66 40 60 121 81 64 120 73 64 120 73 64 120 73 64 120 73 64 120 73 64 120 73 64 120 73 60 121 81 60 121 81 60 121 81 60 121 81 60 121 81 60 121 81 60 121 81 60 121 81 60 121 81 60 121 81 60 121 81 60 121 81 60 121 81 60 121 81 60 121 81 60 121 81 60 121 81 60 121 81 60 121 81 27 66 40 0 0 0 0 0 0 0 0 0 0 0 0 0 0 0 0 0 0 0 0 0 0 0 0 0 0 0
0 0 0 0 0 0 0 0 0 0 0 0 0 0 0 0 0 0 0 0 0 0 0 0 27 66 40 57 118 78 57 118 78 57 118 78 64 120 73 64 120 73 64 120 73 64 120 73 64 120 73 64 120 73 64 120 73 57 118 78 57 118 78 57 118 78 57 118 78 57 118 78 57 118 78 57 118 78 57 118 78 57 118 78 57 118 78 57 118 78 57 118 78 57 118 78 57 118 78 57 118 78 57 118 78 57 118 78 57 118 78 57 118 78 57 118 78 57 118 78 27 66 40 0 0 0 0 0 0 0 0 0 0 0 0 0 0 0 0 0 0 0 0 0
0 0 0 0 0 0 0 0 0 0 0 0 0 0 0 0 0 0 27 66 40 53 116 74 53 116 74 53 116 74 53 116 74 53 116 74 53 116 74 53 116 74 53 116 74 53 116 74 53 116 74 53 116 74 53 116 74 53 116 74 53 116 74 53 116 74 53 116 74 53 116 74 53 116 74 53 116 74 53 116 74 53 116 74 53 116 74 53 116 74 53 116 74 53 116 74 53 116 74 53 116 74 53 116 74 53 116 74 53 116 74 53 116 74 53 116 74 53 116 74 53 116 74 53 116 74 27 66 40 0 0 0 0 0 0 0 0 0 0 0 0 0 0 0
0 0 0 0 0 0 0 0 0 0 0 0 27 66 40 49 113 71 49 113 71 49 113 71 49 113 71 49 113 71 49 113 71 49 113 71 49 113 71 49 113 71 49 113 71 49 113 71 49 113 71 49 113 71 49 113 71 49 113 71 49 113 71 49 113 71 49 113 71 49 113 71 49 113 71 49 113 71 49 113 71 49 113 71 49 113 71 49 113 71 49 113 71 49 113 71 49 113 71 49 113 71 49 113 71 49 113 71 49 113 71 49 113 71 49 113 71 49 113 71 49 113 71 49 113 71 49 113 71 49 113 71 27 66 40 0 0 0 0 0 0 0 0 0
0 0 0 27 66 40 46 111 68 46 111 68 46 111 68 46 111 68 46 111 68 46 111 68 46 111 68 46 111 68 46 111 68 46 111 68 46 111 68 46 111 68 46 111 68 46 111 68 46 111 68 46 111 68 46 111 68 46 111 68 46 111 68 46 111 68 46 111 68 46 111 68 46 111 68 46 111 68 46 111 68 46 111 68 46 111 68 46 111 68 46 111 68 46 111 68 46 111 68 46 111 68 46 111 68 46 111 68 46 111 68 46 111 68 46 111 68 46 111 68 46 111 68 46 111 68 46 111 68 46 111 68 46 111 68 46 111 68 46 111 68 27 66 40
0 0 0 0 0 0 0 0 0 0 0 0 27 66 40 44 106 65 44 106 65 44 106 65 44 106 65 44 106 65 44 106 65 44 106 65 44 106 65 44 106 65 44 106 65 44 106 65 44 106 65 44 106 65 44 106 65 44 106 65 44 106 65 44 106 65 44 106 65 44 106 65 44 106 65 44 106 65 44 106 65 44 106 65 44 106 65 44 106 65 44 106 65 44 106 65 44 106 65 44 106 65 44 106 65 44 106 65 44 106 65 44 106 65 44 106 65 44 106 65 44 106 65 44 106 65 44 106 65 44 106 65 27 66 40 0 0 0 0 0 0 0 0 0
0 0 0 0 0 0 0 0 0 0 0 0 0 0 0 0 0 0 27 66 40 42 102 62 42 102 62 42 102 62 42 102 62 42 102 62 42 102 62 42 102 62 42 102 62 42 102 62 42 102 62 42 102 62 42 102 62 42 102 62 42 102 62 42 102 62 42 102 62 42 102 62 42 102 62 42 102 62 42 102 62 42 102 62 42 102 62 42 102 62 42 102 62 64 120 73 64 120 73 64 120 73 64 120 73 64 120 73 64 120 73 42 102 62 42 102 62 42 102 62 42 102 62 42 102 62 27 66 40 0 0 0 0 0 0 0 0 0 0 0 0 0 0 0
0 0 0 0 0 0 0 0 0 0 0 0 0 0 0 0 0 0 0 0 0 0 0 0 27 66 40 40 98 60 40 98 60 40 98 60 40 98 60 40 98 60 40 98 60 40 98 60 40 98 60 40 98 60 64 120 73 64 120 73 64 120 73 64 120 73 64 120 73 40 98 60 40 98 60 40 98 60 40 98 60 40 98 60 40 98 60 40 98 60 40 98 60 64 120 73 64 120 73 64 120 73 64 120 73 64 120 73 64 120 73 40 98 60 40 98 60 40 98 60 27 66 40 0 0 0 0 0 0 0 0 0 0 0 0 0 0 0 0 0 0 0 0 0
0 0 0 0 0 0 0 0 0 0 0 0 0 0 0 0 0 0 0 0 0 0 0 0 0 0 0 0 0 0 27 66 40 39 94 57 39 94 57 39 94 57 39 94 57 39 94 57 39 94 57 39 94 57 64 120 73 64 120 73 64 120 73 64 120 73 64 120 73 39 94 57 39 94 57 39 94 57 39 94 57 39 94 57 39 94 57 39 94 57 39 94 57 39 94 57 39 94 57 39 94 57 39 94 57 39 94 57 39 94 57 39 94 57 27 66 40 0 0 0 0 0 0 0 0 0 0 0 0 0 0 0 0 0 0 0 0 0 0 0 0 0 0 0
0 0 0 0 0 0 0 0 0 0 0 0 0 0 0 0 0 0 0 0 0 0 0 0 0 0 0 0 0 0 0 0 0 0 0 0 27 66 40 37 90 55 37 90 55 37 90 55 37 90 55 37 90 55 37 90 55 37 90 55 37 90 55 37 90 55 37 90 55 37 90 55 37 90 55 37 90 55 37 90 55 37 90 55 37 90 55 37 90 55 37 90 55 37 90 55 37 90 55 37 90 55 37 90 55 37 90 55 27 66 40 0 0 0 0 0 0 0 0 0 0 0 0 0 0 0 0 0 0 0 0 0 0 0 0 0 0 0 0 0 0 0 0 0
0 0 0 0 0 0 0 0 0 0 0 0 0 0 0 0 0 0 0 0 0 0 0 0 0 0 0 0 0 0 0 0 0 0 0 0 0 0 0 0 0 0 27 66 40 35 86 52 35 86 52 35 86 52 35 86 52 35 86 52 35 86 52 35 86 52 35 86 52 35 86 52 35 86 52 35 86 52 35 86 52 35 86 52 35 86 52 35 86 52 35 86 52 35 86 52 35 86 52 35 86 52 27 66 40 0 0 0 0 0 0 0 0 0 0 0 0 0 0 0 0 0 0 0 0 0 0 0 0 0 0 0 0 0 0 0 0 0 0 0 0 0 0 0
0 0 0 0 0 0 0 0 0 0 0 0 0 0 0 0 0 0 0 0 0 0 0 0 0 0 0 0 0 0 0 0 0 0 0 0 0 0 0 0 0 0 0 0 0 0 0 0 27 66 40 33 82 50 33 82 50 33 82 50 33 82 50 33 82 50 33 82 50 33 82 50 33 82 50 33 82 50 33 82 50 33 82 50 33 82 50 33 82 50 33 82 50 33 82 50 27 66 40 0 0 0 0 0 0 0 0 0 0 0 0 0 0 0 0 0 0 0 0 0 0 0 0 0 0 0 0 0 0 0 0 0 0 0 0 0 0 0 0 0 0 0 0 0
0 0 0 0 0 0 0 0 0 0 0 0 0 0 0 0 0 0 0 0 0 0 0 0 0 0 0 0 0 0 0 0 0 0 0 0 0 0 0 0 0 0 0 0 0 0 0 0 0 0 0 0 0 0 27 66 40 32 78 47 32 78 47 32 78 47 32 78 47 32 78 47 32 78 47 32 78 47 32 78 47 32 78 47 32 78 47 32 78 47 27 66 40 0 0 0 0 0 0 0 0 0 0 0 0 0 0 0 0 0 0 0 0 0 0 0 0 0 0 0 0 0 0 0 0 0 0 0 0 0 0 0 0 0 0 0 0 0 0 0 0 0 0 0
0 0 0 0 0 0 0 0 0 0 0 0 0 0 0 0 0 0 0 0 0 0 0 0 0 0 0 0 0 0 0 0 0 0 0 0 0 0 0 0 0 0 0 0 0 0 0 0 0 0 0 0 0 0 0 0 0 0 0 0 27 66 40 30 74 45 30 74 45 30 74 45 30 74 45 30 74 45 30 74 45 30 74 45 27 66 40 0 0 0 0 0 0 0 0 0 0 0 0 0 0 0 0 0 0 0 0 0 0 0 0 0 0 0 0 0 0 0 0 0 0 0 0 0 0 0 0 0 0 0 0 0 0 0 0 0 0 0 0 0 0 0 0 0
0 0 0 0 0 0 0 0 0 0 0 0 0 0 0 0 0 0 0 0 0 0 0 0 0 0 0 0 0 0 0 0 0 0 0 0 0 0 0 0 0 0 0 0 0 0 0 0 0 0 0 0 0 0 0 0 0 0 0 0 0 0 0 0 0 0 27 66 40 28 70 42 28 70 42 28 70 42 27 66 40 0 0 0 0 0 0 0 0 0 0 0 0 0 0 0 0 0 0 0 0 0 0 0 0 0 0 0 0 0 0 0 0 0 0 0 0 0 0 0 0 0 0 0 0 0 0 0 0 0 0 0 0 0 0 0 0 0 0 0 0 0 0 0
