P3
48 24
255
0 0 0 0 0 0 0 0 0 0 0 0 0 0 0 0 0 0 0 0 0 0 0 0 0 0 0 0 0 0 0 0 0 0 0 0 0 0 0 0 0 0 0 0 0 0 0 0 0 0 0 0 0 0 0 0 0 0 0 0 0 0 0 0 0 0 0 0 0 0 0 0 0 0 0 0 0 0 0 0 0 0 0 0 0 0 0 0 0 0 0 0 0 0 0 0 0 0 0 0 0 0 0 0 0 0 0 0 0 0 0 0 0 0 0 0 0 0 0 0 0 0 0 0 0 0 0 0 0 0 0 0 0 0 0 0 0 0 0 0 0 0 0 0
0 0 0 0 0 0 0 0 0 0 0 0 0 0 0 0 0 0 0 0 0 0 0 0 0 0 0 0 0 0 0 0 0 0 0 0 0 0 0 0 0 0 0 0 0 0 0 0 0 0 0 0 0 0 0 0 0 0 0 0 0 0 0 0 0 0 0 0 0 0 0 0 0 0 0 0 0 0 0 0 0 0 0 0 0 0 0 0 0 0 0 0 0 0 0 0 0 0 0 0 0 0 0 0 0 0 0 0 0 0 0 0 0 0 0 0 0 0 0 0 0 0 0 0 0 0 0 0 0 0 0 0 0 0 0 0 0 0 0 0 0 0 0 0
0 0 0 0 0 0 0 0 0 0 0 0 0 0 0 0 0 0 0 0 0 0 0 0 0 0 0 0 0 0 0 0 0 0 0 0 0 0 0 0 0 0 0 0 0 0 0 0 0 0 0 0 0 0 0 0 0 0 0 0 0 0 0 0 0 0 0 0 0 0 0 0 80 123 99 0 0 0 0 0 0 0 0 0 0 0 0 0 0 0 0 0 0 0 0 0 0 0 0 0 0 0 0 0 0 0 0 0 0 0 0 0 0 0 0 0 0 0 0 0 0 0 0 0 0 0 0 0 0 0 0 0 0 0 0 0 0 0 0 0 0 0 0 0
0 0 0 0 0 0 0 0 0 0 0 0 0 0 0 0 0 0 0 0 0 0 0 0 0 0 0 0 0 0 0 0 0 0 0 0 0 0 0 0 0 0 0 0 0 0 0 0 0 0 0 0 0 0 0 0 0 0 0 0 0 0 0 0 0 0 22 54 36 76 120 95 76 120 95 76 120 95 22 54 36 0 0 0 0 0 0 0 0 0 0 0 0 0 0 0 0 0 0 0 0 0 0 0 0 0 0 0 0 0 0 0 0 0 0 0 0 0 0 0 0 0 0 0 0 0 0 0 0 0 0 0 0 0 0 0 0 0 0 0 0 0 0 0
0 0 0 0 0 0 0 0 0 0 0 0 0 0 0 0 0 0 0 0 0 0 0 0 0 0 0 0 0 0 0 0 0 0 0 0 0 0 0 0 0 0 0 0 0 0 0 0 0 0 0 0 0 0 0 0 0 0 0 0 22 54 36 72 117 92 72 117 92 72 117 92 72 117 92 72 117 92 72 117 92 72 117 92 22 54 36 0 0 0 0 0 0 0 0 0 0 0 0 0 0 0 0 0 0 0 0 0 0 0 0 0 0 0 0 0 0 0 0 0 0 0 0 0 0 0 0 0 0 0 0 0 0 0 0 0 0 0 0 0 0 0 0 0
0 0 0 0 0 0 0 0 0 0 0 0 0 0 0 0 0 0 0 0 0 0 0 0 0 0 0 0 0 0 0 0 0 0 0 0 0 0 0 0 0 0 0 0 0 0 0 0 0 0 0 0 0 0 22 54 36 68 114 88 68 114 88 68 114 88 68 114 88 68 114 88 68 114 88 68 114 88 68 114 88 68 114 88 68 114 88 68 114 88 22 54 36 0 0 0 0 0 0 0 0 0 0 0 0 0 0 0 0 0 0 0 0 0 0 0 0 0 0 0 0 0 0 0 0 0 0 0 0 0 0 0 0 0 0 0 0 0 0 0 0 0 0 0
0 0 0 0 0 0 0 0 0 0 0 0 0 0 0 0 0 0 0 0 0 0 0 0 0 0 0 0 0 0 0 0 0 0 0 0 0 0 0 0 0 0 0 0 0 0 0 0 22 54 36 46 111 68 46 111 68 46 111 68 46 111 68 64 111 85 64 111 85 64 111 85 64 111 85 64 111 85 64 111 85 64 111 85 64 111 85 64 111 85 64 111 85 64 111 85 22 54 36 0 0 0 0 0 0 0 0 0 0 0 0 0 0 0 0 0 0 0 0 0 0 0 0 0 0 0 0 0 0 0 0 0 0 0 0 0 0 0 0 0 0 0 0 0
0 0 0 0 0 0 0 0 0 0 0 0 0 0 0 0 0 0 0 0 0 0 0 0 0 0 0 0 0 0 0 0 0 0 0 0 0 0 0 0 0 0 22 54 36 60 108 81 60 108 81 46 111 68 46 111 68 46 111 68 46 111 68 60 108 81 60 108 81 60 108 81 60 108 81 60 108 81 60 108 81 60 108 81 60 108 81 60 108 81 60 108 81 60 108 81 60 108 81 60 108 81 22 54 36 0 0 0 0 0 0 0 0 0 0 0 0 0 0 0 0 0 0 0 0 0 0 0 0 0 0 0 0 0 0 0 0 0 0 0 0 0 0 0
0 0 0 0 0 0 0 0 0 0 0 0 0 0 0 0 0 0 0 0 0 0 0 0 0 0 0 0 0 0 0 0 0 0 0 0 22 54 36 56 105 78 56 105 78 56 105 78 56 105 78 56 105 78 56 105 78 56 105 78 56 105 78 56 105 78 56 105 78 46 111 68 46 111 68 46 111 68 46 111 68 46 111 68 46 111 68 56 105 78 56 105 78 56 105 78 56 105 78 56 105 78 56 105 78 56 105 78 22 54 36 0 0 0 0 0 0 0 0 0 0 0 0 0 0 0 0 0 0 0 0 0 0 0 0 0 0 0 0 0 0 0 0 0
0 0 0 0 0 0 0 0 0 0 0 0 0 0 0 0 0 0 0 0 0 0 0 0 0 0 0 0 0 0 22 54 36 52 102 74 52 102 74 52 102 74 52 102 74 52 102 74 52 102 74 52 102 74 52 102 74 52 102 74 52 102 74 52 102 74 52 102 74 46 111 68 46 111 68 46 111 68 46 111 68 46 111 68 46 111 68 52 102 74 52 102 74 52 102 74 52 102 74 52 102 74 52 102 74 52 102 74 52 102 74 52 102 74 22 54 36 0 0 0 0 0 0 0 0 0 0 0 0 0 0 0 0 0 0 0 0 0 0 0 0 0 0 0
0 0 0 0 0 0 0 0 0 0 0 0 0 0 0 0 0 0 0 0 0 0 0 0 22 54 36 48 99 71 48 99 71 48 99 71 48 99 71 48 99 71 48 99 71 48 99 71 48 99 71 48 99 71 48 99 71 48 99 71 48 99 71 48 99 71 48 99 71 48 99 71 48 99 71 48 99 71 48 99 71 48 99 71 48 99 71 48 99 71 48 99 71 48 99 71 48 99 71 48 99 71 48 99 71 48 99 71 48 99 71 48 99 71 48 99 71 48 99 71 22 54 36 0 0 0 0 0 0 0 0 0 0 0 0 0 0 0 0 0 0 0 0 0
0 0 0 0 0 0 0 0 0 0 0 0 0 0 0 0 0 0 22 54 36 44 96 67 44 96 67 44 96 67 44 96 67 44 96 67 44 96 67 44 96 67 44 96 67 44 96 67 44 96 67 44 96 67 44 96 67 44 96 67 44 96 67 44 96 67 44 96 67 44 96 67 44 96 67 44 96 67 44 96 67 44 96 67 44 96 67 44 96 67 44 96 67 44 96 67 44 96 67 44 96 67 44 96 67 44 96 67 44 96 67 44 96 67 44 96 67 44 96 67 44 96 67 44 96 67 22 54 36 0 0 0 0 0 0 0 0 0 0 0 0 0 0 0
0 0 0 0 0 0 0 0 0 0 0 0 22 54 36 40 93 64 40 93 64 40 93 64 40 93 64 40 93 64 40 93 64 40 93 64 40 93 64 40 93 64 40 93 64 40 93 64 40 93 64 40 93 64 40 93 64 40 93 64 40 93 64 40 93 64 40 93 64 40 93 64 40 93 64 40 93 64 40 93 64 40 93 64 40 93 64 40 93 64 40 93 64 40 93 64 40 93 64 40 93 64 40 93 64 40 93 64 40 93 64 40 93 64 40 93 64 40 93 64 40 93 64 40 93 64 40 93 64 40 93 64 22 54 36 0 0 0 0 0 0 0 0 0
0 0 0 22 54 36 37 90 61 37 90 61 37 90 61 37 90 61 37 90 61 37 90 61 37 90 61 37 90 61 46 111 68 46 111 68 46 111 68 46 111 68 46 111 68 46 111 68 46 111 68 46 111 68 37 90 61 37 90 61 37 90 61 37 90 61 37 90 61 37 90 61 37 90 61 37 90 61 37 90 61 37 90 61 37 90 61 37 90 61 37 90 61 37 90 61 37 90 61 37 90 61 37 90 61 37 90 61 37 90 61 37 90 61 37 90 61 37 90 61 37 90 61 37 90 61 37 90 61 37 90 61 37 90 61 37 90 61 37 90 61 22 54 36
0 0 0 0 0 0 0 0 0 0 0 0 22 54 36 35 86 58 35 86 58 35 86 58 35 86 58 35 86 58 46 111 68 46 111 68 46 111 68 46 111 68 46 111 68 46 111 68 46 111 68 46 111 68 35 86 58 35 86 58 35 86 58 35 86 58 35 86 58 35 86 58 35 86 58 35 86 58 35 86 58 35 86 58 35 86 58 35 86 58 35 86 58 35 86 58 35 86 58 35 86 58 35 86 58 35 86 58 35 86 58 35 86 58 35 86 58 35 86 58 35 86 58 35 86 58 35 86 58 35 86 58 22 54 36 0 0 0 0 0 0 0 0 0
0 0 0 0 0 0 0 0 0 0 0 0 0 0 0 0 0 0 22 54 36 34 83 56 34 83 56 34 83 56 34 83 56 34 83 56 34 83 56 34 83 56 34 83 56 34 83 56 34 83 56 34 83 56 34 83 56 34 83 56 34 83 56 34 83 56 34 83 56 34 83 56 34 83 56 34 83 56 34 83 56 34 83 56 34 83 56 34 83 56 34 83 56 34 83 56 34 83 56 34 83 56 34 83 56 34 83 56 34 83 56 34 83 56 34 83 56 34 83 56 34 83 56 34 83 56 22 54 36 0 0 0 0 0 0 0 0 0 0 0 0 0 0 0
0 0 0 0 0 0 0 0 0 0 0 0 0 0 0 0 0 0 0 0 0 0 0 0 22 54 36 32 80 54 32 80 54 32 80 54 32 80 54 32 80 54 32 80 54 32 80 54 32 80 54 32 80 54 32 80 54 32 80 54 32 80 54 32 80 54 32 80 54 32 80 54 32 80 54 32 80 54 32 80 54 32 80 54 32 80 54 32 80 54 32 80 54 32 80 54 32 80 54 32 80 54 32 80 54 32 80 54 32 80 54 32 80 54 32 80 54 32 80 54 22 54 36 0 0 0 0 0 0 0 0 0 0 0 0 0 0 0 0 0 0 0 0 0
0 0 0 0 0 0 0 0 0 0 0 0 0 0 0 0 0 0 0 0 0 0 0 0 0 0 0 0 0 0 22 54 36 31 76 51 31 76 51 31 76 51 31 76 51 31 76 51 31 76 51 31 76 51 31 76 51 31 76 51 31 76 51 31 76 51 31 76 51 31 76 51 31 76 51 31 76 51 31 76 51 31 76 51 31 76 51 31 76 51 46 111 68 46 111 68 46 111 68 46 111 68 46 111 68 46 111 68 46 111 68 46 111 68 46 111 68 0 0 0 0 0 0 0 0 0 0 0 0 0 0 0 0 0 0 0 0 0 0 0 0 0 0 0
0 0 0 0 0 0 0 0 0 0 0 0 0 0 0 0 0 0 0 0 0 0 0 0 0 0 0 0 0 0 0 0 0 0 0 0 22 54 36 30 73 49 30 73 49 30 73 49 30 73 49 30 73 49 30 73 49 30 73 49 30 73 49 30 73 49 30 73 49 30 73 49 30 73 49 30 73 49 30 73 49 30 73 49 30 73 49 30 73 49 46 111 68 46 111 68 46 111 68 46 111 68 46 111 68 46 111 68 46 111 68 46 111 68 46 111 68 0 0 0 0 0 0 0 0 0 0 0 0 0 0 0 0 0 0 0 0 0 0 0 0 0 0 0
0 0 0 0 0 0 0 0 0 0 0 0 0 0 0 0 0 0 0 0 0 0 0 0 0 0 0 0 0 0 0 0 0 0 0 0 0 0 0 0 0 0 22 54 36 28 70 47 28 70 47 28 70 47 28 70 47 28 70 47 28 70 47 28 70 47 28 70 47 28 70 47 28 70 47 28 70 47 28 70 47 28 70 47 28 70 47 28 70 47 28 70 47 28 70 47 28 70 47 28 70 47 22 54 36 0 0 0 0 0 0 0 0 0 0 0 0 0 0 0 0 0 0 0 0 0 0 0 0 0 0 0 0 0 0 0 0 0 0 0 0 0 0 0
0 0 0 0 0 0 0 0 0 0 0 0 0 0 0 0 0 0 0 0 0 0 0 0 0 0 0 0 0 0 0 0 0 0 0 0 0 0 0 0 0 0 0 0 0 0 0 0 22 54 36 27 67 45 27 67 45 27 67 45 27 67 45 27 67 45 27 67 45 27 67 45 27 67 45 27 67 45 27 67 45 27 67 45 27 67 45 27 67 45 27 67 45 27 67 45 22 54 36 0 0 0 0 0 0 0 0 0 0 0 0 0 0 0 0 0 0 0 0 0 0 0 0 0 0 0 0 0 0 0 0 0 0 0 0 0 0 0 0 0 0 0 0 0
0 0 0 0 0 0 0 0 0 0 0 0 0 0 0 0 0 0 0 0 0 0 0 0 0 0 0 0 0 0 0 0 0 0 0 0 0 0 0 0 0 0 0 0 0 0 0 0 0 0 0 0 0 0 22 54 36 26 63 42 26 63 42 26 63 42 26 63 42 26 63 42 26 63 42 26 63 42 26 63 42 26 63 42 26 63 42 26 63 42 22 54 36 0 0 0 0 0 0 0 0 0 0 0 0 0 0 0 0 0 0 0 0 0 0 0 0 0 0 0 0 0 0 0 0 0 0 0 0 0 0 0 0 0 0 0 0 0 0 0 0 0 0 0
0 0 0 0 0 0 0 0 0 0 0 0 0 0 0 0 0 0 0 0 0 0 0 0 0 0 0 0 0 0 0 0 0 0 0 0 0 0 0 0 0 0 0 0 0 0 0 0 0 0 0 0 0 0 0 0 0 0 0 0 22 54 36 24 60 40 24 60 40 24 60 40 24 60 40 24 60 40 24 60 40 24 60 40 22 54 36 0 0 0 0 0 0 0 0 0 0 0 0 0 0 0 0 0 0 0 0 0 0 0 0 0 0 0 0 0 0 0 0 0 0 0 0 0 0 0 0 0 0 0 0 0 0 0 0 0 0 0 0 0 0 0 0 0
0 0 0 0 0 0 0 0 0 0 0 0 0 0 0 0 0 0 0 0 0 0 0 0 0 0 0 0 0 0 0 0 0 0 0 0 0 0 0 0 0 0 0 0 0 0 0 0 0 0 0 0 0 0 0 0 0 0 0 0 0 0 0 0 0 0 22 54 36 23 57 38 23 57 38 23 57 38 22 54 36 0 0 0 0 0 0 0 0 0 0 0 0 0 0 0 0 0 0 0 0 0 0 0 0 0 0 0 0 0 0 0 0 0 0 0 0 0 0 0 0 0 0 0 0 0 0 0 0 0 0 0 0 0 0 0 0 0 0 0 0 0 0 0
