P3
48 36
255
0 0 0 0 0 0 0 0 0 0 0 0 0 0 0 0 0 0 0 0 0 0 0 0 0 0 0 0 0 0 0 0 0 0 0 0 0 0 0 0 0 0 0 0 0 0 0 0 0 0 0 0 0 0 0 0 0 0 0 0 0 0 0 0 0 0 0 0 0 0 0 0 0 0 0 0 0 0 0 0 0 0 0 0 0 0 0 0 0 0 0 0 0 0 0 0 0 0 0 0 0 0 0 0 0 0 0 0 0 0 0 0 0 0 0 0 0 0 0 0 0 0 0 0 0 0 0 0 0 0 0 0 0 0 0 0 0 0 0 0 0 0 0 0
0 0 0 0 0 0 0 0 0 0 0 0 0 0 0 0 0 0 0 0 0 0 0 0 0 0 0 0 0 0 0 0 0 0 0 0 0 0 0 0 0 0 0 0 0 0 0 0 0 0 0 0 0 0 0 0 0 0 0 0 0 0 0 0 0 0 0 0 0 0 0 0 0 0 0 0 0 0 0 0 0 0 0 0 0 0 0 0 0 0 0 0 0 0 0 0 0 0 0 0 0 0 0 0 0 0 0 0 0 0 0 0 0 0 0 0 0 0 0 0 0 0 0 0 0 0 0 0 0 0 0 0 0 0 0 0 0 0 0 0 0 0 0 0
0 0 0 0 0 0 0 0 0 0 0 0 0 0 0 0 0 0 0 0 0 0 0 0 0 0 0 0 0 0 0 0 0 0 0 0 0 0 0 0 0 0 0 0 0 0 0 0 0 0 0 0 0 0 0 0 0 0 0 0 0 0 0 0 0 0 0 0 0 0 0 0 0 0 0 0 0 0 0 0 0 0 0 0 0 0 0 0 0 0 0 0 0 0 0 0 0 0 0 0 0 0 0 0 0 0 0 0 0 0 0 0 0 0 0 0 0 0 0 0 0 0 0 0 0 0 0 0 0 0 0 0 0 0 0 0 0 0 0 0 0 0 0 0
0 0 0 0 0 0 0 0 0 0 0 0 0 0 0 0 0 0 0 0 0 0 0 0 0 0 0 0 0 0 0 0 0 0 0 0 0 0 0 0 0 0 0 0 0 0 0 0 0 0 0 0 0 0 0 0 0 0 0 0 0 0 0 0 0 0 0 0 0 0 0 0 0 0 0 0 0 0 0 0 0 0 0 0 0 0 0 0 0 0 0 0 0 0 0 0 0 0 0 0 0 0 0 0 0 0 0 0 0 0 0 0 0 0 0 0 0 0 0 0 0 0 0 0 0 0 0 0 0 0 0 0 0 0 0 0 0 0 0 0 0 0 0 0
0 0 0 0 0 0 0 0 0 0 0 0 0 0 0 0 0 0 0 0 0 0 0 0 0 0 0 0 0 0 0 0 0 0 0 0 0 0 0 0 0 0 0 0 0 0 0 0 0 0 0 0 0 0 0 0 0 0 0 0 0 0 0 0 0 0 0 0 0 0 0 0 0 0 0 0 0 0 0 0 0 0 0 0 0 0 0 0 0 0 0 0 0 0 0 0 0 0 0 0 0 0 0 0 0 0 0 0 0 0 0 0 0 0 0 0 0 0 0 0 0 0 0 0 0 0 0 0 0 0 0 0 0 0 0 0 0 0 0 0 0 0 0 0
0 0 0 0 0 0 0 0 0 0 0 0 0 0 0 0 0 0 0 0 0 0 0 0 0 0 0 0 0 0 0 0 0 0 0 0 0 0 0 115 125 134 115 125 134 115 125 134 115 125 134 115 125 134 115 125 134 115 125 134 115 125 134 115 125 134 115 125 134 115 125 134 115 125 134 115 125 134 115 125 134 115 125 134 115 125 134 115 125 134 115 125 134 115 125 134 115 125 134 115 125 134 115 125 134 0 0 0 0 0 0 0 0 0 0 0 0 0 0 0 0 0 0 0 0 0 0 0 0 0 0 0 0 0 0 0 0 0 0 0 0 0 0 0
0 0 0 0 0 0 0 0 0 0 0 0 0 0 0 0 0 0 0 0 0 0 0 0 0 0 0 0 0 0 0 0 0 0 0 0 0 0 0 115 125 134 115 125 134 115 125 134 115 125 134 115 125 134 115 125 134 115 125 134 115 125 134 115 125 134 115 125 134 115 125 134 115 125 134 115 125 134 115 125 134 115 125 134 115 125 134 115 125 134 115 125 134 115 125 134 115 125 134 115 125 134 115 125 134 0 0 0 0 0 0 0 0 0 0 0 0 0 0 0 0 0 0 0 0 0 0 0 0 0 0 0 0 0 0 0 0 0 0 0 0 0 0 0
0 0 0 0 0 0 0 0 0 0 0 0 0 0 0 0 0 0 0 0 0 0 0 0 0 0 0 0 0 0 0 0 0 0 0 0 0 0 0 115 125 134 115 125 134 115 125 134 115 125 134 115 125 134 115 125 134 115 125 134 115 125 134 115 125 134 115 125 134 115 125 134 115 125 134 115 125 134 115 125 134 115 125 134 115 125 134 115 125 134 115 125 134 115 125 134 115 125 134 115 125 134 115 125 134 0 0 0 0 0 0 0 0 0 0 0 0 0 0 0 0 0 0 0 0 0 0 0 0 0 0 0 0 0 0 0 0 0 0 0 0 0 0 0
0 0 0 0 0 0 0 0 0 0 0 0 0 0 0 0 0 0 0 0 0 0 0 0 0 0 0 0 0 0 0 0 0 0 0 0 0 0 0 115 125 134 115 125 134 115 125 134 115 125 134 115 125 134 115 125 134 115 125 134 115 125 134 115 125 134 115 125 134 115 125 134 115 125 134 115 125 134 115 125 134 115 125 134 115 125 134 115 125 134 115 125 134 115 125 134 115 125 134 115 125 134 115 125 134 0 0 0 0 0 0 0 0 0 0 0 0 0 0 0 0 0 0 0 0 0 0 0 0 0 0 0 0 0 0 0 0 0 0 0 0 0 0 0
0 0 0 0 0 0 0 0 0 0 0 0 0 0 0 0 0 0 0 0 0 0 0 0 0 0 0 108 119 124 108 119 124 108 119 124 108 119 124 115 125 134 115 125 134 115 125 134 115 125 134 115 125 134 115 125 134 115 125 134 115 125 134 115 125 134 115 125 134 115 125 134 115 125 134 115 125 134 115 125 134 115 125 134 115 125 134 115 125 134 115 125 134 115 125 134 115 125 134 115 125 134 115 125 134 108 119 124 108 119 124 108 119 124 108 119 124 0 0 0 0 0 0 0 0 0 0 0 0 0 0 0 0 0 0 0 0 0 0 0 0 0 0 0
0 0 0 0 0 0 0 0 0 0 0 0 0 0 0 0 0 0 0 0 0 0 0 0 0 0 0 108 119 124 108 119 124 108 119 124 108 119 124 108 119 124 108 119 124 108 119 124 108 119 124 108 119 124 108 119 124 108 119 124 108 119 124 108 119 124 108 119 124 108 119 124 108 119 124 108 119 124 108 119 124 108 119 124 108 119 124 108 119 124 108 119 124 108 119 124 108 119 124 108 119 124 108 119 124 108 119 124 108 119 124 108 119 124 108 119 124 0 0 0 0 0 0 0 0 0 0 0 0 0 0 0 0 0 0 0 0 0 0 0 0 0 0 0
0 0 0 0 0 0 0 0 0 0 0 0 0 0 0 0 0 0 0 0 0 0 0 0 0 0 0 108 119 124 108 119 124 108 119 124 108 119 124 108 119 124 108 119 124 108 119 124 108 119 124 108 119 124 108 119 124 108 119 124 108 119 124 108 119 124 108 119 124 108 119 124 108 119 124 108 119 124 108 119 124 108 119 124 108 119 124 108 119 124 108 119 124 108 119 124 108 119 124 108 119 124 108 119 124 108 119 124 108 119 124 108 119 124 108 119 124 0 0 0 0 0 0 0 0 0 0 0 0 0 0 0 0 0 0 0 0 0 0 0 0 0 0 0
0 0 0 0 0 0 0 0 0 0 0 0 0 0 0 0 0 0 0 0 0 0 0 0 0 0 0 108 119 124 108 119 124 108 119 124 108 119 124 108 119 124 108 119 124 108 119 124 108 119 124 108 119 124 108 119 124 108 119 124 108 119 124 108 119 124 108 119 124 108 119 124 108 119 124 108 119 124 108 119 124 108 119 124 108 119 124 108 119 124 108 119 124 108 119 124 108 119 124 108 119 124 108 119 124 108 119 124 108 119 124 108 119 124 108 119 124 0 0 0 0 0 0 0 0 0 0 0 0 0 0 0 0 0 0 0 0 0 0 0 0 0 0 0
0 0 0 0 0 0 0 0 0 0 0 0 0 0 0 0 0 0 0 0 0 0 0 0 0 0 0 108 119 124 108 119 124 108 119 124 108 119 124 108 119 124 108 119 124 108 119 124 108 119 124 108 119 124 108 119 124 108 119 124 108 119 124 108 119 124 108 119 124 108 119 124 108 119 124 108 119 124 108 119 124 108 119 124 108 119 124 108 119 124 108 119 124 108 119 124 108 119 124 108 119 124 108 119 124 108 119 124 108 119 124 108 119 124 108 119 124 0 0 0 0 0 0 0 0 0 0 0 0 0 0 0 0 0 0 0 0 0 0 0 0 0 0 0
0 0 0 0 0 0 0 0 0 0 0 0 0 0 0 0 0 0 0 0 0 0 0 0 0 0 0 108 119 124 108 119 124 108 119 124 108 119 124 108 119 124 108 119 124 108 119 124 108 119 124 108 119 124 108 119 124 108 119 124 108 119 124 108 119 124 108 119 124 108 119 124 108 119 124 108 119 124 108 119 124 108 119 124 108 119 124 108 119 124 108 119 124 108 119 124 108 119 124 108 119 124 108 119 124 108 119 124 108 119 124 108 119 124 108 119 124 0 0 0 0 0 0 0 0 0 0 0 0 0 0 0 0 0 0 0 0 0 0 0 0 0 0 0
0 0 0 0 0 0 0 0 0 0 0 0 0 0 0 0 0 0 0 0 0 0 0 0 0 0 0 108 119 124 108 119 124 108 119 124 108 119 124 108 119 124 108 119 124 108 119 124 108 119 124 108 119 124 108 119 124 108 119 124 108 119 124 108 119 124 108 119 124 108 119 124 108 119 124 108 119 124 108 119 124 108 119 124 108 119 124 108 119 124 108 119 124 108 119 124 108 119 124 108 119 124 108 119 124 108 119 124 108 119 124 108 119 124 108 119 124 0 0 0 0 0 0 0 0 0 0 0 0 0 0 0 0 0 0 0 0 0 0 0 0 0 0 0
0 0 0 0 0 0 0 0 0 0 0 0 0 0 0 0 0 0 0 0 0 0 0 0 0 0 0 0 0 0 0 0 0 0 0 0 0 0 0 0 0 0 0 0 0 0 0 0 66 54 40 128 111 91 128 111 91 128 111 91 128 111 91 128 111 91 128 111 91 128 111 91 128 111 91 128 111 91 128 111 91 128 111 91 128 111 91 128 111 91 128 111 91 128 111 91 66 54 40 0 0 0 0 0 0 0 0 0 0 0 0 0 0 0 0 0 0 0 0 0 0 0 0 0 0 0 0 0 0 0 0 0 0 0 0 0 0 0 0 0 0 0 0 0
0 0 0 0 0 0 0 0 0 0 0 0 0 0 0 0 0 0 0 0 0 0 0 0 0 0 0 0 0 0 0 0 0 0 0 0 0 0 0 0 0 0 66 54 40 125 108 88 125 108 88 125 108 88 125 108 88 125 108 88 125 108 88 125 108 88 125 108 88 125 108 88 125 108 88 125 108 88 125 108 88 125 108 88 125 108 88 125 108 88 125 108 88 125 108 88 125 108 88 125 108 88 66 54 40 0 0 0 0 0 0 0 0 0 0 0 0 0 0 0 0 0 0 0 0 0 0 0 0 0 0 0 0 0 0 0 0 0 0 0 0 0 0 0
0 0 0 0 0 0 0 0 0 0 0 0 0 0 0 0 0 0 0 0 0 0 0 0 0 0 0 0 0 0 0 0 0 0 0 0 66 54 40 123 105 84 123 105 84 32 38 31 32 38 31 32 38 31 32 38 31 32 38 31 32 38 31 32 38 31 32 38 31 32 38 31 32 38 31 32 38 31 32 38 31 32 38 31 32 38 31 32 38 31 32 38 31 32 38 31 32 38 31 123 105 84 123 105 84 123 105 84 66 54 40 0 0 0 0 0 0 0 0 0 0 0 0 0 0 0 0 0 0 0 0 0 0 0 0 0 0 0 0 0 0 0 0 0
0 0 0 0 0 0 0 0 0 0 0 0 0 0 0 0 0 0 0 0 0 0 0 0 0 0 0 0 0 0 66 54 40 120 102 81 120 102 81 120 102 81 120 102 81 32 38 31 32 38 31 32 38 31 32 38 31 32 38 31 32 38 31 32 38 31 32 38 31 32 38 31 32 38 31 32 38 31 32 38 31 32 38 31 32 38 31 32 38 31 32 38 31 32 38 31 32 38 31 120 102 81 120 102 81 120 102 81 120 102 81 120 102 81 66 54 40 0 0 0 0 0 0 0 0 0 0 0 0 0 0 0 0 0 0 0 0 0 0 0 0 0 0 0
0 0 0 0 0 0 0 0 0 0 0 0 0 0 0 0 0 0 0 0 0 0 0 0 66 54 40 117 99 78 117 99 78 117 99 78 117 99 78 117 99 78 117 99 78 117 99 78 117 99 78 117 99 78 117 99 78 117 99 78 117 99 78 117 99 78 117 99 78 117 99 78 117 99 78 117 99 78 117 99 78 117 99 78 117 99 78 117 99 78 117 99 78 117 99 78 117 99 78 117 99 78 117 99 78 117 99 78 117 99 78 117 99 78 117 99 78 117 99 78 66 54 40 0 0 0 0 0 0 0 0 0 0 0 0 0 0 0 0 0 0 0 0 0
0 0 0 0 0 0 0 0 0 0 0 0 0 0 0 0 0 0 66 54 40 115 96 74 115 96 74 115 96 74 115 96 74 115 96 74 115 96 74 115 96 74 115 96 74 115 96 74 115 96 74 115 96 74 115 96 74 115 96 74 115 96 74 115 96 74 115 96 74 115 96 74 115 96 74 115 96 74 115 96 74 115 96 74 115 96 74 115 96 74 115 96 74 115 96 74 115 96 74 115 96 74 115 96 74 115 96 74 115 96 74 115 96 74 115 96 74 115 96 74 115 96 74 115 96 74 66 54 40 0 0 0 0 0 0 0 0 0 0 0 0 0 0 0
0 0 0 0 0 0 0 0 0 0 0 0 66 54 40 112 93 71 112 93 71 112 93 71 112 93 71 112 93 71 112 93 71 112 93 71 112 93 71 112 93 71 112 93 71 112 93 71 112 93 71 112 93 71 112 93 71 112 93 71 112 93 71 112 93 71 112 93 71 112 93 71 112 93 71 112 93 71 112 93 71 112 93 71 112 93 71 112 93 71 112 93 71 112 93 71 112 93 71 112 93 71 112 93 71 112 93 71 112 93 71 112 93 71 112 93 71 112 93 71 112 93 71 112 93 71 112 93 71 112 93 71 66 54 40 0 0 0 0 0 0 0 0 0
0 0 0 66 54 40 110 90 68 110 90 68 110 90 68 110 90 68 110 90 68 110 90 68 110 90 68 110 90 68 110 90 68 110 90 68 110 90 68 110 90 68 110 90 68 110 90 68 110 90 68 110 90 68 110 90 68 110 90 68 110 90 68 110 90 68 110 90 68 110 90 68 110 90 68 110 90 68 110 90 68 110 90 68 110 90 68 110 90 68 110 90 68 110 90 68 110 90 68 110 90 68 110 90 68 110 90 68 110 90 68 110 90 68 110 90 68 110 90 68 110 90 68 110 90 68 110 90 68 110 90 68 110 90 68 110 90 68 110 90 68 66 54 40
0 0 0 0 0 0 0 0 0 0 0 0 66 54 40 106 86 65 106 86 65 106 86 65 106 86 65 106 86 65 106 86 65 106 86 65 106 86 65 106 86 65 106 86 65 106 86 65 106 86 65 106 86 65 106 86 65 106 86 65 106 86 65 106 86 65 106 86 65 106 86 65 106 86 65 106 86 65 106 86 65 106 86 65 106 86 65 106 86 65 106 86 65 106 86 65 106 86 65 106 86 65 106 86 65 106 86 65 106 86 65 106 86 65 106 86 65 106 86 65 106 86 65 106 86 65 106 86 65 106 86 65 66 54 40 0 0 0 0 0 0 0 0 0
0 0 0 0 0 0 0 0 0 0 0 0 0 0 0 0 0 0 66 54 40 102 83 62 102 83 62 102 83 62 102 83 62 102 83 62 102 83 62 102 83 62 102 83 62 102 83 62 102 83 62 102 83 62 102 83 62 102 83 62 102 83 62 102 83 62 102 83 62 102 83 62 102 83 62 102 83 62 102 83 62 102 83 62 102 83 62 102 83 62 102 83 62 102 83 62 102 83 62 102 83 62 102 83 62 102 83 62 102 83 62 102 83 62 102 83 62 102 83 62 102 83 62 102 83 62 66 54 40 0 0 0 0 0 0 0 0 0 0 0 0 0 0 0
0 0 0 0 0 0 0 0 0 0 0 0 0 0 0 0 0 0 0 0 0 0 0 0 66 54 40 98 80 60 98 80 60 98 80 60 98 80 60 98 80 60 98 80 60 98 80 60 98 80 60 98 80 60 98 80 60 98 80 60 98 80 60 98 80 60 98 80 60 98 80 60 98 80 60 98 80 60 98 80 60 98 80 60 98 80 60 98 80 60 98 80 60 98 80 60 98 80 60 98 80 60 98 80 60 98 80 60 98 80 60 98 80 60 98 80 60 98 80 60 66 54 40 0 0 0 0 0 0 0 0 0 0 0 0 0 0 0 0 0 0 0 0 0
0 0 0 0 0 0 0 0 0 0 0 0 0 0 0 0 0 0 0 0 0 0 0 0 0 0 0 0 0 0 66 54 40 94 76 57 94 76 57 94 76 57 94 76 57 94 76 57 94 76 57 94 76 57 94 76 57 94 76 57 94 76 57 94 76 57 94 76 57 94 76 57 94 76 57 94 76 57 94 76 57 94 76 57 94 76 57 94 76 57 94 76 57 94 76 57 94 76 57 94 76 57 94 76 57 94 76 57 94 76 57 94 76 57 66 54 40 0 0 0 0 0 0 0 0 0 0 0 0 0 0 0 0 0 0 0 0 0 0 0 0 0 0 0
0 0 0 0 0 0 0 0 0 0 0 0 0 0 0 0 0 0 0 0 0 0 0 0 0 0 0 0 0 0 0 0 0 0 0 0 66 54 40 90 73 55 90 73 55 90 73 55 90 73 55 90 73 55 90 73 55 90 73 55 90 73 55 90 73 55 90 73 55 90 73 55 90 73 55 90 73 55 90 73 55 90 73 55 90 73 55 90 73 55 90 73 55 90 73 55 90 73 55 90 73 55 90 73 55 90 73 55 66 54 40 0 0 0 0 0 0 0 0 0 0 0 0 0 0 0 0 0 0 0 0 0 0 0 0 0 0 0 0 0 0 0 0 0
0 0 0 0 0 0 0 0 0 0 0 0 0 0 0 0 0 0 0 0 0 0 0 0 0 0 0 0 0 0 0 0 0 0 0 0 0 0 0 0 0 0 66 54 40 86 70 52 86 70 52 86 70 52 86 70 52 86 70 52 86 70 52 86 70 52 86 70 52 86 70 52 86 70 52 86 70 52 86 70 52 86 70 52 86 70 52 86 70 52 86 70 52 86 70 52 86 70 52 86 70 52 66 54 40 0 0 0 0 0 0 0 0 0 0 0 0 0 0 0 0 0 0 0 0 0 0 0 0 0 0 0 0 0 0 0 0 0 0 0 0 0 0 0
0 0 0 0 0 0 0 0 0 0 0 0 0 0 0 0 0 0 0 0 0 0 0 0 0 0 0 0 0 0 0 0 0 0 0 0 0 0 0 0 0 0 0 0 0 0 0 0 66 54 40 82 67 50 82 67 50 82 67 50 82 67 50 82 67 50 82 67 50 82 67 50 82 67 50 82 67 50 82 67 50 82 67 50 82 67 50 82 67 50 82 67 50 82 67 50 66 54 40 0 0 0 0 0 0 0 0 0 0 0 0 0 0 0 0 0 0 0 0 0 0 0 0 0 0 0 0 0 0 0 0 0 0 0 0 0 0 0 0 0 0 0 0 0
0 0 0 0 0 0 0 0 0 0 0 0 0 0 0 0 0 0 0 0 0 0 0 0 0 0 0 0 0 0 0 0 0 0 0 0 0 0 0 0 0 0 0 0 0 0 0 0 0 0 0 0 0 0 66 54 40 78 63 47 78 63 47 78 63 47 78 63 47 78 63 47 78 63 47 78 63 47 78 63 47 78 63 47 78 63 47 78 63 47 66 54 40 0 0 0 0 0 0 0 0 0 0 0 0 0 0 0 0 0 0 0 0 0 0 0 0 0 0 0 0 0 0 0 0 0 0 0 0 0 0 0 0 0 0 0 0 0 0 0 0 0 0 0
0 0 0 0 0 0 0 0 0 0 0 0 0 0 0 0 0 0 0 0 0 0 0 0 0 0 0 0 0 0 0 0 0 0 0 0 0 0 0 0 0 0 0 0 0 0 0 0 0 0 0 0 0 0 0 0 0 0 0 0 66 54 40 74 60 45 74 60 45 74 60 45 74 60 45 74 60 45 74 60 45 74 60 45 66 54 40 0 0 0 0 0 0 0 0 0 0 0 0 0 0 0 0 0 0 0 0 0 0 0 0 0 0 0 0 0 0 0 0 0 0 0 0 0 0 0 0 0 0 0 0 0 0 0 0 0 0 0 0 0 0 0 0 0
0 0 0 0 0 0 0 0 0 0 0 0 0 0 0 0 0 0 0 0 0 0 0 0 0 0 0 0 0 0 0 0 0 0 0 0 0 0 0 0 0 0 0 0 0 0 0 0 0 0 0 0 0 0 0 0 0 0 0 0 0 0 0 0 0 0 66 54 40 70 57 42 70 57 42 70 57 42 66 54 40 0 0 0 0 0 0 0 0 0 0 0 0 0 0 0 0 0 0 0 0 0 0 0 0 0 0 0 0 0 0 0 0 0 0 0 0 0 0 0 0 0 0 0 0 0 0 0 0 0 0 0 0 0 0 0 0 0 0 0 0 0 0 0
0 0 0 0 0 0 0 0 0 0 0 0 0 0 0 0 0 0 0 0 0 0 0 0 0 0 0 0 0 0 0 0 0 0 0 0 0 0 0 0 0 0 0 0 0 0 0 0 0 0 0 0 0 0 0 0 0 0 0 0 0 0 0 0 0 0 0 0 0 0 0 0 0 0 0 0 0 0 0 0 0 0 0 0 0 0 0 0 0 0 0 0 0 0 0 0 0 0 0 0 0 0 0 0 0 0 0 0 0 0 0 0 0 0 0 0 0 0 0 0 0 0 0 0 0 0 0 0 0 0 0 0 0 0 0 0 0 0 0 0 0 0 0 0
0 0 0 0 0 0 0 0 0 0 0 0 0 0 0 0 0 0 0 0 0 0 0 0 0 0 0 0 0 0 0 0 0 0 0 0 0 0 0 0 0 0 0 0 0 0 0 0 0 0 0 0 0 0 0 0 0 0 0 0 0 0 0 0 0 0 0 0 0 0 0 0 0 0 0 0 0 0 0 0 0 0 0 0 0 0 0 0 0 0 0 0 0 0 0 0 0 0 0 0 0 0 0 0 0 0 0 0 0 0 0 0 0 0 0 0 0 0 0 0 0 0 0 0 0 0 0 0 0 0 0 0 0 0 0 0 0 0 0 0 0 0 0 0
