P3
48 24
255
0 0 0 0 0 0 0 0 0 0 0 0 0 0 0 0 0 0 0 0 0 0 0 0 0 0 0 0 0 0 0 0 0 0 0 0 0 0 0 0 0 0 0 0 0 0 0 0 0 0 0 0 0 0 0 0 0 0 0 0 0 0 0 0 0 0 0 0 0 0 0 0 0 0 0 0 0 0 0 0 0 0 0 0 0 0 0 0 0 0 0 0 0 0 0 0 0 0 0 0 0 0 0 0 0 0 0 0 0 0 0 0 0 0 0 0 0 0 0 0 0 0 0 0 0 0 0 0 0 0 0 0 0 0 0 0 0 0 0 0 0 0 0 0
0 0 0 0 0 0 0 0 0 0 0 0 0 0 0 0 0 0 0 0 0 0 0 0 0 0 0 0 0 0 0 0 0 0 0 0 0 0 0 0 0 0 0 0 0 0 0 0 0 0 0 0 0 0 0 0 0 0 0 0 0 0 0 0 0 0 0 0 0 0 0 0 0 0 0 0 0 0 0 0 0 0 0 0 0 0 0 0 0 0 0 0 0 0 0 0 0 0 0 0 0 0 0 0 0 0 0 0 0 0 0 0 0 0 0 0 0 0 0 0 0 0 0 0 0 0 0 0 0 0 0 0 0 0 0 0 0 0 0 0 0 0 0 0
0 0 0 0 0 0 0 0 0 0 0 0 0 0 0 0 0 0 0 0 0 0 0 0 0 0 0 0 0 0 0 0 0 0 0 0 0 0 0 0 0 0 0 0 0 0 0 0 0 0 0 0 0 0 0 0 0 0 0 0 0 0 0 0 0 0 0 0 0 0 0 0 75 139 100 0 0 0 0 0 0 0 0 0 0 0 0 0 0 0 0 0 0 0 0 0 0 0 0 0 0 0 0 0 0 0 0 0 0 0 0 0 0 0 0 0 0 0 0 0 0 0 0 0 0 0 0 0 0 0 0 0 0 0 0 0 0 0 0 0 0 0 0 0
0 0 0 0 0 0 0 0 0 0 0 0 0 0 0 0 0 0 0 0 0 0 0 0 0 0 0 0 0 0 0 0 0 0 0 0 0 0 0 0 0 0 0 0 0 0 0 0 0 0 0 0 0 0 0 0 0 0 0 0 0 0 0 0 0 0 18 66 37 71 136 96 71 136 96 71 136 96 18 66 37 0 0 0 0 0 0 0 0 0 0 0 0 0 0 0 0 0 0 0 0 0 0 0 0 0 0 0 0 0 0 0 0 0 0 0 0 0 0 0 0 0 0 0 0 0 0 0 0 0 0 0 0 0 0 0 0 0 0 0 0 0 0 0
0 0 0 0 0 0 0 0 0 0 0 0 0 0 0 0 0 0 0 0 0 0 0 0 0 0 0 0 0 0 0 0 0 0 0 0 0 0 0 0 0 0 0 0 0 0 0 0 0 0 0 0 0 0 0 0 0 0 0 0 18 66 37 67 133 93 67 133 93 67 133 93 67 133 93 67 133 93 67 133 93 67 133 93 120 189 98 0 0 0 0 0 0 0 0 0 0 0 0 0 0 0 0 0 0 0 0 0 0 0 0 0 0 0 0 0 0 0 0 0 0 0 0 0 0 0 0 0 0 0 0 0 0 0 0 0 0 0 0 0 0 0 0 0
0 0 0 0 0 0 0 0 0 0 0 0 0 0 0 0 0 0 0 0 0 0 0 0 0 0 0 0 0 0 0 0 0 0 0 0 0 0 0 0 0 0 0 0 0 0 0 0 0 0 0 0 0 0 18 66 37 63 131 89 63 131 89 63 131 89 120 189 98 120 189 98 120 189 98 120 189 98 120 189 98 120 189 98 120 189 98 120 189 98 120 189 98 120 189 98 120 189 98 120 189 98 120 189 98 0 0 0 0 0 0 0 0 0 0 0 0 0 0 0 0 0 0 0 0 0 0 0 0 0 0 0 0 0 0 0 0 0 0 0 0 0 0 0
0 0 0 0 0 0 0 0 0 0 0 0 0 0 0 0 0 0 0 0 0 0 0 0 0 0 0 0 0 0 0 0 0 0 0 0 0 0 0 0 0 0 0 0 0 0 0 0 18 66 37 59 128 86 59 128 86 59 128 86 120 189 98 120 189 98 120 189 98 120 189 98 120 189 98 120 189 98 120 189 98 120 189 98 120 189 98 120 189 98 120 189 98 120 189 98 120 189 98 120 189 98 120 189 98 120 189 98 120 189 98 0 0 0 0 0 0 0 0 0 0 0 0 0 0 0 0 0 0 0 0 0 0 0 0 0 0 0 0 0 0 0 0 0
0 0 0 0 0 0 0 0 0 0 0 0 0 0 0 0 0 0 0 0 0 0 0 0 0 0 0 0 0 0 0 0 0 0 0 0 0 0 0 0 0 0 18 66 37 55 126 82 55 126 82 55 126 82 120 189 98 120 189 98 120 189 98 120 189 98 120 189 98 120 189 98 120 189 98 120 189 98 120 189 98 120 189 98 120 189 98 120 189 98 120 189 98 120 189 98 120 189 98 120 189 98 120 189 98 120 189 98 120 189 98 120 189 98 120 189 98 0 0 0 0 0 0 0 0 0 0 0 0 0 0 0 0 0 0 0 0 0 0 0 0 0 0 0
0 0 0 0 0 0 0 0 0 0 0 0 0 0 0 0 0 0 0 0 0 0 0 0 0 0 0 0 0 0 0 0 0 0 0 0 18 66 37 51 123 79 61 143 79 51 123 79 51 123 79 51 123 79 120 189 98 120 189 98 120 189 98 120 189 98 120 189 98 120 189 98 120 189 98 120 189 98 120 189 98 120 189 98 120 189 98 120 189 98 120 189 98 120 189 98 120 189 98 120 189 98 120 189 98 120 189 98 120 189 98 120 189 98 120 189 98 0 0 0 0 0 0 0 0 0 0 0 0 0 0 0 0 0 0 0 0 0 0 0 0 0 0 0
0 0 0 0 0 0 0 0 0 0 0 0 0 0 0 0 0 0 0 0 0 0 0 0 0 0 0 61 143 79 61 143 79 61 143 79 61 143 79 61 143 79 61 143 79 61 143 79 61 143 79 120 189 98 120 189 98 120 189 98 120 189 98 120 189 98 120 189 98 120 189 98 120 189 98 120 189 98 120 189 98 120 189 98 120 189 98 120 189 98 120 189 98 120 189 98 120 189 98 120 189 98 120 189 98 120 189 98 120 189 98 120 189 98 120 189 98 120 189 98 0 0 0 0 0 0 0 0 0 0 0 0 0 0 0 0 0 0 0 0 0 0 0 0
0 0 0 0 0 0 0 0 0 0 0 0 0 0 0 0 0 0 0 0 0 61 143 79 61 143 79 61 143 79 61 143 79 61 143 79 61 143 79 61 143 79 61 143 79 61 143 79 61 143 79 61 143 79 120 189 98 120 189 98 120 189 98 120 189 98 120 189 98 120 189 98 120 189 98 120 189 98 120 189 98 120 189 98 120 189 98 120 189 98 120 189 98 120 189 98 120 189 98 120 189 98 120 189 98 120 189 98 120 189 98 120 189 98 120 189 98 43 118 72 18 66 37 0 0 0 0 0 0 0 0 0 0 0 0 0 0 0 0 0 0 0 0 0
0 0 0 0 0 0 0 0 0 0 0 0 0 0 0 0 0 0 61 143 79 61 143 79 61 143 79 61 143 79 61 143 79 61 143 79 61 143 79 61 143 79 61 143 79 61 143 79 61 143 79 61 143 79 120 189 98 120 189 98 120 189 98 120 189 98 120 189 98 120 189 98 120 189 98 120 189 98 120 189 98 120 189 98 120 189 98 120 189 98 120 189 98 120 189 98 120 189 98 120 189 98 120 189 98 120 189 98 120 189 98 120 189 98 120 189 98 39 116 68 39 116 68 39 116 68 18 66 37 0 0 0 0 0 0 0 0 0 0 0 0 0 0 0
0 0 0 0 0 0 0 0 0 0 0 0 18 66 37 61 143 79 61 143 79 61 143 79 61 143 79 61 143 79 61 143 79 61 143 79 61 143 79 61 143 79 61 143 79 61 143 79 61 143 79 61 143 79 61 143 79 61 143 79 120 189 98 120 189 98 120 189 98 120 189 98 120 189 98 120 189 98 120 189 98 120 189 98 120 189 98 120 189 98 120 189 98 120 189 98 120 189 98 120 189 98 120 189 98 120 189 98 120 189 98 35 113 65 35 113 65 35 113 65 35 113 65 35 113 65 35 113 65 35 113 65 18 66 37 0 0 0 0 0 0 0 0 0
0 0 0 18 66 37 31 111 62 31 111 62 31 111 62 31 111 62 61 143 79 61 143 79 61 143 79 61 143 79 61 143 79 61 143 79 61 143 79 61 143 79 61 143 79 61 143 79 61 143 79 61 143 79 61 143 79 61 143 79 61 143 79 61 143 79 120 189 98 120 189 98 120 189 98 120 189 98 120 189 98 120 189 98 120 189 98 120 189 98 120 189 98 120 189 98 120 189 98 47 139 80 120 189 98 31 111 62 31 111 62 31 111 62 31 111 62 31 111 62 31 111 62 31 111 62 31 111 62 31 111 62 31 111 62 31 111 62 31 111 62 18 66 37
0 0 0 0 0 0 0 0 0 0 0 0 18 66 37 29 106 59 29 106 59 61 143 79 61 143 79 61 143 79 61 143 79 61 143 79 61 143 79 61 143 79 61 143 79 61 143 79 61 143 79 61 143 79 52 127 69 61 143 79 61 143 79 61 143 79 29 106 59 29 106 59 29 106 59 29 106 59 29 106 59 29 106 59 47 139 80 47 139 80 47 139 80 47 139 80 47 139 80 47 139 80 47 139 80 47 139 80 47 139 80 47 139 80 47 139 80 29 106 59 29 106 59 29 106 59 29 106 59 29 106 59 18 66 37 0 0 0 0 0 0 0 0 0
0 0 0 0 0 0 0 0 0 0 0 0 0 0 0 0 0 0 18 66 37 28 102 57 28 102 57 61 143 79 61 143 79 61 143 79 61 143 79 52 127 69 52 127 69 52 127 69 52 127 69 52 127 69 52 127 69 52 127 69 52 127 69 52 127 69 52 127 69 52 127 69 28 102 57 28 102 57 28 102 57 47 139 80 47 139 80 47 139 80 47 139 80 47 139 80 47 139 80 47 139 80 47 139 80 47 139 80 47 139 80 47 139 80 47 139 80 47 139 80 28 102 57 28 102 57 18 66 37 0 0 0 0 0 0 0 0 0 0 0 0 0 0 0
0 0 0 0 0 0 0 0 0 0 0 0 0 0 0 0 0 0 0 0 0 0 0 0 18 66 37 27 98 55 27 98 55 52 127 69 52 127 69 52 127 69 52 127 69 52 127 69 52 127 69 52 127 69 52 127 69 52 127 69 52 127 69 52 127 69 52 127 69 52 127 69 52 127 69 52 127 69 47 139 80 47 139 80 47 139 80 47 139 80 47 139 80 47 139 80 47 139 80 47 139 80 47 139 80 47 139 80 47 139 80 47 139 80 47 139 80 47 139 80 47 139 80 0 0 0 0 0 0 0 0 0 0 0 0 0 0 0 0 0 0 0 0 0
0 0 0 0 0 0 0 0 0 0 0 0 0 0 0 0 0 0 0 0 0 0 0 0 0 0 0 0 0 0 52 127 69 52 127 69 52 127 69 52 127 69 52 127 69 52 127 69 52 127 69 52 127 69 52 127 69 52 127 69 52 127 69 52 127 69 52 127 69 52 127 69 52 127 69 52 127 69 52 127 69 47 139 80 47 139 80 47 139 80 47 139 80 47 139 80 47 139 80 47 139 80 47 139 80 47 139 80 47 139 80 47 139 80 47 139 80 47 139 80 0 0 0 0 0 0 0 0 0 0 0 0 0 0 0 0 0 0 0 0 0 0 0 0
0 0 0 0 0 0 0 0 0 0 0 0 0 0 0 0 0 0 0 0 0 0 0 0 0 0 0 0 0 0 0 0 0 52 127 69 52 127 69 52 127 69 52 127 69 52 127 69 52 127 69 52 127 69 52 127 69 52 127 69 52 127 69 52 127 69 52 127 69 52 127 69 52 127 69 52 127 69 25 90 50 25 90 50 47 139 80 47 139 80 47 139 80 47 139 80 47 139 80 47 139 80 47 139 80 47 139 80 47 139 80 47 139 80 47 139 80 0 0 0 0 0 0 0 0 0 0 0 0 0 0 0 0 0 0 0 0 0 0 0 0 0 0 0
0 0 0 0 0 0 0 0 0 0 0 0 0 0 0 0 0 0 0 0 0 0 0 0 0 0 0 0 0 0 0 0 0 0 0 0 0 0 0 52 127 69 52 127 69 52 127 69 52 127 69 52 127 69 52 127 69 52 127 69 52 127 69 52 127 69 52 127 69 52 127 69 23 86 48 23 86 48 23 86 48 23 86 48 23 86 48 23 86 48 23 86 48 23 86 48 23 86 48 47 139 80 18 66 37 0 0 0 0 0 0 0 0 0 0 0 0 0 0 0 0 0 0 0 0 0 0 0 0 0 0 0 0 0 0 0 0 0 0 0 0 0 0 0
0 0 0 0 0 0 0 0 0 0 0 0 0 0 0 0 0 0 0 0 0 0 0 0 0 0 0 0 0 0 0 0 0 0 0 0 0 0 0 0 0 0 0 0 0 0 0 0 18 66 37 22 82 46 52 127 69 22 82 46 22 82 46 22 82 46 22 82 46 22 82 46 22 82 46 22 82 46 22 82 46 22 82 46 22 82 46 22 82 46 22 82 46 22 82 46 18 66 37 0 0 0 0 0 0 0 0 0 0 0 0 0 0 0 0 0 0 0 0 0 0 0 0 0 0 0 0 0 0 0 0 0 0 0 0 0 0 0 0 0 0 0 0 0
0 0 0 0 0 0 0 0 0 0 0 0 0 0 0 0 0 0 0 0 0 0 0 0 0 0 0 0 0 0 0 0 0 0 0 0 0 0 0 0 0 0 0 0 0 0 0 0 0 0 0 0 0 0 18 66 37 21 78 43 21 78 43 21 78 43 21 78 43 21 78 43 21 78 43 21 78 43 21 78 43 21 78 43 21 78 43 21 78 43 18 66 37 0 0 0 0 0 0 0 0 0 0 0 0 0 0 0 0 0 0 0 0 0 0 0 0 0 0 0 0 0 0 0 0 0 0 0 0 0 0 0 0 0 0 0 0 0 0 0 0 0 0 0
0 0 0 0 0 0 0 0 0 0 0 0 0 0 0 0 0 0 0 0 0 0 0 0 0 0 0 0 0 0 0 0 0 0 0 0 0 0 0 0 0 0 0 0 0 0 0 0 0 0 0 0 0 0 0 0 0 0 0 0 18 66 37 20 74 41 20 74 41 20 74 41 20 74 41 20 74 41 20 74 41 20 74 41 18 66 37 0 0 0 0 0 0 0 0 0 0 0 0 0 0 0 0 0 0 0 0 0 0 0 0 0 0 0 0 0 0 0 0 0 0 0 0 0 0 0 0 0 0 0 0 0 0 0 0 0 0 0 0 0 0 0 0 0
0 0 0 0 0 0 0 0 0 0 0 0 0 0 0 0 0 0 0 0 0 0 0 0 0 0 0 0 0 0 0 0 0 0 0 0 0 0 0 0 0 0 0 0 0 0 0 0 0 0 0 0 0 0 0 0 0 0 0 0 0 0 0 0 0 0 18 66 37 19 70 39 19 70 39 19 70 39 18 66 37 0 0 0 0 0 0 0 0 0 0 0 0 0 0 0 0 0 0 0 0 0 0 0 0 0 0 0 0 0 0 0 0 0 0 0 0 0 0 0 0 0 0 0 0 0 0 0 0 0 0 0 0 0 0 0 0 0 0 0 0 0 0 0
