P3
48 24
255
0 0 0 0 0 0 0 0 0 0 0 0 0 0 0 0 0 0 0 0 0 0 0 0 0 0 0 0 0 0 0 0 0 0 0 0 0 0 0 0 0 0 0 0 0 0 0 0 0 0 0 0 0 0 0 0 0 0 0 0 0 0 0 0 0 0 0 0 0 0 0 0 0 0 0 0 0 0 0 0 0 0 0 0 0 0 0 0 0 0 0 0 0 0 0 0 0 0 0 0 0 0 0 0 0 0 0 0 0 0 0 0 0 0 0 0 0 0 0 0 0 0 0 0 0 0 0 0 0 0 0 0 0 0 0 0 0 0 0 0 0 0 0 0
0 0 0 0 0 0 0 0 0 0 0 0 0 0 0 0 0 0 0 0 0 0 0 0 0 0 0 0 0 0 0 0 0 0 0 0 0 0 0 0 0 0 0 0 0 0 0 0 0 0 0 0 0 0 0 0 0 0 0 0 0 0 0 0 0 0 0 0 0 0 0 0 0 0 0 0 0 0 0 0 0 0 0 0 0 0 0 0 0 0 0 0 0 0 0 0 0 0 0 0 0 0 0 0 0 0 0 0 0 0 0 0 0 0 0 0 0 0 0 0 0 0 0 0 0 0 0 0 0 0 0 0 0 0 0 0 0 0 0 0 0 0 0 0
0 0 0 0 0 0 0 0 0 0 0 0 0 0 0 0 0 0 0 0 0 0 0 0 0 0 0 0 0 0 0 0 0 0 0 0 0 0 0 0 0 0 0 0 0 0 0 0 0 0 0 0 0 0 0 0 0 0 0 0 0 0 0 0 0 0 0 0 0 0 0 0 87 147 166 0 0 0 0 0 0 0 0 0 0 0 0 0 0 0 0 0 0 0 0 0 0 0 0 0 0 0 0 0 0 0 0 0 0 0 0 0 0 0 0 0 0 0 0 0 0 0 0 0 0 0 0 0 0 0 0 0 0 0 0 0 0 0 0 0 0 0 0 0
0 0 0 0 0 0 0 0 0 0 0 0 0 0 0 0 0 0 0 0 0 0 0 0 0 0 0 0 0 0 0 0 0 0 0 0 0 0 0 0 0 0 0 0 0 0 0 0 0 0 0 0 0 0 0 0 0 0 0 0 0 0 0 0 0 0 27 72 86 83 144 164 83 144 164 83 144 164 27 72 86 0 0 0 0 0 0 0 0 0 0 0 0 0 0 0 0 0 0 0 0 0 0 0 0 0 0 0 0 0 0 0 0 0 0 0 0 0 0 0 0 0 0 0 0 0 0 0 0 0 0 0 0 0 0 0 0 0 0 0 0 0 0 0
0 0 0 0 0 0 0 0 0 0 0 0 0 0 0 0 0 0 0 0 0 0 0 0 0 0 0 0 0 0 0 0 0 0 0 0 0 0 0 0 0 0 0 0 0 0 0 0 0 0 0 0 0 0 0 0 0 0 0 0 27 72 86 79 142 162 79 142 162 79 142 162 79 142 162 79 142 162 79 142 162 79 142 162 27 72 86 0 0 0 0 0 0 0 0 0 0 0 0 0 0 0 0 0 0 0 0 0 0 0 0 0 0 0 0 0 0 0 0 0 0 0 0 0 0 0 0 0 0 0 0 0 0 0 0 0 0 0 0 0 0 0 0 0
0 0 0 0 0 0 0 0 0 0 0 0 0 0 0 0 0 0 0 0 0 0 0 0 0 0 0 0 0 0 0 0 0 0 0 0 122 85 54 122 85 54 0 0 0 0 0 0 0 0 0 0 0 0 27 72 86 75 139 160 75 139 160 75 139 160 75 139 160 75 139 160 122 85 54 122 85 54 75 139 160 75 139 160 75 139 160 75 139 160 27 72 86 0 0 0 0 0 0 0 0 0 0 0 0 0 0 0 122 85 54 122 85 54 0 0 0 0 0 0 0 0 0 0 0 0 0 0 0 0 0 0 0 0 0 0 0 0 0 0 0 0 0 0
0 0 0 0 0 0 0 0 0 0 0 0 0 0 0 0 0 0 0 0 0 0 0 0 0 0 0 0 0 0 185 138 85 185 138 85 185 138 85 185 138 85 185 138 85 185 138 85 185 138 85 185 138 85 185 138 85 185 138 85 185 138 85 185 138 85 185 138 85 185 138 85 185 138 85 185 138 85 185 138 85 185 138 85 185 138 85 185 138 85 185 138 85 185 138 85 185 138 85 185 138 85 185 138 85 185 138 85 185 138 85 185 138 85 0 0 0 0 0 0 0 0 0 0 0 0 0 0 0 0 0 0 0 0 0 0 0 0 0 0 0 0 0 0
0 0 0 0 0 0 0 0 0 0 0 0 0 0 0 0 0 0 0 0 0 0 0 0 0 0 0 0 0 0 185 138 85 185 138 85 185 138 85 185 138 85 185 138 85 185 138 85 185 138 85 185 138 85 185 138 85 185 138 85 185 138 85 185 138 85 185 138 85 185 138 85 185 138 85 185 138 85 185 138 85 185 138 85 185 138 85 185 138 85 185 138 85 185 138 85 185 138 85 185 138 85 185 138 85 185 138 85 185 138 85 185 138 85 0 0 0 0 0 0 0 0 0 0 0 0 0 0 0 0 0 0 0 0 0 0 0 0 0 0 0 0 0 0
0 0 0 0 0 0 0 0 0 0 0 0 0 0 0 0 0 0 0 0 0 0 0 0 139 104 66 139 104 66 139 104 66 139 104 66 122 85 54 122 85 54 139 104 66 139 104 66 139 104 66 139 104 66 139 104 66 139 104 66 139 104 66 139 104 66 139 104 66 139 104 66 122 85 54 122 85 54 139 104 66 139 104 66 139 104 66 139 104 66 139 104 66 139 104 66 139 104 66 139 104 66 139 104 66 139 104 66 122 85 54 122 85 54 139 104 66 139 104 66 0 0 0 0 0 0 0 0 0 0 0 0 0 0 0 0 0 0 0 0 0 0 0 0
0 0 0 0 0 0 0 0 0 0 0 0 0 0 0 0 0 0 0 0 0 0 0 0 139 104 66 139 104 66 139 104 66 139 104 66 122 85 54 122 85 54 139 104 66 139 104 66 139 104 66 139 104 66 139 104 66 139 104 66 139 104 66 139 104 66 139 104 66 139 104 66 122 85 54 122 85 54 139 104 66 139 104 66 139 104 66 139 104 66 139 104 66 139 104 66 139 104 66 139 104 66 139 104 66 139 104 66 122 85 54 122 85 54 139 104 66 139 104 66 0 0 0 0 0 0 0 0 0 0 0 0 0 0 0 0 0 0 0 0 0 0 0 0
0 0 0 0 0 0 0 0 0 0 0 0 0 0 0 0 0 0 0 0 0 0 0 0 139 104 66 139 104 66 139 104 66 139 104 66 122 85 54 122 85 54 139 104 66 139 104 66 139 104 66 139 104 66 139 104 66 139 104 66 139 104 66 139 104 66 139 104 66 139 104 66 122 85 54 122 85 54 139 104 66 139 104 66 139 104 66 139 104 66 139 104 66 139 104 66 139 104 66 139 104 66 139 104 66 139 104 66 122 85 54 122 85 54 139 104 66 139 104 66 27 72 86 0 0 0 0 0 0 0 0 0 0 0 0 0 0 0 0 0 0 0 0 0
0 0 0 0 0 0 0 0 0 0 0 0 0 0 0 0 0 0 27 72 86 52 124 148 52 124 148 52 124 148 52 124 148 52 124 148 122 85 54 122 85 54 52 124 148 52 124 148 52 124 148 52 124 148 52 124 148 52 124 148 52 124 148 52 124 148 52 124 148 52 124 148 122 85 54 122 85 54 52 124 148 52 124 148 52 124 148 52 124 148 52 124 148 52 124 148 52 124 148 52 124 148 52 124 148 52 124 148 122 85 54 122 85 54 52 124 148 52 124 148 52 124 148 52 124 148 27 72 86 0 0 0 0 0 0 0 0 0 0 0 0 0 0 0
0 0 0 0 0 0 0 0 0 0 0 0 27 72 86 48 122 146 48 122 146 48 122 146 139 104 66 139 104 66 139 104 66 139 104 66 122 85 54 122 85 54 139 104 66 139 104 66 139 104 66 139 104 66 139 104 66 139 104 66 139 104 66 139 104 66 139 104 66 139 104 66 122 85 54 122 85 54 139 104 66 139 104 66 139 104 66 139 104 66 139 104 66 139 104 66 139 104 66 139 104 66 139 104 66 139 104 66 122 85 54 122 85 54 139 104 66 139 104 66 48 122 146 48 122 146 48 122 146 48 122 146 27 72 86 0 0 0 0 0 0 0 0 0
0 0 0 27 72 86 45 120 144 45 120 144 45 120 144 45 120 144 45 120 144 45 120 144 139 104 66 139 104 66 139 104 66 139 104 66 122 85 54 122 85 54 139 104 66 139 104 66 139 104 66 139 104 66 139 104 66 139 104 66 139 104 66 139 104 66 139 104 66 139 104 66 122 85 54 122 85 54 139 104 66 139 104 66 139 104 66 139 104 66 139 104 66 139 104 66 139 104 66 139 104 66 139 104 66 139 104 66 122 85 54 122 85 54 139 104 66 139 104 66 45 120 144 45 120 144 45 120 144 45 120 144 45 120 144 45 120 144 45 120 144 27 72 86
0 0 0 0 0 0 0 0 0 0 0 0 27 72 86 43 115 138 43 115 138 43 115 138 139 104 66 139 104 66 139 104 66 139 104 66 122 85 54 122 85 54 139 104 66 139 104 66 139 104 66 139 104 66 139 104 66 139 104 66 139 104 66 139 104 66 139 104 66 139 104 66 122 85 54 122 85 54 139 104 66 139 104 66 139 104 66 139 104 66 139 104 66 139 104 66 139 104 66 139 104 66 139 104 66 139 104 66 122 85 54 122 85 54 139 104 66 139 104 66 43 115 138 43 115 138 43 115 138 43 115 138 27 72 86 0 0 0 0 0 0 0 0 0
0 0 0 0 0 0 0 0 0 0 0 0 0 0 0 0 0 0 27 72 86 41 111 133 41 111 133 41 111 133 41 111 133 41 111 133 122 85 54 122 85 54 41 111 133 41 111 133 41 111 133 41 111 133 41 111 133 41 111 133 41 111 133 41 111 133 41 111 133 41 111 133 122 85 54 122 85 54 41 111 133 41 111 133 41 111 133 41 111 133 41 111 133 41 111 133 41 111 133 41 111 133 41 111 133 41 111 133 122 85 54 122 85 54 41 111 133 41 111 133 41 111 133 41 111 133 27 72 86 0 0 0 0 0 0 0 0 0 0 0 0 0 0 0
0 0 0 0 0 0 0 0 0 0 0 0 0 0 0 0 0 0 0 0 0 0 0 0 139 104 66 139 104 66 139 104 66 139 104 66 122 85 54 122 85 54 139 104 66 139 104 66 139 104 66 139 104 66 139 104 66 139 104 66 139 104 66 139 104 66 139 104 66 139 104 66 122 85 54 122 85 54 139 104 66 139 104 66 139 104 66 139 104 66 139 104 66 139 104 66 139 104 66 139 104 66 139 104 66 139 104 66 122 85 54 122 85 54 139 104 66 139 104 66 27 72 86 0 0 0 0 0 0 0 0 0 0 0 0 0 0 0 0 0 0 0 0 0
0 0 0 0 0 0 0 0 0 0 0 0 0 0 0 0 0 0 0 0 0 0 0 0 139 104 66 139 104 66 139 104 66 139 104 66 122 85 54 122 85 54 139 104 66 139 104 66 139 104 66 139 104 66 139 104 66 139 104 66 139 104 66 139 104 66 139 104 66 139 104 66 122 85 54 122 85 54 139 104 66 139 104 66 139 104 66 139 104 66 139 104 66 139 104 66 139 104 66 139 104 66 139 104 66 139 104 66 122 85 54 122 85 54 139 104 66 139 104 66 0 0 0 0 0 0 0 0 0 0 0 0 0 0 0 0 0 0 0 0 0 0 0 0
0 0 0 0 0 0 0 0 0 0 0 0 0 0 0 0 0 0 0 0 0 0 0 0 139 104 66 139 104 66 139 104 66 139 104 66 122 85 54 122 85 54 139 104 66 139 104 66 139 104 66 139 104 66 139 104 66 139 104 66 139 104 66 139 104 66 139 104 66 139 104 66 122 85 54 122 85 54 139 104 66 139 104 66 139 104 66 139 104 66 139 104 66 139 104 66 139 104 66 139 104 66 139 104 66 139 104 66 122 85 54 122 85 54 139 104 66 139 104 66 0 0 0 0 0 0 0 0 0 0 0 0 0 0 0 0 0 0 0 0 0 0 0 0
0 0 0 0 0 0 0 0 0 0 0 0 0 0 0 0 0 0 0 0 0 0 0 0 0 0 0 0 0 0 0 0 0 0 0 0 122 85 54 122 85 54 27 72 86 35 93 112 35 93 112 35 93 112 35 93 112 35 93 112 35 93 112 35 93 112 35 93 112 35 93 112 122 85 54 122 85 54 35 93 112 35 93 112 35 93 112 35 93 112 35 93 112 35 93 112 35 93 112 35 93 112 27 72 86 0 0 0 122 85 54 122 85 54 0 0 0 0 0 0 0 0 0 0 0 0 0 0 0 0 0 0 0 0 0 0 0 0 0 0 0 0 0 0
0 0 0 0 0 0 0 0 0 0 0 0 0 0 0 0 0 0 0 0 0 0 0 0 0 0 0 0 0 0 0 0 0 0 0 0 122 85 54 122 85 54 0 0 0 0 0 0 27 72 86 33 89 107 33 89 107 33 89 107 33 89 107 33 89 107 33 89 107 33 89 107 122 85 54 122 85 54 33 89 107 33 89 107 33 89 107 33 89 107 33 89 107 33 89 107 27 72 86 0 0 0 0 0 0 0 0 0 122 85 54 122 85 54 0 0 0 0 0 0 0 0 0 0 0 0 0 0 0 0 0 0 0 0 0 0 0 0 0 0 0 0 0 0
0 0 0 0 0 0 0 0 0 0 0 0 0 0 0 0 0 0 0 0 0 0 0 0 0 0 0 0 0 0 0 0 0 0 0 0 0 0 0 0 0 0 0 0 0 0 0 0 0 0 0 0 0 0 27 72 86 31 85 101 31 85 101 31 85 101 31 85 101 31 85 101 31 85 101 31 85 101 31 85 101 31 85 101 31 85 101 31 85 101 27 72 86 0 0 0 0 0 0 0 0 0 0 0 0 0 0 0 0 0 0 0 0 0 0 0 0 0 0 0 0 0 0 0 0 0 0 0 0 0 0 0 0 0 0 0 0 0 0 0 0 0 0 0
0 0 0 0 0 0 0 0 0 0 0 0 0 0 0 0 0 0 0 0 0 0 0 0 0 0 0 0 0 0 0 0 0 0 0 0 0 0 0 0 0 0 0 0 0 0 0 0 0 0 0 0 0 0 0 0 0 0 0 0 27 72 86 30 80 96 30 80 96 30 80 96 30 80 96 30 80 96 30 80 96 30 80 96 27 72 86 0 0 0 0 0 0 0 0 0 0 0 0 0 0 0 0 0 0 0 0 0 0 0 0 0 0 0 0 0 0 0 0 0 0 0 0 0 0 0 0 0 0 0 0 0 0 0 0 0 0 0 0 0 0 0 0 0
0 0 0 0 0 0 0 0 0 0 0 0 0 0 0 0 0 0 0 0 0 0 0 0 0 0 0 0 0 0 0 0 0 0 0 0 0 0 0 0 0 0 0 0 0 0 0 0 0 0 0 0 0 0 0 0 0 0 0 0 0 0 0 0 0 0 27 72 86 28 76 91 28 76 91 28 76 91 27 72 86 0 0 0 0 0 0 0 0 0 0 0 0 0 0 0 0 0 0 0 0 0 0 0 0 0 0 0 0 0 0 0 0 0 0 0 0 0 0 0 0 0 0 0 0 0 0 0 0 0 0 0 0 0 0 0 0 0 0 0 0 0 0 0
