P3
48 24
255
0 0 0 0 0 0 0 0 0 0 0 0 0 0 0 0 0 0 0 0 0 0 0 0 0 0 0 0 0 0 0 0 0 0 0 0 0 0 0 0 0 0 0 0 0 0 0 0 0 0 0 0 0 0 0 0 0 0 0 0 0 0 0 0 0 0 0 0 0 0 0 0 0 0 0 0 0 0 0 0 0 0 0 0 0 0 0 0 0 0 0 0 0 0 0 0 0 0 0 0 0 0 0 0 0 0 0 0 0 0 0 0 0 0 0 0 0 0 0 0 0 0 0 0 0 0 0 0 0 0 0 0 0 0 0 0 0 0 0 0 0 0 0 0
0 0 0 0 0 0 0 0 0 0 0 0 0 0 0 0 0 0 0 0 0 0 0 0 0 0 0 0 0 0 0 0 0 0 0 0 0 0 0 0 0 0 0 0 0 0 0 0 0 0 0 0 0 0 0 0 0 0 0 0 0 0 0 0 0 0 0 0 0 0 0 0 0 0 0 0 0 0 0 0 0 0 0 0 0 0 0 0 0 0 0 0 0 0 0 0 0 0 0 0 0 0 0 0 0 0 0 0 0 0 0 0 0 0 0 0 0 0 0 0 0 0 0 0 0 0 0 0 0 0 0 0 0 0 0 0 0 0 0 0 0 0 0 0
0 0 0 0 0 0 0 0 0 0 0 0 0 0 0 0 0 0 0 0 0 0 0 0 0 0 0 0 0 0 0 0 0 0 0 0 0 0 0 0 0 0 0 0 0 0 0 0 0 0 0 0 0 0 0 0 0 0 0 0 0 0 0 0 0 0 0 0 0 0 0 0 161 143 115 0 0 0 0 0 0 0 0 0 0 0 0 0 0 0 0 0 0 0 0 0 0 0 0 0 0 0 0 0 0 0 0 0 0 0 0 0 0 0 0 0 0 0 0 0 0 0 0 0 0 0 0 0 0 0 0 0 0 0 0 0 0 0 0 0 0 0 0 0
0 0 0 0 0 0 0 0 0 0 0 0 0 0 0 0 0 0 0 0 0 0 0 0 0 0 0 0 0 0 0 0 0 0 0 0 0 0 0 0 0 0 0 0 0 0 0 0 0 0 0 0 0 0 0 0 0 0 0 0 0 0 0 0 0 0 82 69 48 158 140 111 158 140 111 158 140 111 82 69 48 0 0 0 0 0 0 0 0 0 0 0 0 0 0 0 0 0 0 0 0 0 0 0 0 0 0 0 0 0 0 0 0 0 0 0 0 0 0 0 0 0 0 0 0 0 0 0 0 0 0 0 0 0 0 0 0 0 0 0 0 0 0 0
0 0 0 0 0 0 0 0 0 0 0 0 0 0 0 0 0 0 0 0 0 0 0 0 0 0 0 0 0 0 0 0 0 0 0 0 0 0 0 0 0 0 0 0 0 0 0 0 0 0 0 0 0 0 0 0 0 0 0 0 82 69 48 156 137 108 156 137 108 156 137 108 156 137 108 156 137 108 156 137 108 156 137 108 82 69 48 0 0 0 0 0 0 0 0 0 0 0 0 0 0 0 0 0 0 0 0 0 0 0 0 0 0 0 0 0 0 0 0 0 0 0 0 0 0 0 0 0 0 0 0 0 0 0 0 0 0 0 0 0 0 0 0 0
0 0 0 0 0 0 0 0 0 0 0 0 0 0 0 0 0 0 0 0 0 0 0 0 0 0 0 0 0 0 0 0 0 0 0 0 0 0 0 0 0 0 0 0 0 0 0 0 0 0 0 0 0 0 82 69 48 154 135 105 154 135 105 154 135 105 154 135 105 154 135 105 154 135 105 154 135 105 154 135 105 154 135 105 154 135 105 154 135 105 82 69 48 0 0 0 0 0 0 0 0 0 0 0 0 0 0 0 0 0 0 0 0 0 0 0 0 0 0 0 0 0 0 0 0 0 0 0 0 0 0 0 0 0 0 0 0 0 0 0 0 0 0 0
0 0 0 0 0 0 0 0 0 0 0 0 0 0 0 0 0 0 0 0 0 0 0 0 0 0 0 0 0 0 0 0 0 0 0 0 0 0 0 0 0 0 0 0 0 0 0 0 82 69 48 152 132 102 152 132 102 152 132 102 152 132 102 152 132 102 152 132 102 152 132 102 152 132 102 152 132 102 152 132 102 152 132 102 152 132 102 152 132 102 152 132 102 152 132 102 82 69 48 0 0 0 0 0 0 0 0 0 0 0 0 0 0 0 0 0 0 0 0 0 0 0 0 0 0 0 0 0 0 0 0 0 0 0 0 0 0 0 0 0 0 0 0 0
0 0 0 0 0 0 0 0 0 0 0 0 0 0 0 0 0 0 0 0 0 0 0 0 0 0 0 0 0 0 0 0 0 0 0 0 0 0 0 0 0 0 82 69 48 156 124 87 156 124 87 156 124 87 156 124 87 156 124 87 156 124 87 156 124 87 156 124 87 156 124 87 156 124 87 156 124 87 156 124 87 156 124 87 156 124 87 156 124 87 156 124 87 156 124 87 156 124 87 156 124 87 156 124 87 0 0 0 0 0 0 0 0 0 0 0 0 0 0 0 0 0 0 0 0 0 0 0 0 0 0 0 0 0 0 0 0 0 0 0 0 0 0 0
0 0 0 0 0 0 0 0 0 0 0 0 0 0 0 0 0 0 0 0 0 0 0 0 0 0 0 0 0 0 0 0 0 0 0 0 82 69 48 148 127 95 148 127 95 156 124 87 156 124 87 156 124 87 156 124 87 156 124 87 156 124 87 156 124 87 156 124 87 156 124 87 156 124 87 156 124 87 156 124 87 156 124 87 156 124 87 156 124 87 156 124 87 156 124 87 156 124 87 156 124 87 156 124 87 148 127 95 82 69 48 0 0 0 0 0 0 0 0 0 0 0 0 0 0 0 0 0 0 0 0 0 0 0 0 0 0 0 0 0 0 0 0 0
0 0 0 0 0 0 0 0 0 0 0 0 0 0 0 0 0 0 0 0 0 0 0 0 0 0 0 0 0 0 82 69 48 146 125 92 146 125 92 146 125 92 146 125 92 146 125 92 146 125 92 146 125 92 146 125 92 146 125 92 146 125 92 146 125 92 146 125 92 146 125 92 146 125 92 146 125 92 146 125 92 146 125 92 146 125 92 146 125 92 146 125 92 146 125 92 146 125 92 146 125 92 146 125 92 146 125 92 146 125 92 146 125 92 82 69 48 0 0 0 0 0 0 0 0 0 0 0 0 0 0 0 0 0 0 0 0 0 0 0 0 0 0 0
0 0 0 0 0 0 0 0 0 0 0 0 0 0 0 0 0 0 0 0 0 0 0 0 82 69 48 144 122 89 144 122 89 144 122 89 144 122 89 144 122 89 144 122 89 144 122 89 144 122 89 144 122 89 144 122 89 144 122 89 144 122 89 144 122 89 144 122 89 144 122 89 144 122 89 144 122 89 144 122 89 144 122 89 144 122 89 144 122 89 144 122 89 144 122 89 144 122 89 144 122 89 144 122 89 144 122 89 144 122 89 144 122 89 144 122 89 144 122 89 82 69 48 0 0 0 0 0 0 0 0 0 0 0 0 0 0 0 0 0 0 0 0 0
0 0 0 0 0 0 0 0 0 0 0 0 0 0 0 0 0 0 82 69 48 142 120 86 177 149 101 177 149 101 177 149 101 177 149 101 177 149 101 177 149 101 177 149 101 177 149 101 177 149 101 177 149 101 177 149 101 177 149 101 177 149 101 177 149 101 177 149 101 177 149 101 177 149 101 177 149 101 177 149 101 177 149 101 177 149 101 177 149 101 177 149 101 177 149 101 177 149 101 177 149 101 177 149 101 177 149 101 177 149 101 177 149 101 177 149 101 177 149 101 142 120 86 142 120 86 82 69 48 0 0 0 0 0 0 0 0 0 0 0 0 0 0 0
0 0 0 0 0 0 0 0 0 0 0 0 82 69 48 140 117 83 140 117 83 140 117 83 177 149 101 177 149 101 177 149 101 177 149 101 177 149 101 177 149 101 177 149 101 177 149 101 177 149 101 177 149 101 177 149 101 177 149 101 177 149 101 177 149 101 177 149 101 177 149 101 177 149 101 177 149 101 177 149 101 177 149 101 177 149 101 177 149 101 177 149 101 177 149 101 177 149 101 177 149 101 177 149 101 177 149 101 177 149 101 177 149 101 177 149 101 177 149 101 140 117 83 140 117 83 140 117 83 140 117 83 82 69 48 0 0 0 0 0 0 0 0 0
0 0 0 82 69 48 138 115 80 138 115 80 138 115 80 138 115 80 138 115 80 138 115 80 177 149 101 177 149 101 177 149 101 177 149 101 177 149 101 177 149 101 177 149 101 177 149 101 177 149 101 177 149 101 177 149 101 177 149 101 177 149 101 177 149 101 177 149 101 177 149 101 177 149 101 177 149 101 177 149 101 177 149 101 177 149 101 177 149 101 177 149 101 177 149 101 177 149 101 177 149 101 177 149 101 177 149 101 177 149 101 177 149 101 177 149 101 177 149 101 138 115 80 138 115 80 138 115 80 138 115 80 138 115 80 138 115 80 138 115 80 82 69 48
0 0 0 0 0 0 0 0 0 0 0 0 82 69 48 132 110 77 132 110 77 132 110 77 132 110 77 132 110 77 132 110 77 132 110 77 132 110 77 132 110 77 132 110 77 132 110 77 132 110 77 132 110 77 132 110 77 132 110 77 132 110 77 132 110 77 132 110 77 132 110 77 132 110 77 132 110 77 132 110 77 132 110 77 132 110 77 132 110 77 132 110 77 132 110 77 132 110 77 132 110 77 132 110 77 132 110 77 132 110 77 132 110 77 132 110 77 132 110 77 132 110 77 132 110 77 132 110 77 132 110 77 82 69 48 0 0 0 0 0 0 0 0 0
0 0 0 0 0 0 0 0 0 0 0 0 0 0 0 0 0 0 82 69 48 127 106 74 127 106 74 127 106 74 127 106 74 127 106 74 127 106 74 127 106 74 127 106 74 127 106 74 127 106 74 127 106 74 127 106 74 127 106 74 127 106 74 127 106 74 127 106 74 127 106 74 127 106 74 127 106 74 127 106 74 127 106 74 127 106 74 127 106 74 127 106 74 127 106 74 127 106 74 127 106 74 127 106 74 127 106 74 127 106 74 127 106 74 127 106 74 127 106 74 127 106 74 127 106 74 82 69 48 0 0 0 0 0 0 0 0 0 0 0 0 0 0 0
0 0 0 0 0 0 0 0 0 0 0 0 0 0 0 0 0 0 0 0 0 0 0 0 82 69 48 122 102 71 122 102 71 122 102 71 122 102 71 122 102 71 122 102 71 122 102 71 122 102 71 122 102 71 122 102 71 122 102 71 122 102 71 122 102 71 122 102 71 122 102 71 122 102 71 122 102 71 122 102 71 122 102 71 122 102 71 122 102 71 122 102 71 122 102 71 122 102 71 122 102 71 122 102 71 122 102 71 122 102 71 122 102 71 122 102 71 122 102 71 82 69 48 0 0 0 0 0 0 0 0 0 0 0 0 0 0 0 0 0 0 0 0 0
0 0 0 0 0 0 0 0 0 0 0 0 0 0 0 0 0 0 0 0 0 0 0 0 0 0 0 0 0 0 82 69 48 117 98 68 117 98 68 117 98 68 117 98 68 117 98 68 117 98 68 117 98 68 117 98 68 156 124 87 156 124 87 156 124 87 156 124 87 156 124 87 156 124 87 156 124 87 156 124 87 156 124 87 156 124 87 156 124 87 156 124 87 156 124 87 156 124 87 156 124 87 156 124 87 117 98 68 117 98 68 117 98 68 82 69 48 0 0 0 0 0 0 0 0 0 0 0 0 0 0 0 0 0 0 0 0 0 0 0 0 0 0 0
0 0 0 0 0 0 0 0 0 0 0 0 0 0 0 0 0 0 0 0 0 0 0 0 0 0 0 0 0 0 0 0 0 0 0 0 82 69 48 112 94 65 112 94 65 112 94 65 112 94 65 112 94 65 112 94 65 156 124 87 156 124 87 156 124 87 156 124 87 156 124 87 156 124 87 156 124 87 156 124 87 156 124 87 156 124 87 156 124 87 156 124 87 156 124 87 156 124 87 156 124 87 156 124 87 112 94 65 82 69 48 0 0 0 0 0 0 0 0 0 0 0 0 0 0 0 0 0 0 0 0 0 0 0 0 0 0 0 0 0 0 0 0 0
0 0 0 0 0 0 0 0 0 0 0 0 0 0 0 0 0 0 0 0 0 0 0 0 0 0 0 0 0 0 0 0 0 0 0 0 0 0 0 0 0 0 82 69 48 107 89 62 107 89 62 107 89 62 107 89 62 107 89 62 107 89 62 107 89 62 107 89 62 107 89 62 107 89 62 107 89 62 107 89 62 107 89 62 107 89 62 107 89 62 107 89 62 107 89 62 107 89 62 107 89 62 82 69 48 0 0 0 0 0 0 0 0 0 0 0 0 0 0 0 0 0 0 0 0 0 0 0 0 0 0 0 0 0 0 0 0 0 0 0 0 0 0 0
0 0 0 0 0 0 0 0 0 0 0 0 0 0 0 0 0 0 0 0 0 0 0 0 0 0 0 0 0 0 0 0 0 0 0 0 0 0 0 0 0 0 0 0 0 0 0 0 82 69 48 102 85 59 102 85 59 102 85 59 102 85 59 102 85 59 102 85 59 102 85 59 102 85 59 102 85 59 102 85 59 102 85 59 102 85 59 102 85 59 102 85 59 102 85 59 82 69 48 0 0 0 0 0 0 0 0 0 0 0 0 0 0 0 0 0 0 0 0 0 0 0 0 0 0 0 0 0 0 0 0 0 0 0 0 0 0 0 0 0 0 0 0 0
0 0 0 0 0 0 0 0 0 0 0 0 0 0 0 0 0 0 0 0 0 0 0 0 0 0 0 0 0 0 0 0 0 0 0 0 0 0 0 0 0 0 0 0 0 0 0 0 0 0 0 0 0 0 82 69 48 97 81 56 97 81 56 97 81 56 97 81 56 97 81 56 97 81 56 97 81 56 97 81 56 97 81 56 97 81 56 97 81 56 82 69 48 0 0 0 0 0 0 0 0 0 0 0 0 0 0 0 0 0 0 0 0 0 0 0 0 0 0 0 0 0 0 0 0 0 0 0 0 0 0 0 0 0 0 0 0 0 0 0 0 0 0 0
0 0 0 0 0 0 0 0 0 0 0 0 0 0 0 0 0 0 0 0 0 0 0 0 0 0 0 0 0 0 0 0 0 0 0 0 0 0 0 0 0 0 0 0 0 0 0 0 0 0 0 0 0 0 0 0 0 0 0 0 82 69 48 92 77 53 92 77 53 92 77 53 92 77 53 92 77 53 92 77 53 92 77 53 82 69 48 0 0 0 0 0 0 0 0 0 0 0 0 0 0 0 0 0 0 0 0 0 0 0 0 0 0 0 0 0 0 0 0 0 0 0 0 0 0 0 0 0 0 0 0 0 0 0 0 0 0 0 0 0 0 0 0 0
0 0 0 0 0 0 0 0 0 0 0 0 0 0 0 0 0 0 0 0 0 0 0 0 0 0 0 0 0 0 0 0 0 0 0 0 0 0 0 0 0 0 0 0 0 0 0 0 0 0 0 0 0 0 0 0 0 0 0 0 0 0 0 0 0 0 82 69 48 87 73 50 87 73 50 87 73 50 82 69 48 0 0 0 0 0 0 0 0 0 0 0 0 0 0 0 0 0 0 0 0 0 0 0 0 0 0 0 0 0 0 0 0 0 0 0 0 0 0 0 0 0 0 0 0 0 0 0 0 0 0 0 0 0 0 0 0 0 0 0 0 0 0 0
