P3
48 24
255
0 0 0 0 0 0 0 0 0 0 0 0 0 0 0 0 0 0 0 0 0 0 0 0 0 0 0 0 0 0 0 0 0 0 0 0 0 0 0 0 0 0 0 0 0 0 0 0 0 0 0 0 0 0 0 0 0 0 0 0 0 0 0 0 0 0 0 0 0 0 0 0 0 0 0 0 0 0 0 0 0 0 0 0 0 0 0 0 0 0 0 0 0 0 0 0 0 0 0 0 0 0 0 0 0 0 0 0 0 0 0 0 0 0 0 0 0 0 0 0 0 0 0 0 0 0 0 0 0 0 0 0 0 0 0 0 0 0 0 0 0 0 0 0
0 0 0 0 0 0 0 0 0 0 0 0 0 0 0 0 0 0 0 0 0 0 0 0 0 0 0 0 0 0 0 0 0 0 0 0 0 0 0 0 0 0 0 0 0 0 0 0 0 0 0 0 0 0 0 0 0 0 0 0 0 0 0 0 0 0 0 0 0 0 0 0 0 0 0 0 0 0 0 0 0 0 0 0 0 0 0 0 0 0 0 0 0 0 0 0 0 0 0 0 0 0 0 0 0 0 0 0 0 0 0 0 0 0 0 0 0 0 0 0 0 0 0 0 0 0 0 0 0 0 0 0 0 0 0 0 0 0 0 0 0 0 0 0
0 0 0 0 0 0 0 0 0 0 0 0 0 0 0 0 0 0 0 0 0 0 0 0 0 0 0 0 0 0 0 0 0 0 0 0 0 0 0 0 0 0 0 0 0 0 0 0 0 0 0 0 0 0 0 0 0 0 0 0 0 0 0 0 0 0 0 0 0 0 0 0 123 99 92 0 0 0 0 0 0 0 0 0 0 0 0 0 0 0 0 0 0 0 0 0 0 0 0 0 0 0 0 0 0 0 0 0 0 0 0 0 0 0 0 0 0 0 0 0 0 0 0 0 0 0 0 0 0 0 0 0 0 0 0 0 0 0 0 0 0 0 0 0
0 0 0 0 0 0 0 0 0 0 0 0 0 0 0 0 0 0 0 0 0 0 0 0 0 0 0 0 0 0 0 0 0 0 0 0 0 0 0 0 0 0 0 0 0 0 0 0 0 0 0 0 0 0 0 0 0 0 0 0 0 0 0 0 0 0 54 36 31 120 95 88 120 95 88 120 95 88 54 36 31 0 0 0 0 0 0 0 0 0 0 0 0 0 0 0 0 0 0 0 0 0 0 0 0 0 0 0 0 0 0 0 0 0 0 0 0 0 0 0 0 0 0 0 0 0 0 0 0 0 0 0 0 0 0 0 0 0 0 0 0 0 0 0
0 0 0 0 0 0 0 0 0 0 0 0 0 0 0 0 0 0 0 0 0 0 0 0 0 0 0 0 0 0 0 0 0 0 0 0 0 0 0 0 0 0 0 0 0 0 0 0 0 0 0 0 0 0 0 0 0 0 0 0 54 36 31 117 91 84 117 91 84 117 91 84 117 91 84 117 91 84 117 91 84 117 91 84 54 36 31 0 0 0 0 0 0 0 0 0 0 0 0 0 0 0 0 0 0 0 0 0 0 0 0 0 0 0 0 0 0 0 0 0 0 0 0 0 0 0 0 0 0 0 0 0 0 0 0 0 0 0 0 0 0 0 0 0
0 0 0 0 0 0 0 0 0 0 0 0 0 0 0 0 0 0 0 0 0 0 0 0 0 0 0 0 0 0 0 0 0 0 0 0 0 0 0 0 0 0 0 0 0 0 0 0 0 0 0 0 0 0 54 36 31 114 88 81 114 88 81 114 88 81 114 88 81 114 88 81 114 88 81 114 88 81 114 88 81 114 88 81 114 88 81 114 88 81 54 36 31 0 0 0 0 0 0 0 0 0 0 0 0 0 0 0 0 0 0 0 0 0 0 0 0 0 0 0 0 0 0 0 0 0 0 0 0 0 0 0 0 0 0 0 0 0 0 0 0 0 0 0
0 0 0 0 0 0 0 0 0 0 0 0 0 0 0 0 0 0 0 0 0 0 0 0 0 0 0 0 0 0 0 0 0 0 0 0 0 0 0 0 0 0 0 0 0 0 0 0 54 36 31 111 84 77 111 84 77 32 38 31 32 38 31 32 38 31 32 38 31 32 38 31 32 38 31 32 38 31 32 38 31 32 38 31 32 38 31 32 38 31 32 38 31 32 38 31 54 36 31 0 0 0 0 0 0 0 0 0 0 0 0 0 0 0 0 0 0 0 0 0 0 0 0 0 0 0 0 0 0 0 0 0 0 0 0 0 0 0 0 0 0 0 0 0
0 0 0 0 0 0 0 0 0 0 0 0 0 0 0 0 0 0 0 0 0 0 0 0 0 0 0 0 0 0 0 0 0 0 0 0 0 0 0 0 0 0 54 36 31 108 81 73 108 81 73 108 81 73 108 81 73 32 38 31 32 38 31 32 38 31 32 38 31 32 38 31 32 38 31 32 38 31 32 38 31 32 38 31 32 38 31 32 38 31 32 38 31 32 38 31 108 81 73 108 81 73 54 36 31 0 0 0 0 0 0 0 0 0 0 0 0 0 0 0 0 0 0 0 0 0 0 0 0 0 0 0 0 0 0 0 0 0 0 0 0 0 0 0
0 0 0 0 0 0 0 0 0 0 0 0 0 0 0 0 0 0 0 0 0 0 0 0 0 0 0 0 0 0 0 0 0 0 0 0 54 36 31 105 77 70 105 77 70 105 77 70 105 77 70 105 77 70 105 77 70 105 77 70 105 77 70 105 77 70 105 77 70 105 77 70 105 77 70 105 77 70 105 77 70 105 77 70 105 77 70 105 77 70 105 77 70 105 77 70 105 77 70 105 77 70 105 77 70 105 77 70 54 36 31 0 0 0 0 0 0 0 0 0 0 0 0 0 0 0 0 0 0 0 0 0 0 0 0 0 0 0 0 0 0 0 0 0
0 0 0 0 0 0 0 0 0 0 0 0 0 0 0 0 0 0 0 0 0 0 0 0 0 0 0 0 0 0 145 85 72 145 85 72 145 85 72 145 85 72 145 85 72 145 85 72 145 85 72 145 85 72 145 85 72 145 85 72 145 85 72 145 85 72 145 85 72 145 85 72 145 85 72 145 85 72 145 85 72 145 85 72 145 85 72 145 85 72 145 85 72 145 85 72 145 85 72 145 85 72 145 85 72 145 85 72 145 85 72 145 85 72 54 36 31 0 0 0 0 0 0 0 0 0 0 0 0 0 0 0 0 0 0 0 0 0 0 0 0 0 0 0
0 0 0 0 0 0 0 0 0 0 0 0 0 0 0 0 0 0 0 0 0 0 0 0 54 36 31 99 70 62 145 85 72 145 85 72 145 85 72 145 85 72 145 85 72 145 85 72 145 85 72 145 85 72 145 85 72 145 85 72 145 85 72 145 85 72 145 85 72 145 85 72 145 85 72 145 85 72 145 85 72 145 85 72 145 85 72 145 85 72 145 85 72 145 85 72 145 85 72 145 85 72 145 85 72 145 85 72 145 85 72 145 85 72 99 70 62 99 70 62 54 36 31 0 0 0 0 0 0 0 0 0 0 0 0 0 0 0 0 0 0 0 0 0
0 0 0 0 0 0 0 0 0 0 0 0 0 0 0 0 0 0 54 36 31 96 67 59 96 67 59 96 67 59 145 85 72 145 85 72 145 85 72 145 85 72 145 85 72 145 85 72 145 85 72 145 85 72 145 85 72 145 85 72 145 85 72 145 85 72 145 85 72 145 85 72 145 85 72 145 85 72 145 85 72 145 85 72 145 85 72 145 85 72 145 85 72 145 85 72 145 85 72 145 85 72 145 85 72 145 85 72 145 85 72 145 85 72 96 67 59 96 67 59 96 67 59 96 67 59 54 36 31 0 0 0 0 0 0 0 0 0 0 0 0 0 0 0
0 0 0 0 0 0 0 0 0 0 0 0 54 36 31 93 63 55 93 63 55 93 63 55 93 63 55 93 63 55 93 63 55 93 63 55 93 63 55 93 63 55 93 63 55 93 63 55 93 63 55 93 63 55 93 63 55 93 63 55 93 63 55 93 63 55 93 63 55 93 63 55 93 63 55 93 63 55 93 63 55 93 63 55 93 63 55 93 63 55 93 63 55 93 63 55 93 63 55 93 63 55 93 63 55 93 63 55 93 63 55 93 63 55 93 63 55 93 63 55 93 63 55 93 63 55 93 63 55 93 63 55 54 36 31 0 0 0 0 0 0 0 0 0
0 0 0 54 36 31 91 60 52 91 60 52 91 60 52 91 60 52 91 60 52 91 60 52 91 60 52 91 60 52 91 60 52 91 60 52 91 60 52 91 60 52 91 60 52 91 60 52 91 60 52 91 60 52 91 60 52 91 60 52 91 60 52 91 60 52 91 60 52 91 60 52 91 60 52 91 60 52 91 60 52 91 60 52 91 60 52 91 60 52 91 60 52 91 60 52 91 60 52 91 60 52 91 60 52 91 60 52 91 60 52 91 60 52 91 60 52 91 60 52 91 60 52 91 60 52 91 60 52 91 60 52 91 60 52 91 60 52 91 60 52 54 36 31
0 0 0 0 0 0 0 0 0 0 0 0 54 36 31 87 57 50 87 57 50 87 57 50 87 57 50 87 57 50 87 57 50 87 57 50 87 57 50 87 57 50 196 116 94 196 116 94 196 116 94 196 116 94 196 116 94 196 116 94 196 116 94 196 116 94 196 116 94 196 116 94 196 116 94 196 116 94 196 116 94 196 116 94 196 116 94 196 116 94 196 116 94 196 116 94 196 116 94 196 116 94 196 116 94 87 57 50 87 57 50 87 57 50 87 57 50 87 57 50 87 57 50 87 57 50 87 57 50 87 57 50 54 36 31 0 0 0 0 0 0 0 0 0
0 0 0 0 0 0 0 0 0 0 0 0 0 0 0 0 0 0 54 36 31 84 55 48 84 55 48 84 55 48 84 55 48 84 55 48 84 55 48 84 55 48 196 116 94 196 116 94 196 116 94 196 116 94 196 116 94 196 116 94 196 116 94 196 116 94 196 116 94 196 116 94 196 116 94 196 116 94 196 116 94 196 116 94 196 116 94 196 116 94 196 116 94 196 116 94 196 116 94 196 116 94 196 116 94 84 55 48 84 55 48 84 55 48 84 55 48 84 55 48 84 55 48 84 55 48 54 36 31 0 0 0 0 0 0 0 0 0 0 0 0 0 0 0
0 0 0 0 0 0 0 0 0 0 0 0 0 0 0 0 0 0 0 0 0 0 0 0 54 36 31 80 53 46 80 53 46 80 53 46 80 53 46 80 53 46 196 116 94 196 116 94 196 116 94 196 116 94 196 116 94 196 116 94 196 116 94 196 116 94 196 116 94 196 116 94 196 116 94 196 116 94 196 116 94 196 116 94 196 116 94 196 116 94 196 116 94 196 116 94 196 116 94 196 116 94 196 116 94 80 53 46 80 53 46 80 53 46 80 53 46 80 53 46 54 36 31 0 0 0 0 0 0 0 0 0 0 0 0 0 0 0 0 0 0 0 0 0
0 0 0 0 0 0 0 0 0 0 0 0 0 0 0 0 0 0 0 0 0 0 0 0 0 0 0 0 0 0 54 36 31 77 51 44 77 51 44 77 51 44 77 51 44 77 51 44 77 51 44 77 51 44 77 51 44 77 51 44 77 51 44 77 51 44 77 51 44 77 51 44 77 51 44 77 51 44 77 51 44 77 51 44 77 51 44 77 51 44 77 51 44 77 51 44 77 51 44 77 51 44 77 51 44 77 51 44 77 51 44 77 51 44 54 36 31 0 0 0 0 0 0 0 0 0 0 0 0 0 0 0 0 0 0 0 0 0 0 0 0 0 0 0
0 0 0 0 0 0 0 0 0 0 0 0 0 0 0 0 0 0 0 0 0 0 0 0 0 0 0 0 0 0 0 0 0 0 0 0 54 36 31 74 49 42 74 49 42 74 49 42 74 49 42 74 49 42 74 49 42 74 49 42 74 49 42 74 49 42 74 49 42 74 49 42 74 49 42 74 49 42 74 49 42 74 49 42 74 49 42 74 49 42 74 49 42 74 49 42 74 49 42 74 49 42 74 49 42 74 49 42 54 36 31 0 0 0 0 0 0 0 0 0 0 0 0 0 0 0 0 0 0 0 0 0 0 0 0 0 0 0 0 0 0 0 0 0
0 0 0 0 0 0 0 0 0 0 0 0 0 0 0 0 0 0 0 0 0 0 0 0 0 0 0 0 0 0 0 0 0 0 0 0 0 0 0 0 0 0 54 36 31 70 46 40 70 46 40 70 46 40 70 46 40 70 46 40 70 46 40 70 46 40 70 46 40 70 46 40 70 46 40 70 46 40 70 46 40 70 46 40 70 46 40 70 46 40 70 46 40 70 46 40 70 46 40 70 46 40 54 36 31 0 0 0 0 0 0 0 0 0 0 0 0 0 0 0 0 0 0 0 0 0 0 0 0 0 0 0 0 0 0 0 0 0 0 0 0 0 0 0
0 0 0 0 0 0 0 0 0 0 0 0 0 0 0 0 0 0 0 0 0 0 0 0 0 0 0 0 0 0 0 0 0 0 0 0 0 0 0 0 0 0 0 0 0 0 0 0 54 36 31 67 44 38 67 44 38 67 44 38 67 44 38 67 44 38 67 44 38 67 44 38 67 44 38 67 44 38 67 44 38 67 44 38 67 44 38 67 44 38 67 44 38 67 44 38 54 36 31 0 0 0 0 0 0 0 0 0 0 0 0 0 0 0 0 0 0 0 0 0 0 0 0 0 0 0 0 0 0 0 0 0 0 0 0 0 0 0 0 0 0 0 0 0
0 0 0 0 0 0 0 0 0 0 0 0 0 0 0 0 0 0 0 0 0 0 0 0 0 0 0 0 0 0 0 0 0 0 0 0 0 0 0 0 0 0 0 0 0 0 0 0 0 0 0 0 0 0 54 36 31 64 42 36 64 42 36 64 42 36 64 42 36 64 42 36 64 42 36 64 42 36 64 42 36 64 42 36 64 42 36 64 42 36 54 36 31 0 0 0 0 0 0 0 0 0 0 0 0 0 0 0 0 0 0 0 0 0 0 0 0 0 0 0 0 0 0 0 0 0 0 0 0 0 0 0 0 0 0 0 0 0 0 0 0 0 0 0
0 0 0 0 0 0 0 0 0 0 0 0 0 0 0 0 0 0 0 0 0 0 0 0 0 0 0 0 0 0 0 0 0 0 0 0 0 0 0 0 0 0 0 0 0 0 0 0 0 0 0 0 0 0 0 0 0 0 0 0 54 36 31 60 40 34 60 40 34 60 40 34 60 40 34 60 40 34 60 40 34 60 40 34 54 36 31 0 0 0 0 0 0 0 0 0 0 0 0 0 0 0 0 0 0 0 0 0 0 0 0 0 0 0 0 0 0 0 0 0 0 0 0 0 0 0 0 0 0 0 0 0 0 0 0 0 0 0 0 0 0 0 0 0
0 0 0 0 0 0 0 0 0 0 0 0 0 0 0 0 0 0 0 0 0 0 0 0 0 0 0 0 0 0 0 0 0 0 0 0 0 0 0 0 0 0 0 0 0 0 0 0 0 0 0 0 0 0 0 0 0 0 0 0 0 0 0 0 0 0 54 36 31 57 38 32 57 38 32 57 38 32 54 36 31 0 0 0 0 0 0 0 0 0 0 0 0 0 0 0 0 0 0 0 0 0 0 0 0 0 0 0 0 0 0 0 0 0 0 0 0 0 0 0 0 0 0 0 0 0 0 0 0 0 0 0 0 0 0 0 0 0 0 0 0 0 0 0
