P3
48 36
255
0 0 0 0 0 0 0 0 0 0 0 0 0 0 0 0 0 0 0 0 0 0 0 0 0 0 0 0 0 0 0 0 0 0 0 0 0 0 0 0 0 0 0 0 0 0 0 0 0 0 0 0 0 0 0 0 0 0 0 0 0 0 0 0 0 0 0 0 0 0 0 0 0 0 0 0 0 0 0 0 0 0 0 0 0 0 0 0 0 0 0 0 0 0 0 0 0 0 0 0 0 0 0 0 0 0 0 0 0 0 0 0 0 0 0 0 0 0 0 0 0 0 0 0 0 0 0 0 0 0 0 0 0 0 0 0 0 0 0 0 0 0 0 0
0 0 0 0 0 0 0 0 0 0 0 0 0 0 0 0 0 0 0 0 0 0 0 0 0 0 0 0 0 0 0 0 0 0 0 0 0 0 0 0 0 0 0 0 0 0 0 0 0 0 0 0 0 0 0 0 0 0 0 0 0 0 0 0 0 0 0 0 0 0 0 0 0 0 0 0 0 0 0 0 0 0 0 0 0 0 0 0 0 0 0 0 0 0 0 0 0 0 0 0 0 0 0 0 0 0 0 0 0 0 0 0 0 0 0 0 0 0 0 0 0 0 0 0 0 0 0 0 0 0 0 0 0 0 0 0 0 0 0 0 0 0 0 0
0 0 0 0 0 0 0 0 0 0 0 0 0 0 0 0 0 0 0 0 0 0 0 0 0 0 0 0 0 0 0 0 0 0 0 0 0 0 0 0 0 0 0 0 0 0 0 0 0 0 0 0 0 0 0 0 0 0 0 0 0 0 0 0 0 0 0 0 0 0 0 0 0 0 0 0 0 0 0 0 0 0 0 0 0 0 0 0 0 0 0 0 0 0 0 0 0 0 0 0 0 0 0 0 0 0 0 0 0 0 0 0 0 0 0 0 0 0 0 0 0 0 0 0 0 0 0 0 0 0 0 0 0 0 0 0 0 0 0 0 0 0 0 0
0 0 0 0 0 0 0 0 0 0 0 0 0 0 0 0 0 0 0 0 0 0 0 0 0 0 0 0 0 0 0 0 0 0 0 0 0 0 0 0 0 0 0 0 0 0 0 0 0 0 0 0 0 0 0 0 0 0 0 0 0 0 0 0 0 0 0 0 0 0 0 0 0 0 0 0 0 0 0 0 0 0 0 0 0 0 0 0 0 0 0 0 0 0 0 0 0 0 0 0 0 0 0 0 0 0 0 0 0 0 0 0 0 0 0 0 0 0 0 0 0 0 0 0 0 0 0 0 0 0 0 0 0 0 0 0 0 0 0 0 0 0 0 0
0 0 0 0 0 0 0 0 0 0 0 0 0 0 0 0 0 0 0 0 0 0 0 0 0 0 0 0 0 0 0 0 0 0 0 0 0 0 0 0 0 0 0 0 0 0 0 0 0 0 0 0 0 0 0 0 0 0 0 0 0 0 0 0 0 0 0 0 0 0 0 0 0 0 0 0 0 0 0 0 0 0 0 0 0 0 0 0 0 0 0 0 0 0 0 0 0 0 0 0 0 0 0 0 0 0 0 0 0 0 0 0 0 0 0 0 0 0 0 0 0 0 0 0 0 0 0 0 0 0 0 0 0 0 0 0 0 0 0 0 0 0 0 0
0 0 0 0 0 0 0 0 0 0 0 0 0 0 0 0 0 0 0 0 0 0 0 0 0 0 0 0 0 0 0 0 0 0 0 0 0 0 0 0 0 0 0 0 0 196 116 94 196 116 94 196 116 94 196 116 94 196 116 94 196 116 94 196 116 94 196 116 94 196 116 94 196 116 94 196 116 94 196 116 94 196 116 94 196 116 94 196 116 94 196 116 94 196 116 94 196 116 94 0 0 0 0 0 0 0 0 0 0 0 0 0 0 0 0 0 0 0 0 0 0 0 0 0 0 0 0 0 0 0 0 0 0 0 0 0 0 0 0 0 0 0 0 0
0 0 0 0 0 0 0 0 0 0 0 0 0 0 0 0 0 0 0 0 0 0 0 0 0 0 0 0 0 0 0 0 0 0 0 0 0 0 0 0 0 0 0 0 0 196 116 94 196 116 94 196 116 94 196 116 94 196 116 94 196 116 94 196 116 94 196 116 94 196 116 94 196 116 94 196 116 94 196 116 94 196 116 94 196 116 94 196 116 94 196 116 94 196 116 94 196 116 94 0 0 0 0 0 0 0 0 0 0 0 0 0 0 0 0 0 0 0 0 0 0 0 0 0 0 0 0 0 0 0 0 0 0 0 0 0 0 0 0 0 0 0 0 0
0 0 0 0 0 0 0 0 0 0 0 0 0 0 0 0 0 0 0 0 0 0 0 0 0 0 0 0 0 0 0 0 0 0 0 0 0 0 0 0 0 0 0 0 0 196 116 94 196 116 94 196 116 94 196 116 94 196 116 94 196 116 94 196 116 94 196 116 94 196 116 94 196 116 94 196 116 94 196 116 94 196 116 94 196 116 94 196 116 94 196 116 94 196 116 94 196 116 94 0 0 0 0 0 0 0 0 0 0 0 0 0 0 0 0 0 0 0 0 0 0 0 0 0 0 0 0 0 0 0 0 0 0 0 0 0 0 0 0 0 0 0 0 0
0 0 0 0 0 0 0 0 0 0 0 0 0 0 0 0 0 0 0 0 0 0 0 0 0 0 0 0 0 0 157 90 85 157 90 85 157 90 85 157 90 85 157 90 85 157 90 85 157 90 85 157 90 85 157 90 85 157 90 85 157 90 85 157 90 85 157 90 85 157 90 85 157 90 85 157 90 85 157 90 85 157 90 85 157 90 85 157 90 85 157 90 85 157 90 85 157 90 85 157 90 85 157 90 85 157 90 85 157 90 85 157 90 85 0 0 0 0 0 0 0 0 0 0 0 0 0 0 0 0 0 0 0 0 0 0 0 0 0 0 0 0 0 0
0 0 0 0 0 0 0 0 0 0 0 0 0 0 0 0 0 0 0 0 0 0 0 0 0 0 0 0 0 0 157 90 85 157 90 85 157 90 85 157 90 85 157 90 85 157 90 85 157 90 85 157 90 85 157 90 85 157 90 85 157 90 85 157 90 85 157 90 85 157 90 85 157 90 85 157 90 85 157 90 85 157 90 85 157 90 85 157 90 85 157 90 85 157 90 85 157 90 85 157 90 85 157 90 85 157 90 85 157 90 85 157 90 85 0 0 0 0 0 0 0 0 0 0 0 0 0 0 0 0 0 0 0 0 0 0 0 0 0 0 0 0 0 0
0 0 0 0 0 0 0 0 0 0 0 0 0 0 0 0 0 0 0 0 0 0 0 0 0 0 0 0 0 0 157 90 85 157 90 85 157 90 85 157 90 85 157 90 85 157 90 85 157 90 85 157 90 85 157 90 85 157 90 85 157 90 85 157 90 85 157 90 85 157 90 85 157 90 85 157 90 85 157 90 85 157 90 85 157 90 85 157 90 85 157 90 85 157 90 85 157 90 85 157 90 85 157 90 85 157 90 85 157 90 85 157 90 85 0 0 0 0 0 0 0 0 0 0 0 0 0 0 0 0 0 0 0 0 0 0 0 0 0 0 0 0 0 0
0 0 0 0 0 0 0 0 0 0 0 0 0 0 0 0 0 0 0 0 0 0 0 0 0 0 0 0 0 0 157 90 85 157 90 85 157 90 85 157 90 85 157 90 85 157 90 85 157 90 85 157 90 85 157 90 85 157 90 85 157 90 85 157 90 85 157 90 85 157 90 85 157 90 85 157 90 85 157 90 85 157 90 85 157 90 85 157 90 85 157 90 85 157 90 85 157 90 85 157 90 85 157 90 85 157 90 85 157 90 85 157 90 85 0 0 0 0 0 0 0 0 0 0 0 0 0 0 0 0 0 0 0 0 0 0 0 0 0 0 0 0 0 0
0 0 0 0 0 0 0 0 0 0 0 0 0 0 0 0 0 0 0 0 0 0 0 0 0 0 0 0 0 0 157 90 85 157 90 85 157 90 85 157 90 85 157 90 85 157 90 85 157 90 85 157 90 85 157 90 85 157 90 85 157 90 85 157 90 85 157 90 85 157 90 85 157 90 85 157 90 85 157 90 85 157 90 85 157 90 85 157 90 85 157 90 85 157 90 85 157 90 85 157 90 85 157 90 85 157 90 85 157 90 85 157 90 85 0 0 0 0 0 0 0 0 0 0 0 0 0 0 0 0 0 0 0 0 0 0 0 0 0 0 0 0 0 0
0 0 0 0 0 0 0 0 0 0 0 0 0 0 0 0 0 0 0 0 0 0 0 0 0 0 0 0 0 0 0 0 0 0 0 0 0 0 0 0 0 0 0 0 0 0 0 0 0 0 0 0 0 0 0 0 0 0 0 0 0 0 0 0 0 0 100 47 45 183 110 107 183 110 107 183 110 107 100 47 45 0 0 0 0 0 0 0 0 0 0 0 0 0 0 0 0 0 0 0 0 0 0 0 0 0 0 0 0 0 0 0 0 0 0 0 0 0 0 0 0 0 0 0 0 0 0 0 0 0 0 0 0 0 0 0 0 0 0 0 0 0 0 0
0 0 0 0 0 0 0 0 0 0 0 0 0 0 0 0 0 0 0 0 0 0 0 0 0 0 0 0 0 0 0 0 0 0 0 0 0 0 0 0 0 0 0 0 0 0 0 0 0 0 0 0 0 0 0 0 0 0 0 0 100 47 45 181 107 104 181 107 104 181 107 104 181 107 104 181 107 104 181 107 104 181 107 104 100 47 45 0 0 0 0 0 0 0 0 0 0 0 0 0 0 0 0 0 0 0 0 0 0 0 0 0 0 0 0 0 0 0 0 0 0 0 0 0 0 0 0 0 0 0 0 0 0 0 0 0 0 0 0 0 0 0 0 0
0 0 0 0 0 0 0 0 0 0 0 0 0 0 0 0 0 0 0 0 0 0 0 0 0 0 0 0 0 0 0 0 0 0 0 0 0 0 0 0 0 0 0 0 0 0 0 0 0 0 0 0 0 0 100 47 45 180 104 101 180 104 101 180 104 101 180 104 101 180 104 101 180 104 101 180 104 101 180 104 101 180 104 101 180 104 101 180 104 101 100 47 45 0 0 0 0 0 0 0 0 0 0 0 0 0 0 0 0 0 0 0 0 0 0 0 0 0 0 0 0 0 0 0 0 0 0 0 0 0 0 0 0 0 0 0 0 0 0 0 0 0 0 0
0 0 0 0 0 0 0 0 0 0 0 0 0 0 0 0 0 0 0 0 0 0 0 0 0 0 0 0 0 0 0 0 0 0 0 0 0 0 0 0 0 0 0 0 0 0 0 0 100 47 45 178 101 97 178 101 97 178 101 97 178 101 97 178 101 97 178 101 97 178 101 97 178 101 97 178 101 97 178 101 97 178 101 97 178 101 97 178 101 97 178 101 97 178 101 97 100 47 45 0 0 0 0 0 0 0 0 0 0 0 0 0 0 0 0 0 0 0 0 0 0 0 0 0 0 0 0 0 0 0 0 0 0 0 0 0 0 0 0 0 0 0 0 0
0 0 0 0 0 0 0 0 0 0 0 0 0 0 0 0 0 0 0 0 0 0 0 0 0 0 0 0 0 0 0 0 0 0 0 0 0 0 0 0 0 0 100 47 45 177 98 94 177 98 94 177 98 94 32 38 31 32 38 31 32 38 31 32 38 31 32 38 31 32 38 31 32 38 31 32 38 31 32 38 31 32 38 31 32 38 31 32 38 31 32 38 31 177 98 94 177 98 94 177 98 94 100 47 45 0 0 0 0 0 0 0 0 0 0 0 0 0 0 0 0 0 0 0 0 0 0 0 0 0 0 0 0 0 0 0 0 0 0 0 0 0 0 0
0 0 0 0 0 0 0 0 0 0 0 0 0 0 0 0 0 0 0 0 0 0 0 0 0 0 0 0 0 0 0 0 0 0 0 0 100 47 45 175 94 91 175 94 91 175 94 91 175 94 91 175 94 91 32 38 31 32 38 31 32 38 31 32 38 31 32 38 31 32 38 31 32 38 31 32 38 31 32 38 31 32 38 31 32 38 31 32 38 31 32 38 31 175 94 91 175 94 91 175 94 91 175 94 91 175 94 91 100 47 45 0 0 0 0 0 0 0 0 0 0 0 0 0 0 0 0 0 0 0 0 0 0 0 0 0 0 0 0 0 0 0 0 0
0 0 0 0 0 0 0 0 0 0 0 0 0 0 0 0 0 0 0 0 0 0 0 0 0 0 0 0 0 0 100 47 45 174 91 88 174 91 88 174 91 88 174 91 88 174 91 88 174 91 88 174 91 88 174 91 88 174 91 88 174 91 88 174 91 88 174 91 88 174 91 88 174 91 88 174 91 88 174 91 88 174 91 88 174 91 88 174 91 88 174 91 88 174 91 88 174 91 88 174 91 88 174 91 88 174 91 88 174 91 88 174 91 88 100 47 45 0 0 0 0 0 0 0 0 0 0 0 0 0 0 0 0 0 0 0 0 0 0 0 0 0 0 0
0 0 0 0 0 0 0 0 0 0 0 0 0 0 0 0 0 0 0 0 0 0 0 0 100 47 45 172 88 84 172 88 84 172 88 84 172 88 84 172 88 84 172 88 84 172 88 84 172 88 84 172 88 84 172 88 84 172 88 84 172 88 84 172 88 84 172 88 84 172 88 84 172 88 84 172 88 84 172 88 84 172 88 84 172 88 84 172 88 84 172 88 84 172 88 84 172 88 84 172 88 84 172 88 84 172 88 84 172 88 84 172 88 84 172 88 84 172 88 84 100 47 45 0 0 0 0 0 0 0 0 0 0 0 0 0 0 0 0 0 0 0 0 0
0 0 0 0 0 0 0 0 0 0 0 0 0 0 0 0 0 0 100 47 45 171 85 81 171 85 81 171 85 81 171 85 81 171 85 81 171 85 81 171 85 81 171 85 81 171 85 81 171 85 81 171 85 81 171 85 81 171 85 81 171 85 81 171 85 81 171 85 81 171 85 81 171 85 81 171 85 81 171 85 81 171 85 81 171 85 81 171 85 81 171 85 81 171 85 81 171 85 81 171 85 81 171 85 81 171 85 81 171 85 81 171 85 81 171 85 81 171 85 81 171 85 81 171 85 81 100 47 45 0 0 0 0 0 0 0 0 0 0 0 0 0 0 0
0 0 0 0 0 0 0 0 0 0 0 0 100 47 45 169 82 78 169 82 78 169 82 78 169 82 78 169 82 78 169 82 78 169 82 78 169 82 78 169 82 78 169 82 78 169 82 78 169 82 78 169 82 78 169 82 78 169 82 78 169 82 78 169 82 78 169 82 78 169 82 78 169 82 78 169 82 78 169 82 78 169 82 78 169 82 78 169 82 78 169 82 78 169 82 78 169 82 78 169 82 78 169 82 78 169 82 78 169 82 78 169 82 78 169 82 78 169 82 78 169 82 78 169 82 78 169 82 78 169 82 78 100 47 45 0 0 0 0 0 0 0 0 0
0 0 0 100 47 45 168 79 75 168 79 75 168 79 75 168 79 75 168 79 75 168 79 75 168 79 75 168 79 75 168 79 75 168 79 75 168 79 75 168 79 75 168 79 75 168 79 75 168 79 75 168 79 75 168 79 75 168 79 75 168 79 75 168 79 75 168 79 75 168 79 75 168 79 75 168 79 75 168 79 75 168 79 75 168 79 75 168 79 75 168 79 75 168 79 75 168 79 75 168 79 75 168 79 75 168 79 75 168 79 75 168 79 75 168 79 75 168 79 75 168 79 75 168 79 75 168 79 75 168 79 75 168 79 75 168 79 75 168 79 75 100 47 45
0 0 0 0 0 0 0 0 0 0 0 0 100 47 45 161 76 72 161 76 72 161 76 72 161 76 72 161 76 72 161 76 72 161 76 72 161 76 72 161 76 72 161 76 72 161 76 72 161 76 72 161 76 72 161 76 72 161 76 72 161 76 72 161 76 72 161 76 72 161 76 72 161 76 72 161 76 72 161 76 72 161 76 72 161 76 72 161 76 72 161 76 72 161 76 72 161 76 72 161 76 72 161 76 72 161 76 72 161 76 72 161 76 72 161 76 72 161 76 72 161 76 72 161 76 72 161 76 72 161 76 72 100 47 45 0 0 0 0 0 0 0 0 0
0 0 0 0 0 0 0 0 0 0 0 0 0 0 0 0 0 0 100 47 45 155 73 69 155 73 69 155 73 69 155 73 69 155 73 69 155 73 69 155 73 69 155 73 69 155 73 69 155 73 69 155 73 69 155 73 69 155 73 69 155 73 69 155 73 69 155 73 69 155 73 69 155 73 69 155 73 69 155 73 69 155 73 69 155 73 69 155 73 69 155 73 69 155 73 69 155 73 69 155 73 69 155 73 69 155 73 69 155 73 69 155 73 69 155 73 69 155 73 69 155 73 69 155 73 69 100 47 45 0 0 0 0 0 0 0 0 0 0 0 0 0 0 0
0 0 0 0 0 0 0 0 0 0 0 0 0 0 0 0 0 0 0 0 0 0 0 0 100 47 45 149 70 66 149 70 66 149 70 66 149 70 66 149 70 66 149 70 66 149 70 66 149 70 66 149 70 66 149 70 66 149 70 66 149 70 66 149 70 66 149 70 66 149 70 66 149 70 66 149 70 66 149 70 66 149 70 66 149 70 66 149 70 66 149 70 66 149 70 66 149 70 66 149 70 66 149 70 66 149 70 66 149 70 66 149 70 66 149 70 66 149 70 66 100 47 45 0 0 0 0 0 0 0 0 0 0 0 0 0 0 0 0 0 0 0 0 0
0 0 0 0 0 0 0 0 0 0 0 0 0 0 0 0 0 0 0 0 0 0 0 0 0 0 0 0 0 0 100 47 45 143 67 64 143 67 64 143 67 64 143 67 64 143 67 64 143 67 64 143 67 64 143 67 64 143 67 64 143 67 64 143 67 64 143 67 64 143 67 64 143 67 64 143 67 64 143 67 64 143 67 64 143 67 64 143 67 64 143 67 64 143 67 64 143 67 64 143 67 64 143 67 64 143 67 64 143 67 64 143 67 64 100 47 45 0 0 0 0 0 0 0 0 0 0 0 0 0 0 0 0 0 0 0 0 0 0 0 0 0 0 0
0 0 0 0 0 0 0 0 0 0 0 0 0 0 0 0 0 0 0 0 0 0 0 0 0 0 0 0 0 0 0 0 0 0 0 0 100 47 45 137 64 61 137 64 61 137 64 61 137 64 61 137 64 61 137 64 61 137 64 61 137 64 61 137 64 61 137 64 61 137 64 61 137 64 61 137 64 61 137 64 61 137 64 61 137 64 61 137 64 61 137 64 61 137 64 61 137 64 61 137 64 61 137 64 61 137 64 61 100 47 45 0 0 0 0 0 0 0 0 0 0 0 0 0 0 0 0 0 0 0 0 0 0 0 0 0 0 0 0 0 0 0 0 0
0 0 0 0 0 0 0 0 0 0 0 0 0 0 0 0 0 0 0 0 0 0 0 0 0 0 0 0 0 0 0 0 0 0 0 0 0 0 0 0 0 0 100 47 45 130 61 58 130 61 58 130 61 58 130 61 58 130 61 58 130 61 58 130 61 58 130 61 58 130 61 58 130 61 58 130 61 58 130 61 58 130 61 58 130 61 58 130 61 58 130 61 58 130 61 58 130 61 58 130 61 58 100 47 45 0 0 0 0 0 0 0 0 0 0 0 0 0 0 0 0 0 0 0 0 0 0 0 0 0 0 0 0 0 0 0 0 0 0 0 0 0 0 0
0 0 0 0 0 0 0 0 0 0 0 0 0 0 0 0 0 0 0 0 0 0 0 0 0 0 0 0 0 0 0 0 0 0 0 0 0 0 0 0 0 0 0 0 0 0 0 0 100 47 45 124 58 55 124 58 55 124 58 55 124 58 55 124 58 55 124 58 55 124 58 55 124 58 55 124 58 55 124 58 55 124 58 55 124 58 55 124 58 55 124 58 55 124 58 55 100 47 45 0 0 0 0 0 0 0 0 0 0 0 0 0 0 0 0 0 0 0 0 0 0 0 0 0 0 0 0 0 0 0 0 0 0 0 0 0 0 0 0 0 0 0 0 0
0 0 0 0 0 0 0 0 0 0 0 0 0 0 0 0 0 0 0 0 0 0 0 0 0 0 0 0 0 0 0 0 0 0 0 0 0 0 0 0 0 0 0 0 0 0 0 0 0 0 0 0 0 0 100 47 45 118 55 53 118 55 53 118 55 53 118 55 53 118 55 53 118 55 53 118 55 53 118 55 53 118 55 53 118 55 53 118 55 53 100 47 45 0 0 0 0 0 0 0 0 0 0 0 0 0 0 0 0 0 0 0 0 0 0 0 0 0 0 0 0 0 0 0 0 0 0 0 0 0 0 0 0 0 0 0 0 0 0 0 0 0 0 0
0 0 0 0 0 0 0 0 0 0 0 0 0 0 0 0 0 0 0 0 0 0 0 0 0 0 0 0 0 0 0 0 0 0 0 0 0 0 0 0 0 0 0 0 0 0 0 0 0 0 0 0 0 0 0 0 0 0 0 0 100 47 45 112 52 50 112 52 50 112 52 50 112 52 50 112 52 50 112 52 50 112 52 50 100 47 45 0 0 0 0 0 0 0 0 0 0 0 0 0 0 0 0 0 0 0 0 0 0 0 0 0 0 0 0 0 0 0 0 0 0 0 0 0 0 0 0 0 0 0 0 0 0 0 0 0 0 0 0 0 0 0 0 0
0 0 0 0 0 0 0 0 0 0 0 0 0 0 0 0 0 0 0 0 0 0 0 0 0 0 0 0 0 0 0 0 0 0 0 0 0 0 0 0 0 0 0 0 0 0 0 0 0 0 0 0 0 0 0 0 0 0 0 0 0 0 0 0 0 0 100 47 45 106 49 47 106 49 47 106 49 47 100 47 45 0 0 0 0 0 0 0 0 0 0 0 0 0 0 0 0 0 0 0 0 0 0 0 0 0 0 0 0 0 0 0 0 0 0 0 0 0 0 0 0 0 0 0 0 0 0 0 0 0 0 0 0 0 0 0 0 0 0 0 0 0 0 0
0 0 0 0 0 0 0 0 0 0 0 0 0 0 0 0 0 0 0 0 0 0 0 0 0 0 0 0 0 0 0 0 0 0 0 0 0 0 0 0 0 0 0 0 0 0 0 0 0 0 0 0 0 0 0 0 0 0 0 0 0 0 0 0 0 0 0 0 0 0 0 0 0 0 0 0 0 0 0 0 0 0 0 0 0 0 0 0 0 0 0 0 0 0 0 0 0 0 0 0 0 0 0 0 0 0 0 0 0 0 0 0 0 0 0 0 0 0 0 0 0 0 0 0 0 0 0 0 0 0 0 0 0 0 0 0 0 0 0 0 0 0 0 0
0 0 0 0 0 0 0 0 0 0 0 0 0 0 0 0 0 0 0 0 0 0 0 0 0 0 0 0 0 0 0 0 0 0 0 0 0 0 0 0 0 0 0 0 0 0 0 0 0 0 0 0 0 0 0 0 0 0 0 0 0 0 0 0 0 0 0 0 0 0 0 0 0 0 0 0 0 0 0 0 0 0 0 0 0 0 0 0 0 0 0 0 0 0 0 0 0 0 0 0 0 0 0 0 0 0 0 0 0 0 0 0 0 0 0 0 0 0 0 0 0 0 0 0 0 0 0 0 0 0 0 0 0 0 0 0 0 0 0 0 0 0 0 0
