P3
48 24
255
0 0 0 0 0 0 0 0 0 0 0 0 0 0 0 0 0 0 0 0 0 0 0 0 0 0 0 0 0 0 0 0 0 0 0 0 0 0 0 0 0 0 0 0 0 0 0 0 0 0 0 0 0 0 0 0 0 0 0 0 0 0 0 0 0 0 0 0 0 0 0 0 0 0 0 0 0 0 0 0 0 0 0 0 0 0 0 0 0 0 0 0 0 0 0 0 0 0 0 0 0 0 0 0 0 0 0 0 0 0 0 0 0 0 0 0 0 0 0 0 0 0 0 0 0 0 0 0 0 0 0 0 0 0 0 0 0 0 0 0 0 0 0 0
0 0 0 0 0 0 0 0 0 0 0 0 0 0 0 0 0 0 0 0 0 0 0 0 0 0 0 0 0 0 0 0 0 0 0 0 0 0 0 0 0 0 0 0 0 0 0 0 0 0 0 0 0 0 0 0 0 0 0 0 0 0 0 0 0 0 0 0 0 0 0 0 0 0 0 0 0 0 0 0 0 0 0 0 0 0 0 0 0 0 0 0 0 0 0 0 0 0 0 0 0 0 0 0 0 0 0 0 0 0 0 0 0 0 0 0 0 0 0 0 0 0 0 0 0 0 0 0 0 0 0 0 0 0 0 0 0 0 0 0 0 0 0 0
0 0 0 0 0 0 0 0 0 0 0 0 0 0 0 0 0 0 0 0 0 0 0 0 0 0 0 0 0 0 0 0 0 0 0 0 0 0 0 0 0 0 0 0 0 0 0 0 0 0 0 0 0 0 0 0 0 0 0 0 0 0 0 0 0 0 0 0 0 0 0 0 87 125 143 0 0 0 0 0 0 0 0 0 0 0 0 0 0 0 0 0 0 0 0 0 0 0 0 0 0 0 0 0 0 0 0 0 0 0 0 0 0 0 0 0 0 0 0 0 0 0 0 0 0 0 0 0 0 0 0 0 0 0 0 0 0 0 0 0 0 0 0 0
0 0 0 0 0 0 0 0 0 0 0 0 0 0 0 0 0 0 0 0 0 0 0 0 0 0 0 0 0 0 0 0 0 0 0 0 0 0 0 0 0 0 0 0 0 0 0 0 0 0 0 0 0 0 0 0 0 0 0 0 0 0 0 0 0 0 27 55 69 83 122 140 83 122 140 83 122 140 27 55 69 0 0 0 0 0 0 0 0 0 0 0 0 0 0 0 0 0 0 0 0 0 0 0 0 0 0 0 0 0 0 0 0 0 0 0 0 0 0 0 0 0 0 0 0 0 0 0 0 0 0 0 0 0 0 0 0 0 0 0 0 0 0 0
0 0 0 0 0 0 0 0 0 0 0 0 0 0 0 0 0 0 0 0 0 0 0 0 0 0 0 0 0 0 0 0 0 0 0 0 0 0 0 0 0 0 0 0 0 0 0 0 0 0 0 0 0 0 0 0 0 0 0 0 27 55 69 79 119 138 79 119 138 79 119 138 79 119 138 79 119 138 79 119 138 79 119 138 27 55 69 0 0 0 0 0 0 0 0 0 0 0 0 0 0 0 0 0 0 0 0 0 0 0 0 0 0 0 0 0 0 0 0 0 0 0 0 0 0 0 0 0 0 0 0 0 0 0 0 0 0 0 0 0 0 0 0 0
0 0 0 0 0 0 0 0 0 0 0 0 0 0 0 0 0 0 0 0 0 0 0 0 0 0 0 0 0 0 0 0 0 0 0 0 0 0 0 0 0 0 0 0 0 0 0 0 0 0 0 0 0 0 27 55 69 75 116 135 75 116 135 75 116 135 75 116 135 75 116 135 75 116 135 75 116 135 75 116 135 75 116 135 75 116 135 75 116 135 27 55 69 0 0 0 0 0 0 0 0 0 0 0 0 0 0 0 0 0 0 0 0 0 0 0 0 0 0 0 0 0 0 0 0 0 0 0 0 0 0 0 0 0 0 0 0 0 0 0 0 0 0 0
0 0 0 0 0 0 0 0 0 0 0 0 0 0 0 0 0 0 0 0 0 0 0 0 0 0 0 0 0 0 0 0 0 0 0 0 0 0 0 0 0 0 0 0 0 0 0 0 27 55 69 72 113 133 72 113 133 72 113 133 72 113 133 72 113 133 72 113 133 72 113 133 72 113 133 72 113 133 72 113 133 72 113 133 72 113 133 72 113 133 72 113 133 72 113 133 27 55 69 0 0 0 0 0 0 0 0 0 0 0 0 0 0 0 0 0 0 0 0 0 0 0 0 0 0 0 0 0 0 0 0 0 0 0 0 0 0 0 0 0 0 0 0 0
0 0 0 0 0 0 0 0 0 0 0 0 0 0 0 0 0 0 0 0 0 0 0 0 0 0 0 0 0 0 0 0 0 0 0 0 45 120 144 45 120 144 45 120 144 45 120 144 45 120 144 45 120 144 45 120 144 45 120 144 45 120 144 45 120 144 45 120 144 45 120 144 45 120 144 45 120 144 45 120 144 45 120 144 45 120 144 45 120 144 45 120 144 45 120 144 45 120 144 45 120 144 45 120 144 45 120 144 0 0 0 0 0 0 0 0 0 0 0 0 0 0 0 0 0 0 0 0 0 0 0 0 0 0 0 0 0 0 0 0 0 0 0 0
0 0 0 0 0 0 0 0 0 0 0 0 0 0 0 0 0 0 0 0 0 0 0 0 0 0 0 0 0 0 0 0 0 0 0 0 45 120 144 45 120 144 45 120 144 45 120 144 45 120 144 45 120 144 45 120 144 45 120 144 45 120 144 45 120 144 45 120 144 45 120 144 45 120 144 45 120 144 45 120 144 45 120 144 45 120 144 45 120 144 45 120 144 45 120 144 45 120 144 45 120 144 45 120 144 45 120 144 27 55 69 0 0 0 0 0 0 0 0 0 0 0 0 0 0 0 0 0 0 0 0 0 0 0 0 0 0 0 0 0 0 0 0 0
0 0 0 0 0 0 0 0 0 0 0 0 0 0 0 0 0 0 0 0 0 0 0 0 0 0 0 0 0 0 27 55 69 60 104 125 60 104 125 60 104 125 60 104 125 60 104 125 60 104 125 60 104 125 119 198 207 119 198 207 119 198 207 119 198 207 119 198 207 119 198 207 119 198 207 119 198 207 119 198 207 119 198 207 119 198 207 119 198 207 119 198 207 119 198 207 119 198 207 60 104 125 60 104 125 60 104 125 60 104 125 60 104 125 27 55 69 0 0 0 0 0 0 0 0 0 0 0 0 0 0 0 0 0 0 0 0 0 0 0 0 0 0 0
0 0 0 0 0 0 0 0 0 0 0 0 0 0 0 0 0 0 0 0 0 0 0 0 27 55 69 57 101 123 57 101 123 57 101 123 57 101 123 57 101 123 57 101 123 57 101 123 57 101 123 57 101 123 57 101 123 57 101 123 57 101 123 57 101 123 57 101 123 57 101 123 57 101 123 57 101 123 57 101 123 57 101 123 57 101 123 57 101 123 57 101 123 57 101 123 57 101 123 57 101 123 57 101 123 57 101 123 57 101 123 57 101 123 57 101 123 57 101 123 27 55 69 0 0 0 0 0 0 0 0 0 0 0 0 0 0 0 0 0 0 0 0 0
0 0 0 0 0 0 0 0 0 0 0 0 0 0 0 0 0 0 27 55 69 53 98 120 53 98 120 53 98 120 53 98 120 53 98 120 45 120 144 45 120 144 45 120 144 45 120 144 45 120 144 45 120 144 45 120 144 45 120 144 45 120 144 45 120 144 45 120 144 45 120 144 45 120 144 45 120 144 45 120 144 45 120 144 45 120 144 45 120 144 45 120 144 45 120 144 45 120 144 45 120 144 45 120 144 45 120 144 53 98 120 53 98 120 53 98 120 53 98 120 53 98 120 53 98 120 27 55 69 0 0 0 0 0 0 0 0 0 0 0 0 0 0 0
0 0 0 0 0 0 0 0 0 0 0 0 27 55 69 49 95 118 49 95 118 49 95 118 49 95 118 49 95 118 49 95 118 49 95 118 45 120 144 45 120 144 45 120 144 45 120 144 45 120 144 45 120 144 45 120 144 45 120 144 45 120 144 45 120 144 45 120 144 45 120 144 45 120 144 45 120 144 45 120 144 45 120 144 45 120 144 45 120 144 45 120 144 45 120 144 45 120 144 45 120 144 45 120 144 45 120 144 49 95 118 49 95 118 49 95 118 49 95 118 49 95 118 49 95 118 49 95 118 49 95 118 27 55 69 0 0 0 0 0 0 0 0 0
0 0 0 27 55 69 46 93 116 46 93 116 46 93 116 46 93 116 46 93 116 46 93 116 46 93 116 46 93 116 46 93 116 46 93 116 46 93 116 46 93 116 46 93 116 46 93 116 46 93 116 46 93 116 46 93 116 46 93 116 46 93 116 46 93 116 46 93 116 46 93 116 46 93 116 46 93 116 46 93 116 46 93 116 46 93 116 46 93 116 46 93 116 46 93 116 46 93 116 46 93 116 46 93 116 46 93 116 46 93 116 46 93 116 46 93 116 46 93 116 46 93 116 46 93 116 46 93 116 46 93 116 46 93 116 46 93 116 46 93 116 27 55 69
0 0 0 0 0 0 0 0 0 0 0 0 27 55 69 44 89 111 44 89 111 44 89 111 44 89 111 44 89 111 44 89 111 44 89 111 44 89 111 44 89 111 44 89 111 44 89 111 44 89 111 44 89 111 44 89 111 44 89 111 44 89 111 44 89 111 44 89 111 44 89 111 44 89 111 44 89 111 44 89 111 44 89 111 44 89 111 44 89 111 44 89 111 44 89 111 44 89 111 44 89 111 44 89 111 44 89 111 44 89 111 44 89 111 44 89 111 44 89 111 44 89 111 44 89 111 44 89 111 44 89 111 27 55 69 0 0 0 0 0 0 0 0 0
0 0 0 0 0 0 0 0 0 0 0 0 0 0 0 0 0 0 27 55 69 42 86 107 42 86 107 42 86 107 42 86 107 42 86 107 45 120 144 45 120 144 45 120 144 45 120 144 45 120 144 45 120 144 45 120 144 45 120 144 45 120 144 45 120 144 45 120 144 45 120 144 45 120 144 45 120 144 45 120 144 45 120 144 45 120 144 45 120 144 45 120 144 45 120 144 45 120 144 45 120 144 45 120 144 45 120 144 42 86 107 42 86 107 42 86 107 42 86 107 42 86 107 42 86 107 27 55 69 0 0 0 0 0 0 0 0 0 0 0 0 0 0 0
0 0 0 0 0 0 0 0 0 0 0 0 0 0 0 0 0 0 0 0 0 0 0 0 27 55 69 40 82 103 40 82 103 40 82 103 45 120 144 45 120 144 45 120 144 45 120 144 45 120 144 45 120 144 45 120 144 45 120 144 45 120 144 45 120 144 45 120 144 45 120 144 45 120 144 45 120 144 45 120 144 45 120 144 45 120 144 45 120 144 45 120 144 45 120 144 45 120 144 45 120 144 45 120 144 45 120 144 40 82 103 40 82 103 40 82 103 40 82 103 27 55 69 0 0 0 0 0 0 0 0 0 0 0 0 0 0 0 0 0 0 0 0 0
0 0 0 0 0 0 0 0 0 0 0 0 0 0 0 0 0 0 0 0 0 0 0 0 0 0 0 0 0 0 27 55 69 39 79 98 39 79 98 39 79 98 39 79 98 39 79 98 39 79 98 39 79 98 39 79 98 39 79 98 39 79 98 39 79 98 39 79 98 39 79 98 39 79 98 39 79 98 39 79 98 39 79 98 39 79 98 39 79 98 39 79 98 39 79 98 39 79 98 39 79 98 39 79 98 39 79 98 39 79 98 39 79 98 27 55 69 0 0 0 0 0 0 0 0 0 0 0 0 0 0 0 0 0 0 0 0 0 0 0 0 0 0 0
0 0 0 0 0 0 0 0 0 0 0 0 0 0 0 0 0 0 0 0 0 0 0 0 0 0 0 0 0 0 0 0 0 0 0 0 27 55 69 37 75 94 37 75 94 37 75 94 37 75 94 37 75 94 37 75 94 37 75 94 37 75 94 37 75 94 37 75 94 37 75 94 37 75 94 37 75 94 37 75 94 37 75 94 37 75 94 37 75 94 37 75 94 37 75 94 37 75 94 37 75 94 37 75 94 37 75 94 27 55 69 0 0 0 0 0 0 0 0 0 0 0 0 0 0 0 0 0 0 0 0 0 0 0 0 0 0 0 0 0 0 0 0 0
0 0 0 0 0 0 0 0 0 0 0 0 0 0 0 0 0 0 0 0 0 0 0 0 0 0 0 0 0 0 0 0 0 0 0 0 0 0 0 0 0 0 27 55 69 35 72 90 35 72 90 35 72 90 35 72 90 35 72 90 35 72 90 35 72 90 35 72 90 35 72 90 35 72 90 35 72 90 35 72 90 35 72 90 35 72 90 35 72 90 35 72 90 35 72 90 35 72 90 35 72 90 27 55 69 0 0 0 0 0 0 0 0 0 0 0 0 0 0 0 0 0 0 0 0 0 0 0 0 0 0 0 0 0 0 0 0 0 0 0 0 0 0 0
0 0 0 0 0 0 0 0 0 0 0 0 0 0 0 0 0 0 0 0 0 0 0 0 0 0 0 0 0 0 0 0 0 0 0 0 0 0 0 0 0 0 0 0 0 0 0 0 27 55 69 33 68 86 33 68 86 33 68 86 33 68 86 33 68 86 33 68 86 33 68 86 33 68 86 33 68 86 33 68 86 33 68 86 33 68 86 33 68 86 33 68 86 33 68 86 27 55 69 0 0 0 0 0 0 0 0 0 0 0 0 0 0 0 0 0 0 0 0 0 0 0 0 0 0 0 0 0 0 0 0 0 0 0 0 0 0 0 0 0 0 0 0 0
0 0 0 0 0 0 0 0 0 0 0 0 0 0 0 0 0 0 0 0 0 0 0 0 0 0 0 0 0 0 0 0 0 0 0 0 0 0 0 0 0 0 0 0 0 0 0 0 0 0 0 0 0 0 27 55 69 32 65 81 32 65 81 32 65 81 32 65 81 32 65 81 32 65 81 32 65 81 32 65 81 32 65 81 32 65 81 32 65 81 27 55 69 0 0 0 0 0 0 0 0 0 0 0 0 0 0 0 0 0 0 0 0 0 0 0 0 0 0 0 0 0 0 0 0 0 0 0 0 0 0 0 0 0 0 0 0 0 0 0 0 0 0 0
0 0 0 0 0 0 0 0 0 0 0 0 0 0 0 0 0 0 0 0 0 0 0 0 0 0 0 0 0 0 0 0 0 0 0 0 0 0 0 0 0 0 0 0 0 0 0 0 0 0 0 0 0 0 0 0 0 0 0 0 27 55 69 30 61 77 30 61 77 30 61 77 30 61 77 30 61 77 30 61 77 30 61 77 27 55 69 0 0 0 0 0 0 0 0 0 0 0 0 0 0 0 0 0 0 0 0 0 0 0 0 0 0 0 0 0 0 0 0 0 0 0 0 0 0 0 0 0 0 0 0 0 0 0 0 0 0 0 0 0 0 0 0 0
0 0 0 0 0 0 0 0 0 0 0 0 0 0 0 0 0 0 0 0 0 0 0 0 0 0 0 0 0 0 0 0 0 0 0 0 0 0 0 0 0 0 0 0 0 0 0 0 0 0 0 0 0 0 0 0 0 0 0 0 0 0 0 0 0 0 27 55 69 28 58 73 28 58 73 28 58 73 27 55 69 0 0 0 0 0 0 0 0 0 0 0 0 0 0 0 0 0 0 0 0 0 0 0 0 0 0 0 0 0 0 0 0 0 0 0 0 0 0 0 0 0 0 0 0 0 0 0 0 0 0 0 0 0 0 0 0 0 0 0 0 0 0 0
