P3
48 36
255
0 0 0 0 0 0 0 0 0 0 0 0 0 0 0 0 0 0 0 0 0 0 0 0 0 0 0 0 0 0 0 0 0 0 0 0 0 0 0 0 0 0 0 0 0 0 0 0 0 0 0 0 0 0 0 0 0 0 0 0 0 0 0 0 0 0 0 0 0 0 0 0 0 0 0 0 0 0 0 0 0 0 0 0 0 0 0 0 0 0 0 0 0 0 0 0 0 0 0 0 0 0 0 0 0 0 0 0 0 0 0 0 0 0 0 0 0 0 0 0 0 0 0 0 0 0 0 0 0 0 0 0 0 0 0 0 0 0 0 0 0 0 0 0
0 0 0 0 0 0 0 0 0 0 0 0 0 0 0 0 0 0 0 0 0 0 0 0 0 0 0 0 0 0 0 0 0 0 0 0 0 0 0 0 0 0 0 0 0 0 0 0 0 0 0 0 0 0 0 0 0 0 0 0 0 0 0 0 0 0 0 0 0 0 0 0 0 0 0 0 0 0 0 0 0 0 0 0 0 0 0 0 0 0 0 0 0 0 0 0 0 0 0 0 0 0 0 0 0 0 0 0 0 0 0 0 0 0 0 0 0 0 0 0 0 0 0 0 0 0 0 0 0 0 0 0 0 0 0 0 0 0 0 0 0 0 0 0
0 0 0 0 0 0 0 0 0 0 0 0 0 0 0 0 0 0 0 0 0 0 0 0 0 0 0 0 0 0 0 0 0 0 0 0 0 0 0 0 0 0 0 0 0 0 0 0 0 0 0 0 0 0 0 0 0 0 0 0 0 0 0 0 0 0 0 0 0 0 0 0 0 0 0 0 0 0 0 0 0 0 0 0 0 0 0 0 0 0 0 0 0 0 0 0 0 0 0 0 0 0 0 0 0 0 0 0 0 0 0 0 0 0 0 0 0 0 0 0 0 0 0 0 0 0 0 0 0 0 0 0 0 0 0 0 0 0 0 0 0 0 0 0
0 0 0 0 0 0 0 0 0 0 0 0 0 0 0 0 0 0 0 0 0 0 0 0 0 0 0 0 0 0 0 0 0 0 0 0 0 0 0 0 0 0 0 0 0 0 0 0 0 0 0 0 0 0 0 0 0 0 0 0 0 0 0 0 0 0 0 0 0 0 0 0 0 0 0 0 0 0 0 0 0 0 0 0 0 0 0 0 0 0 0 0 0 0 0 0 0 0 0 0 0 0 0 0 0 0 0 0 0 0 0 0 0 0 0 0 0 0 0 0 0 0 0 0 0 0 0 0 0 0 0 0 0 0 0 0 0 0 0 0 0 0 0 0
0 0 0 0 0 0 0 0 0 0 0 0 0 0 0 0 0 0 0 0 0 0 0 0 0 0 0 0 0 0 0 0 0 0 0 0 0 0 0 0 0 0 0 0 0 0 0 0 0 0 0 0 0 0 0 0 0 0 0 0 0 0 0 0 0 0 0 0 0 0 0 0 0 0 0 0 0 0 0 0 0 0 0 0 0 0 0 0 0 0 0 0 0 0 0 0 0 0 0 0 0 0 0 0 0 0 0 0 0 0 0 0 0 0 0 0 0 0 0 0 0 0 0 0 0 0 0 0 0 0 0 0 0 0 0 0 0 0 0 0 0 0 0 0
0 0 0 0 0 0 0 0 0 0 0 0 0 0 0 0 0 0 0 0 0 0 0 0 0 0 0 0 0 0 0 0 0 0 0 0 0 0 0 0 0 0 0 0 0 0 0 0 0 0 0 0 0 0 0 0 0 0 0 0 0 0 0 0 0 0 0 0 0 0 0 0 0 0 0 0 0 0 0 0 0 0 0 0 0 0 0 0 0 0 0 0 0 0 0 0 0 0 0 0 0 0 0 0 0 0 0 0 0 0 0 0 0 0 0 0 0 0 0 0 0 0 0 0 0 0 0 0 0 0 0 0 0 0 0 0 0 0 0 0 0 0 0 0
0 0 0 0 0 0 0 0 0 0 0 0 0 0 0 0 0 0 0 0 0 0 0 0 0 0 0 0 0 0 0 0 0 0 0 0 0 0 0 0 0 0 0 0 0 0 0 0 0 0 0 0 0 0 0 0 0 0 0 0 0 0 0 0 0 0 0 0 0 0 0 0 0 0 0 0 0 0 0 0 0 0 0 0 0 0 0 0 0 0 0 0 0 0 0 0 0 0 0 0 0 0 0 0 0 0 0 0 0 0 0 0 0 0 0 0 0 0 0 0 0 0 0 0 0 0 0 0 0 0 0 0 0 0 0 0 0 0 0 0 0 0 0 0
0 0 0 0 0 0 0 0 0 0 0 0 0 0 0 0 0 0 0 0 0 0 0 0 0 0 0 0 0 0 0 0 0 0 0 0 0 0 0 0 0 0 0 0 0 0 0 0 0 0 0 0 0 0 0 0 0 0 0 0 0 0 0 0 0 0 0 0 0 0 0 0 0 0 0 0 0 0 0 0 0 0 0 0 0 0 0 0 0 0 0 0 0 0 0 0 0 0 0 0 0 0 0 0 0 0 0 0 0 0 0 0 0 0 0 0 0 0 0 0 0 0 0 0 0 0 0 0 0 0 0 0 0 0 0 0 0 0 0 0 0 0 0 0
0 0 0 0 0 0 0 0 0 0 0 0 0 0 0 0 0 0 0 0 0 0 0 0 0 0 0 0 0 0 0 0 0 0 0 0 0 0 0 0 0 0 0 0 0 0 0 0 0 0 0 0 0 0 0 0 0 0 0 0 0 0 0 0 0 0 0 0 0 0 0 0 125 114 101 0 0 0 0 0 0 0 0 0 0 0 0 0 0 0 0 0 0 0 0 0 0 0 0 0 0 0 0 0 0 0 0 0 0 0 0 0 0 0 0 0 0 0 0 0 0 0 0 0 0 0 0 0 0 0 0 0 0 0 0 0 0 0 0 0 0 0 0 0
0 0 0 0 0 0 0 0 0 0 0 0 0 0 0 0 0 0 0 0 0 0 0 0 0 0 0 0 0 0 0 0 0 0 0 0 0 0 0 0 0 0 0 0 0 0 0 0 0 0 0 0 0 0 0 0 0 0 0 0 0 0 0 0 0 0 55 47 37 121 110 97 121 110 97 121 110 97 55 47 37 0 0 0 0 0 0 0 0 0 0 0 0 0 0 0 0 0 0 0 0 0 0 0 0 0 0 0 0 0 0 0 0 0 0 0 0 0 0 0 0 0 0 0 0 0 0 0 0 0 0 0 0 0 0 0 0 0 0 0 0 0 0 0
0 0 0 0 0 0 0 0 0 0 0 0 0 0 0 0 0 0 0 0 0 0 0 0 0 0 0 0 0 0 0 0 0 0 0 0 32 38 31 32 38 31 32 38 31 32 38 31 32 38 31 32 38 31 32 38 31 32 38 31 32 38 31 32 38 31 32 38 31 32 38 31 32 38 31 32 38 31 32 38 31 32 38 31 32 38 31 32 38 31 32 38 31 32 38 31 32 38 31 32 38 31 32 38 31 32 38 31 0 0 0 0 0 0 0 0 0 0 0 0 0 0 0 0 0 0 0 0 0 0 0 0 0 0 0 0 0 0 0 0 0 0 0 0
0 0 0 0 0 0 0 0 0 0 0 0 0 0 0 0 0 0 0 0 0 0 0 0 0 0 0 0 0 0 0 0 0 0 0 0 32 38 31 32 38 31 32 38 31 32 38 31 32 38 31 32 38 31 32 38 31 32 38 31 32 38 31 32 38 31 32 38 31 32 38 31 32 38 31 32 38 31 32 38 31 32 38 31 32 38 31 32 38 31 32 38 31 32 38 31 32 38 31 32 38 31 32 38 31 32 38 31 0 0 0 0 0 0 0 0 0 0 0 0 0 0 0 0 0 0 0 0 0 0 0 0 0 0 0 0 0 0 0 0 0 0 0 0
0 0 0 0 0 0 0 0 0 0 0 0 0 0 0 0 0 0 0 0 0 0 0 0 0 0 0 0 0 0 0 0 0 0 0 0 32 38 31 32 38 31 32 38 31 32 38 31 32 38 31 32 38 31 32 38 31 32 38 31 32 38 31 32 38 31 32 38 31 32 38 31 32 38 31 32 38 31 32 38 31 32 38 31 32 38 31 32 38 31 32 38 31 32 38 31 32 38 31 32 38 31 32 38 31 32 38 31 0 0 0 0 0 0 0 0 0 0 0 0 0 0 0 0 0 0 0 0 0 0 0 0 0 0 0 0 0 0 0 0 0 0 0 0
0 0 0 0 0 0 0 0 0 0 0 0 0 0 0 0 0 0 0 0 0 0 0 0 0 0 0 0 0 0 0 0 0 0 0 0 0 0 0 55 47 37 109 96 82 109 96 82 109 96 82 109 96 82 109 96 82 109 96 82 109 96 82 109 96 82 109 96 82 109 96 82 109 96 82 109 96 82 109 96 82 109 96 82 109 96 82 109 96 82 109 96 82 109 96 82 109 96 82 109 96 82 109 96 82 55 47 37 0 0 0 0 0 0 0 0 0 0 0 0 0 0 0 0 0 0 0 0 0 0 0 0 0 0 0 0 0 0 0 0 0 0 0 0
0 0 0 0 0 0 0 0 0 0 0 0 0 0 0 0 0 0 0 0 0 0 0 0 0 0 0 0 0 0 0 0 0 55 47 37 105 93 78 105 93 78 105 93 78 105 93 78 105 93 78 105 93 78 105 93 78 105 93 78 105 93 78 105 93 78 105 93 78 105 93 78 105 93 78 105 93 78 105 93 78 105 93 78 105 93 78 105 93 78 105 93 78 105 93 78 105 93 78 105 93 78 105 93 78 105 93 78 105 93 78 55 47 37 0 0 0 0 0 0 0 0 0 0 0 0 0 0 0 0 0 0 0 0 0 0 0 0 0 0 0 0 0 0
0 0 0 0 0 0 0 0 0 0 0 0 0 0 0 0 0 0 0 0 0 0 0 0 55 47 37 102 89 74 102 89 74 102 89 74 102 89 74 102 89 74 102 89 74 102 89 74 102 89 74 102 89 74 102 89 74 102 89 74 102 89 74 102 89 74 102 89 74 102 89 74 102 89 74 102 89 74 102 89 74 102 89 74 102 89 74 102 89 74 102 89 74 102 89 74 102 89 74 102 89 74 102 89 74 102 89 74 102 89 74 102 89 74 102 89 74 102 89 74 55 47 37 0 0 0 0 0 0 0 0 0 0 0 0 0 0 0 0 0 0 0 0 0
0 0 0 0 0 0 0 0 0 0 0 0 0 0 0 0 0 0 55 47 37 99 86 70 99 86 70 99 86 70 99 86 70 99 86 70 99 86 70 99 86 70 99 86 70 99 86 70 99 86 70 99 86 70 99 86 70 99 86 70 99 86 70 99 86 70 99 86 70 99 86 70 99 86 70 99 86 70 99 86 70 99 86 70 99 86 70 99 86 70 99 86 70 99 86 70 99 86 70 99 86 70 99 86 70 99 86 70 99 86 70 99 86 70 99 86 70 99 86 70 99 86 70 99 86 70 55 47 37 0 0 0 0 0 0 0 0 0 0 0 0 0 0 0
0 0 0 0 0 0 0 0 0 0 0 0 55 47 37 96 82 66 96 82 66 96 82 66 96 82 66 96 82 66 96 82 66 96 82 66 96 82 66 96 82 66 96 82 66 96 82 66 96 82 66 96 82 66 96 82 66 96 82 66 96 82 66 96 82 66 96 82 66 96 82 66 96 82 66 96 82 66 96 82 66 96 82 66 96 82 66 96 82 66 96 82 66 96 82 66 96 82 66 96 82 66 96 82 66 96 82 66 96 82 66 96 82 66 96 82 66 96 82 66 96 82 66 96 82 66 96 82 66 96 82 66 55 47 37 0 0 0 0 0 0 0 0 0
0 0 0 55 47 37 93 79 63 93 79 63 93 79 63 93 79 63 74 64 52 74 64 52 74 64 52 74 64 52 74 64 52 74 64 52 74 64 52 74 64 52 74 64 52 74 64 52 74 64 52 74 64 52 74 64 52 74 64 52 74 64 52 74 64 52 74 64 52 74 64 52 74 64 52 74 64 52 74 64 52 74 64 52 74 64 52 74 64 52 74 64 52 74 64 52 74 64 52 74 64 52 74 64 52 74 64 52 74 64 52 74 64 52 74 64 52 74 64 52 74 64 52 74 64 52 93 79 63 93 79 63 93 79 63 93 79 63 93 79 63 55 47 37
0 0 0 0 0 0 0 0 0 0 0 0 55 47 37 89 75 60 74 64 52 74 64 52 74 64 52 74 64 52 74 64 52 74 64 52 74 64 52 74 64 52 74 64 52 74 64 52 74 64 52 74 64 52 74 64 52 74 64 52 74 64 52 74 64 52 74 64 52 74 64 52 74 64 52 74 64 52 74 64 52 74 64 52 74 64 52 74 64 52 74 64 52 74 64 52 74 64 52 74 64 52 74 64 52 74 64 52 74 64 52 74 64 52 74 64 52 74 64 52 74 64 52 74 64 52 89 75 60 89 75 60 55 47 37 0 0 0 0 0 0 0 0 0
0 0 0 0 0 0 0 0 0 0 0 0 0 0 0 0 0 0 74 64 52 74 64 52 74 64 52 141 138 120 141 138 120 141 138 120 141 138 120 141 138 120 141 138 120 141 138 120 141 138 120 74 64 52 74 64 52 74 64 52 74 64 52 74 64 52 74 64 52 74 64 52 74 64 52 74 64 52 74 64 52 74 64 52 74 64 52 74 64 52 74 64 52 74 64 52 74 64 52 141 138 120 141 138 120 141 138 120 141 138 120 141 138 120 141 138 120 74 64 52 74 64 52 74 64 52 55 47 37 0 0 0 0 0 0 0 0 0 0 0 0 0 0 0
0 0 0 0 0 0 0 0 0 0 0 0 0 0 0 0 0 0 74 64 52 74 64 52 74 64 52 141 138 120 141 138 120 141 138 120 141 138 120 141 138 120 141 138 120 141 138 120 141 138 120 74 64 52 74 64 52 74 64 52 74 64 52 74 64 52 74 64 52 74 64 52 74 64 52 74 64 52 74 64 52 74 64 52 74 64 52 74 64 52 74 64 52 74 64 52 74 64 52 141 138 120 141 138 120 141 138 120 141 138 120 141 138 120 141 138 120 74 64 52 74 64 52 74 64 52 0 0 0 0 0 0 0 0 0 0 0 0 0 0 0 0 0 0
0 0 0 0 0 0 0 0 0 0 0 0 0 0 0 0 0 0 74 64 52 74 64 52 74 64 52 74 64 52 74 64 52 74 64 52 74 64 52 74 64 52 74 64 52 74 64 52 74 64 52 74 64 52 74 64 52 74 64 52 74 64 52 74 64 52 74 64 52 74 64 52 74 64 52 74 64 52 74 64 52 74 64 52 74 64 52 74 64 52 74 64 52 74 64 52 74 64 52 74 64 52 74 64 52 74 64 52 74 64 52 74 64 52 74 64 52 74 64 52 74 64 52 74 64 52 0 0 0 0 0 0 0 0 0 0 0 0 0 0 0 0 0 0
0 0 0 0 0 0 0 0 0 0 0 0 0 0 0 0 0 0 74 64 52 74 64 52 74 64 52 74 64 52 74 64 52 74 64 52 74 64 52 74 64 52 74 64 52 74 64 52 74 64 52 74 64 52 74 64 52 74 64 52 74 64 52 141 138 120 141 138 120 141 138 120 141 138 120 141 138 120 141 138 120 141 138 120 141 138 120 141 138 120 141 138 120 74 64 52 74 64 52 74 64 52 74 64 52 74 64 52 74 64 52 74 64 52 74 64 52 74 64 52 74 64 52 74 64 52 0 0 0 0 0 0 0 0 0 0 0 0 0 0 0 0 0 0
0 0 0 0 0 0 0 0 0 0 0 0 0 0 0 0 0 0 74 64 52 74 64 52 74 64 52 74 64 52 74 64 52 74 64 52 74 64 52 74 64 52 74 64 52 74 64 52 74 64 52 74 64 52 74 64 52 74 64 52 74 64 52 141 138 120 141 138 120 141 138 120 141 138 120 141 138 120 141 138 120 141 138 120 141 138 120 141 138 120 141 138 120 74 64 52 74 64 52 74 64 52 74 64 52 74 64 52 74 64 52 74 64 52 74 64 52 74 64 52 74 64 52 74 64 52 0 0 0 0 0 0 0 0 0 0 0 0 0 0 0 0 0 0
0 0 0 0 0 0 0 0 0 0 0 0 0 0 0 0 0 0 74 64 52 74 64 52 74 64 52 74 64 52 74 64 52 74 64 52 74 64 52 74 64 52 74 64 52 74 64 52 74 64 52 74 64 52 74 64 52 74 64 52 74 64 52 74 64 52 74 64 52 74 64 52 74 64 52 74 64 52 74 64 52 74 64 52 74 64 52 74 64 52 74 64 52 74 64 52 74 64 52 74 64 52 74 64 52 74 64 52 74 64 52 74 64 52 74 64 52 74 64 52 74 64 52 74 64 52 0 0 0 0 0 0 0 0 0 0 0 0 0 0 0 0 0 0
0 0 0 0 0 0 0 0 0 0 0 0 0 0 0 0 0 0 74 64 52 74 64 52 74 64 52 74 64 52 74 64 52 74 64 52 74 64 52 74 64 52 74 64 52 74 64 52 74 64 52 74 64 52 74 64 52 74 64 52 74 64 52 74 64 52 74 64 52 74 64 52 74 64 52 74 64 52 74 64 52 74 64 52 74 64 52 74 64 52 74 64 52 74 64 52 74 64 52 74 64 52 74 64 52 74 64 52 74 64 52 74 64 52 74 64 52 74 64 52 74 64 52 74 64 52 0 0 0 0 0 0 0 0 0 0 0 0 0 0 0 0 0 0
0 0 0 0 0 0 0 0 0 0 0 0 0 0 0 0 0 0 74 64 52 74 64 52 74 64 52 74 64 52 74 64 52 74 64 52 74 64 52 74 64 52 74 64 52 74 64 52 74 64 52 74 64 52 74 64 52 74 64 52 74 64 52 74 64 52 74 64 52 74 64 52 74 64 52 74 64 52 74 64 52 74 64 52 74 64 52 74 64 52 74 64 52 74 64 52 74 64 52 74 64 52 74 64 52 74 64 52 74 64 52 74 64 52 74 64 52 74 64 52 74 64 52 74 64 52 0 0 0 0 0 0 0 0 0 0 0 0 0 0 0 0 0 0
0 0 0 0 0 0 0 0 0 0 0 0 0 0 0 0 0 0 0 0 0 0 0 0 0 0 0 0 0 0 0 0 0 0 0 0 0 0 0 0 0 0 0 0 0 0 0 0 0 0 0 0 0 0 0 0 0 0 0 0 0 0 0 0 0 0 0 0 0 0 0 0 0 0 0 0 0 0 0 0 0 0 0 0 0 0 0 0 0 0 0 0 0 0 0 0 0 0 0 0 0 0 0 0 0 0 0 0 0 0 0 0 0 0 0 0 0 0 0 0 0 0 0 0 0 0 0 0 0 0 0 0 0 0 0 0 0 0 0 0 0 0 0 0
0 0 0 0 0 0 0 0 0 0 0 0 0 0 0 0 0 0 0 0 0 0 0 0 0 0 0 0 0 0 0 0 0 0 0 0 0 0 0 0 0 0 0 0 0 0 0 0 0 0 0 0 0 0 0 0 0 0 0 0 0 0 0 0 0 0 0 0 0 0 0 0 0 0 0 0 0 0 0 0 0 0 0 0 0 0 0 0 0 0 0 0 0 0 0 0 0 0 0 0 0 0 0 0 0 0 0 0 0 0 0 0 0 0 0 0 0 0 0 0 0 0 0 0 0 0 0 0 0 0 0 0 0 0 0 0 0 0 0 0 0 0 0 0
0 0 0 0 0 0 0 0 0 0 0 0 0 0 0 0 0 0 0 0 0 0 0 0 0 0 0 0 0 0 0 0 0 0 0 0 0 0 0 0 0 0 0 0 0 0 0 0 0 0 0 0 0 0 0 0 0 0 0 0 0 0 0 0 0 0 0 0 0 0 0 0 0 0 0 0 0 0 0 0 0 0 0 0 0 0 0 0 0 0 0 0 0 0 0 0 0 0 0 0 0 0 0 0 0 0 0 0 0 0 0 0 0 0 0 0 0 0 0 0 0 0 0 0 0 0 0 0 0 0 0 0 0 0 0 0 0 0 0 0 0 0 0 0
0 0 0 0 0 0 0 0 0 0 0 0 0 0 0 0 0 0 0 0 0 0 0 0 0 0 0 0 0 0 0 0 0 0 0 0 0 0 0 0 0 0 0 0 0 0 0 0 0 0 0 0 0 0 0 0 0 0 0 0 0 0 0 0 0 0 0 0 0 0 0 0 0 0 0 0 0 0 0 0 0 0 0 0 0 0 0 0 0 0 0 0 0 0 0 0 0 0 0 0 0 0 0 0 0 0 0 0 0 0 0 0 0 0 0 0 0 0 0 0 0 0 0 0 0 0 0 0 0 0 0 0 0 0 0 0 0 0 0 0 0 0 0 0
0 0 0 0 0 0 0 0 0 0 0 0 0 0 0 0 0 0 0 0 0 0 0 0 0 0 0 0 0 0 0 0 0 0 0 0 0 0 0 0 0 0 0 0 0 0 0 0 0 0 0 0 0 0 0 0 0 0 0 0 0 0 0 0 0 0 0 0 0 0 0 0 0 0 0 0 0 0 0 0 0 0 0 0 0 0 0 0 0 0 0 0 0 0 0 0 0 0 0 0 0 0 0 0 0 0 0 0 0 0 0 0 0 0 0 0 0 0 0 0 0 0 0 0 0 0 0 0 0 0 0 0 0 0 0 0 0 0 0 0 0 0 0 0
0 0 0 0 0 0 0 0 0 0 0 0 0 0 0 0 0 0 0 0 0 0 0 0 0 0 0 0 0 0 0 0 0 0 0 0 0 0 0 0 0 0 0 0 0 0 0 0 0 0 0 0 0 0 0 0 0 0 0 0 0 0 0 0 0 0 0 0 0 0 0 0 0 0 0 0 0 0 0 0 0 0 0 0 0 0 0 0 0 0 0 0 0 0 0 0 0 0 0 0 0 0 0 0 0 0 0 0 0 0 0 0 0 0 0 0 0 0 0 0 0 0 0 0 0 0 0 0 0 0 0 0 0 0 0 0 0 0 0 0 0 0 0 0
0 0 0 0 0 0 0 0 0 0 0 0 0 0 0 0 0 0 0 0 0 0 0 0 0 0 0 0 0 0 0 0 0 0 0 0 0 0 0 0 0 0 0 0 0 0 0 0 0 0 0 0 0 0 0 0 0 0 0 0 0 0 0 0 0 0 0 0 0 0 0 0 0 0 0 0 0 0 0 0 0 0 0 0 0 0 0 0 0 0 0 0 0 0 0 0 0 0 0 0 0 0 0 0 0 0 0 0 0 0 0 0 0 0 0 0 0 0 0 0 0 0 0 0 0 0 0 0 0 0 0 0 0 0 0 0 0 0 0 0 0 0 0 0
0 0 0 0 0 0 0 0 0 0 0 0 0 0 0 0 0 0 0 0 0 0 0 0 0 0 0 0 0 0 0 0 0 0 0 0 0 0 0 0 0 0 0 0 0 0 0 0 0 0 0 0 0 0 0 0 0 0 0 0 0 0 0 0 0 0 0 0 0 0 0 0 0 0 0 0 0 0 0 0 0 0 0 0 0 0 0 0 0 0 0 0 0 0 0 0 0 0 0 0 0 0 0 0 0 0 0 0 0 0 0 0 0 0 0 0 0 0 0 0 0 0 0 0 0 0 0 0 0 0 0 0 0 0 0 0 0 0 0 0 0 0 0 0
