P3
32 16
255
0 0 0 0 0 0 0 0 0 0 0 0 0 0 0 0 0 0 0 0 0 0 0 0 0 0 0 0 0 0 0 0 0 0 0 0 0 0 0 0 0 0 0 0 0 0 0 0 0 0 0 0 0 0 0 0 0 0 0 0 0 0 0 0 0 0 0 0 0 0 0 0 0 0 0 0 0 0 0 0 0 0 0 0 0 0 0 0 0 0 0 0 0 0 0 0
0 0 0 0 0 0 0 0 0 0 0 0 0 0 0 0 0 0 0 0 0 0 0 0 0 0 0 0 0 0 0 0 0 0 0 0 0 0 0 0 0 0 0 0 0 0 0 0 0 0 0 0 0 0 0 0 0 0 0 0 0 0 0 0 0 0 0 0 0 0 0 0 0 0 0 0 0 0 0 0 0 0 0 0 0 0 0 0 0 0 0 0 0 0 0 0
0 0 0 0 0 0 0 0 0 0 0 0 0 0 0 0 0 0 0 0 0 0 0 0 0 0 0 0 0 0 0 0 0 0 0 0 0 0 0 0 0 0 0 0 0 0 0 0 0 0 0 0 0 0 0 0 0 0 0 0 0 0 0 0 0 0 0 0 0 0 0 0 0 0 0 0 0 0 0 0 0 0 0 0 0 0 0 0 0 0 0 0 0 0 0 0
0 0 0 0 0 0 0 0 0 0 0 0 0 0 0 0 0 0 0 0 0 0 0 0 0 0 0 0 0 0 0 0 0 0 0 0 0 0 0 0 0 0 0 0 0 0 0 0 0 0 0 0 0 0 0 0 0 0 0 0 0 0 0 0 0 0 0 0 0 0 0 0 0 0 0 0 0 0 0 0 0 0 0 0 0 0 0 0 0 0 0 0 0 0 0 0
0 0 0 0 0 0 0 0 0 0 0 0 0 0 0 0 0 0 0 0 0 0 0 0 0 0 0 0 0 0 0 0 0 0 0 0 0 0 0 0 0 0 0 0 0 0 0 0 0 0 0 0 0 0 0 0 0 0 0 0 0 0 0 0 0 0 0 0 0 0 0 0 0 0 0 0 0 0 0 0 0 0 0 0 0 0 0 0 0 0 0 0 0 0 0 0
0 0 0 0 0 0 17 23 17 17 23 17 17 23 17 17 23 17 17 23 17 17 23 17 17 23 17 17 23 17 17 23 17 17 23 17 17 23 17 17 23 17 17 23 17 17 23 17 17 23 17 17 23 17 17 23 17 17 23 17 17 23 17 17 23 17 17 23 17 17 23 17 17 23 17 17 23 17 17 23 17 17 23 17 17 23 17 17 23 17 0 0 0 0 0 0
0 0 0 0 0 0 17 23 17 17 23 17 17 23 17 17 23 17 17 23 17 17 23 17 17 23 17 17 23 17 17 23 17 17 23 17 17 23 17 17 23 17 17 23 17 17 23 17 17 23 17 17 23 17 17 23 17 17 23 17 17 23 17 17 23 17 17 23 17 17 23 17 17 23 17 17 23 17 17 23 17 17 23 17 17 23 17 17 23 17 0 0 0 0 0 0
0 0 0 0 0 0 17 23 17 17 23 17 100 214 109 100 214 109 100 214 109 100 214 109 100 214 109 100 214 109 100 214 109 100 214 109 100 214 109 100 214 109 100 214 109 100 214 109 100 214 109 100 214 109 100 214 109 100 214 109 100 214 109 100 214 109 217 92 92 217 92 92 217 92 92 217 92 92 217 92 92 217 92 92 17 23 17 17 23 17 0 0 0 0 0 0
0 0 0 0 0 0 17 23 17 17 23 17 100 214 109 100 214 109 100 214 109 100 214 109 100 214 109 100 214 109 100 214 109 100 214 109 100 214 109 100 214 109 100 214 109 100 214 109 100 214 109 100 214 109 100 214 109 100 214 109 100 214 109 100 214 109 217 92 92 217 92 92 217 92 92 217 92 92 217 92 92 217 92 92 17 23 17 17 23 17 0 0 0 0 0 0
0 0 0 0 0 0 17 23 17 17 23 17 100 214 109 100 214 109 100 214 109 100 214 109 100 214 109 100 214 109 100 214 109 100 214 109 100 214 109 100 214 109 100 214 109 100 214 109 100 214 109 100 214 109 100 214 109 100 214 109 100 214 109 100 214 109 217 92 92 217 92 92 217 92 92 217 92 92 217 92 92 217 92 92 17 23 17 17 23 17 0 0 0 0 0 0
0 0 0 0 0 0 17 23 17 17 23 17 17 23 17 17 23 17 17 23 17 17 23 17 17 23 17 17 23 17 17 23 17 17 23 17 17 23 17 17 23 17 17 23 17 17 23 17 17 23 17 17 23 17 17 23 17 17 23 17 17 23 17 17 23 17 17 23 17 17 23 17 17 23 17 17 23 17 17 23 17 17 23 17 17 23 17 17 23 17 0 0 0 0 0 0
0 0 0 0 0 0 17 23 17 17 23 17 17 23 17 17 23 17 17 23 17 17 23 17 17 23 17 17 23 17 17 23 17 17 23 17 17 23 17 17 23 17 17 23 17 17 23 17 17 23 17 17 23 17 17 23 17 17 23 17 17 23 17 17 23 17 17 23 17 17 23 17 17 23 17 17 23 17 17 23 17 17 23 17 17 23 17 17 23 17 0 0 0 0 0 0
0 0 0 0 0 0 0 0 0 0 0 0 0 0 0 0 0 0 0 0 0 0 0 0 0 0 0 0 0 0 0 0 0 0 0 0 0 0 0 0 0 0 0 0 0 0 0 0 0 0 0 0 0 0 0 0 0 0 0 0 0 0 0 0 0 0 0 0 0 0 0 0 0 0 0 0 0 0 0 0 0 0 0 0 0 0 0 0 0 0 0 0 0 0 0 0
0 0 0 0 0 0 0 0 0 0 0 0 0 0 0 0 0 0 0 0 0 0 0 0 0 0 0 0 0 0 0 0 0 0 0 0 0 0 0 0 0 0 0 0 0 0 0 0 0 0 0 0 0 0 0 0 0 0 0 0 0 0 0 0 0 0 0 0 0 0 0 0 0 0 0 0 0 0 0 0 0 0 0 0 0 0 0 0 0 0 0 0 0 0 0 0
0 0 0 0 0 0 0 0 0 0 0 0 0 0 0 0 0 0 0 0 0 0 0 0 0 0 0 0 0 0 0 0 0 0 0 0 0 0 0 0 0 0 0 0 0 0 0 0 0 0 0 0 0 0 0 0 0 0 0 0 0 0 0 0 0 0 0 0 0 0 0 0 0 0 0 0 0 0 0 0 0 0 0 0 0 0 0 0 0 0 0 0 0 0 0 0
0 0 0 0 0 0 0 0 0 0 0 0 0 0 0 0 0 0 0 0 0 0 0 0 0 0 0 0 0 0 0 0 0 0 0 0 0 0 0 0 0 0 0 0 0 0 0 0 0 0 0 0 0 0 0 0 0 0 0 0 0 0 0 0 0 0 0 0 0 0 0 0 0 0 0 0 0 0 0 0 0 0 0 0 0 0 0 0 0 0 0 0 0 0 0 0
